;FLAVOR:Marlin
;TIME:8468
;Filament used: 5.50991m
;Layer height: 0.2
;MINX:49.171
;MINY:78.393
;MINZ:0.2
;MAXX:185.834
;MAXY:156.583
;MAXZ:14
;Generated with Cura_SteamEngine 4.6.1
M140 S57
M105
M190 S57
M104 S208
M105
M109 S208
M82 ;absolute extrusion mode
; Ender 3 Custom Start G-code
G92 E0 ; Reset Extruder
G28 ; Home all axes
G1 Z2.0 F3000 ; Move Z Axis up little to prevent scratching of Heat Bed
G1 X0.1 Y20 Z0.3 F5000.0 ; Move to start position
G1 X0.1 Y200.0 Z0.3 F1500.0 E15 ; Draw the first line
G1 X0.4 Y200.0 Z0.3 F5000.0 ; Move to side a little
G1 X0.4 Y20 Z0.3 F1500.0 E30 ; Draw the second line
G92 E0 ; Reset Extruder
G1 Z2.0 F3000 ; Move Z Axis up little to prevent scratching of Heat Bed
G1 X5 Y20 Z0.3 F5000.0 ; Move over to prevent blob squish
G92 E0
G92 E0
G1 F2700 E-5
;LAYER_COUNT:70
;LAYER:0
M107
G0 F6000 X169.001 Y79.204 Z0.2
;TYPE:SKIRT
G1 F2700 E0
G1 F1200 X169.545 Y79.226 E0.01811
G1 X170.304 Y79.282 E0.04342
G1 X170.794 Y79.329 E0.05979
G1 X172.061 Y79.531 E0.10247
G1 X172.474 Y79.624 E0.11655
G1 X172.867 Y79.721 E0.13001
G1 X173.432 Y79.872 E0.14946
G1 X174.293 Y80.143 E0.17948
G1 X174.734 Y80.316 E0.19524
G1 X175.406 Y80.602 E0.21953
G1 X175.91 Y80.83 E0.23793
G1 X176.716 Y81.238 E0.26798
G1 X177.116 Y81.476 E0.28346
G1 X177.482 Y81.705 E0.29782
G1 X177.781 Y81.899 E0.30967
G1 X178.24 Y82.209 E0.32809
G1 X179.284 Y83.017 E0.372
G1 X179.601 Y83.297 E0.38607
G1 X179.864 Y83.538 E0.39793
G1 X180.284 Y83.936 E0.41718
G1 X181.18 Y84.902 E0.461
G1 X181.429 Y85.208 E0.47412
G1 X181.66 Y85.504 E0.48661
G1 X182.01 Y85.968 E0.50594
G1 X182.74 Y87.078 E0.55013
G1 X182.964 Y87.473 E0.56523
G1 X183.13 Y87.779 E0.57681
G1 X183.382 Y88.261 E0.5949
G1 X183.914 Y89.46 E0.63853
G1 X184.057 Y89.848 E0.65228
G1 X184.187 Y90.225 E0.66555
G1 X184.362 Y90.764 E0.68439
G1 X184.685 Y92.026 E0.72772
G1 X184.772 Y92.488 E0.74336
G1 X184.831 Y92.837 E0.75513
G1 X184.907 Y93.335 E0.77189
G1 X185.021 Y94.635 E0.81529
G1 X185.032 Y95.105 E0.83093
G1 X185.034 Y95.497 E0.84396
G1 X185.026 Y96.031 E0.86173
G1 X184.922 Y97.336 E0.90527
G1 X184.858 Y97.779 E0.92016
G1 X184.798 Y98.151 E0.93269
G1 X184.701 Y98.683 E0.95068
G1 X184.392 Y99.927 E0.99331
G1 X184.264 Y100.332 E1.00744
G1 X184.128 Y100.732 E1.02149
G1 X183.932 Y101.273 E1.04063
G1 X183.417 Y102.455 E1.08351
G1 X183.221 Y102.837 E1.09779
G1 X183.052 Y103.153 E1.10971
G1 X182.784 Y103.633 E1.12799
G1 X182.309 Y104.402 E1.15806
G1 X182.044 Y104.773 E1.17322
G1 X181.586 Y105.377 E1.19843
G1 X181.239 Y105.811 E1.21691
G1 X180.34 Y106.795 E1.26124
G1 X180.032 Y107.091 E1.27545
G1 X179.768 Y107.336 E1.28743
G1 X179.347 Y107.713 E1.30623
G1 X178.649 Y108.285 E1.33624
G1 X178.267 Y108.557 E1.35184
G1 X177.615 Y108.999 E1.37804
G1 X175.477 Y110.477 E1.46449
G1 X173.44 Y111.974 E1.54856
G1 X171.43 Y113.538 E1.63327
G1 X169.484 Y115.143 E1.71717
G1 X167.555 Y116.829 E1.80238
G1 X165.69 Y118.554 E1.88688
G1 X163.874 Y120.332 E1.97141
G1 X162.137 Y122.132 E2.0546
G1 X160.404 Y124.033 E2.14016
G1 X158.741 Y125.961 E2.22485
G1 X157.148 Y127.92 E2.30883
G1 X155.592 Y129.948 E2.39384
G1 X154.102 Y132.006 E2.47835
G1 X152.681 Y134.092 E2.5623
G1 X151.325 Y136.209 E2.64592
G1 X149.564 Y139.168 E2.76044
G1 X148.785 Y140.522 E2.8124
G1 X147.66 Y142.362 E2.88413
G1 X147.271 Y142.979 E2.90839
G1 X146.611 Y143.907 E2.94627
G1 X146.424 Y144.141 E2.95623
G1 X146.22 Y144.388 E2.96688
G1 X144.811 Y146.041 E3.03912
G1 X144.331 Y146.588 E3.06333
G1 X143.724 Y147.222 E3.09252
G1 X143.578 Y147.362 E3.09925
G1 X143.229 Y147.682 E3.115
G1 X142.783 Y148.07 E3.13466
G1 X141.393 Y149.254 E3.19539
G1 X140.834 Y149.717 E3.21953
G1 X139.937 Y150.381 E3.25665
G1 X139.383 Y150.74 E3.27861
G1 X137.581 Y151.846 E3.34893
G1 X136.956 Y152.218 E3.37312
G1 X135.934 Y152.75 E3.41144
G1 X135.33 Y153.018 E3.43342
G1 X133.299 Y153.862 E3.50657
G1 X132.688 Y154.107 E3.52847
G1 X131.616 Y154.469 E3.5661
G1 X131.349 Y154.543 E3.57532
G1 X131.012 Y154.631 E3.5869
G1 X128.869 Y155.146 E3.66021
G1 X128.204 Y155.297 E3.68289
G1 X127.048 Y155.49 E3.72187
G1 X126.422 Y155.554 E3.7428
G1 X123.898 Y155.751 E3.827
G1 X123.528 Y155.769 E3.83932
G1 X123.074 Y155.783 E3.85443
G1 X122.129 Y155.768 E3.88587
G1 X121.182 Y155.708 E3.91743
G1 X119.601 Y155.583 E3.97017
G1 X118.902 Y155.519 E3.99352
G1 X117.734 Y155.343 E4.03281
G1 X117.152 Y155.217 E4.05261
G1 X115.059 Y154.717 E4.12419
G1 X114.371 Y154.543 E4.14779
G1 X113.277 Y154.199 E4.18593
G1 X112.678 Y153.969 E4.20727
G1 X110.614 Y153.117 E4.28154
G1 X109.989 Y152.847 E4.30418
G1 X109.089 Y152.404 E4.33755
G1 X108.822 Y152.256 E4.3477
G1 X108.446 Y152.037 E4.36217
G1 X106.607 Y150.911 E4.43389
G1 X105.972 Y150.51 E4.45887
G1 X105.019 Y149.829 E4.49783
G1 X104.552 Y149.448 E4.51788
G1 X102.897 Y148.036 E4.59023
G1 X102.379 Y147.581 E4.61317
G1 X101.752 Y146.982 E4.64201
G1 X101.608 Y146.832 E4.64892
G1 X101.286 Y146.48 E4.66479
G1 X100.895 Y146.033 E4.68454
G1 X99.72 Y144.654 E4.7448
G1 X99.258 Y144.098 E4.76884
G1 X98.573 Y143.172 E4.80715
G1 X98.206 Y142.612 E4.82942
G1 X96.745 Y140.446 E4.91632
G1 X95.269 Y138.386 E5.00061
G1 X93.747 Y136.386 E5.0842
G1 X92.13 Y134.379 E5.16992
G1 X90.49 Y132.459 E5.25391
G1 X88.774 Y130.561 E5.33901
G1 X87.023 Y128.73 E5.42328
G1 X85.225 Y126.953 E5.50736
G1 X83.379 Y125.232 E5.5913
G1 X81.443 Y123.525 E5.67714
G1 X79.517 Y121.921 E5.76051
G1 X77.512 Y120.346 E5.84531
G1 X75.463 Y118.827 E5.93014
G1 X73.394 Y117.384 E6.01404
G1 X71.262 Y115.982 E6.09891
G1 X69.122 Y114.661 E6.18256
G1 X66.889 Y113.369 E6.26836
G1 X64.686 Y112.175 E6.35171
G1 X62.423 Y111.031 E6.43604
G1 X59.502 Y109.668 E6.54325
G1 X59.028 Y109.457 E6.56051
G1 X57.835 Y108.829 E6.60535
G1 X57.503 Y108.625 E6.61831
G1 X57.22 Y108.444 E6.62948
G1 X56.775 Y108.15 E6.64722
G1 X56.045 Y107.62 E6.67723
G1 X55.675 Y107.311 E6.69326
G1 X55.343 Y107.02 E6.70794
G1 X55.102 Y106.802 E6.71875
G1 X54.736 Y106.46 E6.73541
G1 X53.841 Y105.509 E6.77885
G1 X53.587 Y105.202 E6.7921
G1 X53.363 Y104.922 E6.80403
G1 X53.032 Y104.492 E6.82208
G1 X52.288 Y103.381 E6.86655
G1 X52.101 Y103.058 E6.87896
G1 X51.927 Y102.745 E6.89087
G1 X51.653 Y102.231 E6.91025
G1 X51.102 Y101.011 E6.95477
G1 X50.978 Y100.68 E6.96653
G1 X50.871 Y100.38 E6.97712
G1 X50.684 Y99.829 E6.99647
G1 X50.432 Y98.962 E7.0265
G1 X50.324 Y98.462 E7.04352
G1 X50.188 Y97.728 E7.06835
G1 X50.11 Y97.239 E7.08481
G1 X49.989 Y95.979 E7.12692
G1 X49.977 Y95.626 E7.13866
G1 X49.971 Y95.244 E7.15137
G1 X49.973 Y94.653 E7.17103
G1 X50.066 Y93.314 E7.21567
G1 X50.122 Y92.902 E7.2295
G1 X50.178 Y92.537 E7.24178
G1 X50.269 Y92.011 E7.25954
G1 X50.462 Y91.129 E7.28957
G1 X50.59 Y90.691 E7.30474
G1 X50.723 Y90.268 E7.31949
G1 X50.832 Y89.939 E7.33102
G1 X50.988 Y89.496 E7.34664
G1 X51.486 Y88.322 E7.38905
G1 X51.674 Y87.946 E7.40304
G1 X51.84 Y87.628 E7.41497
G1 X52.095 Y87.16 E7.43269
G1 X52.818 Y86.021 E7.47756
G1 X53.049 Y85.705 E7.49058
G1 X53.26 Y85.425 E7.50224
G1 X53.607 Y84.983 E7.52093
G1 X54.196 Y84.298 E7.55098
G1 X54.532 Y83.957 E7.5669
G1 X54.823 Y83.675 E7.58038
G1 X55.066 Y83.447 E7.59147
G1 X55.466 Y83.084 E7.60943
G1 X56.508 Y82.255 E7.65372
G1 X56.831 Y82.031 E7.66679
G1 X57.114 Y81.842 E7.67811
G1 X57.565 Y81.551 E7.69596
G1 X58.701 Y80.917 E7.73923
G1 X59.032 Y80.759 E7.75143
G1 X59.373 Y80.604 E7.76389
G1 X59.895 Y80.378 E7.78281
G1 X61.161 Y79.926 E7.82752
G1 X61.594 Y79.803 E7.84249
G1 X61.95 Y79.709 E7.85474
G1 X62.435 Y79.59 E7.87135
G1 X63.701 Y79.363 E7.91413
G1 X64.075 Y79.32 E7.92665
G1 X64.447 Y79.284 E7.93908
G1 X64.96 Y79.244 E7.95619
G1 X65.571 Y79.215 E7.97654
G1 X66.636 Y79.197 E8.01196
G1 X69.678 Y79.193 E8.11314
G1 X168.151 Y79.193 E11.38837
G1 X168.295 Y79.194 E11.39316
G1 X169.001 Y79.204 E11.41664
G0 F6000 X169.007 Y78.804
G1 F1200 X169.572 Y78.827 E11.43545
G1 X170.342 Y78.883 E11.46112
G1 X170.832 Y78.93 E11.4775
G1 X172.149 Y79.141 E11.52186
G1 X172.562 Y79.234 E11.53594
G1 X172.97 Y79.334 E11.54991
G1 X173.535 Y79.485 E11.56936
G1 X174.413 Y79.762 E11.59998
G1 X174.889 Y79.947 E11.61697
G1 X175.571 Y80.237 E11.64162
G1 X176.075 Y80.465 E11.66002
G1 X176.897 Y80.881 E11.69066
G1 X177.328 Y81.137 E11.70733
G1 X177.694 Y81.366 E11.72169
G1 X178.005 Y81.568 E11.73403
G1 X178.464 Y81.878 E11.75245
G1 X179.548 Y82.717 E11.79804
G1 X179.865 Y82.997 E11.81211
G1 X180.139 Y83.248 E11.82447
G1 X180.559 Y83.646 E11.84371
G1 X181.49 Y84.65 E11.88925
G1 X181.739 Y84.956 E11.90237
G1 X181.979 Y85.263 E11.91533
G1 X182.329 Y85.727 E11.93467
G1 X182.851 Y86.485 E11.96528
G1 X183.088 Y86.881 E11.98063
G1 X183.312 Y87.276 E11.99573
G1 X183.485 Y87.594 E12.00777
G1 X183.737 Y88.076 E12.02586
G1 X184.289 Y89.321 E12.07116
G1 X184.432 Y89.709 E12.08491
G1 X184.568 Y90.102 E12.09874
G1 X184.743 Y90.641 E12.11759
G1 X185.078 Y91.952 E12.1626
G1 X185.165 Y92.414 E12.17823
G1 X185.227 Y92.777 E12.19048
G1 X185.303 Y93.275 E12.20723
G1 X185.421 Y94.626 E12.25234
G1 X185.432 Y95.096 E12.26798
G1 X185.434 Y95.503 E12.28151
G1 X185.426 Y96.037 E12.29928
G1 X185.318 Y97.394 E12.34455
G1 X185.254 Y97.837 E12.35944
G1 X185.191 Y98.222 E12.37242
G1 X185.094 Y98.754 E12.3904
G1 X184.773 Y100.047 E12.43471
G1 X184.645 Y100.452 E12.44884
G1 X184.504 Y100.869 E12.46348
G1 X184.308 Y101.41 E12.48262
G1 X183.773 Y102.638 E12.52717
G1 X183.577 Y103.02 E12.54145
G1 X183.401 Y103.348 E12.55383
G1 X183.133 Y103.828 E12.57212
G1 X182.65 Y104.612 E12.60274
G1 X182.364 Y105.013 E12.61913
G1 X182.105 Y105.359 E12.6335
G1 X181.898 Y105.626 E12.64474
G1 X181.551 Y106.06 E12.66322
G1 X180.945 Y106.754 E12.69386
G1 X180.617 Y107.084 E12.70934
G1 X180.309 Y107.38 E12.72355
G1 X180.035 Y107.634 E12.73597
G1 X179.614 Y108.011 E12.75477
G1 X178.902 Y108.594 E12.78538
G1 X178.491 Y108.888 E12.80218
G1 X177.92 Y109.275 E12.82513
G1 X175.719 Y110.797 E12.91413
G1 X173.677 Y112.297 E12.9984
G1 X171.685 Y113.847 E13.08235
G1 X169.719 Y115.469 E13.16712
G1 X167.845 Y117.107 E13.2499
G1 X165.959 Y118.85 E13.33532
G1 X164.159 Y120.613 E13.41912
G1 X162.419 Y122.415 E13.50243
G1 X160.703 Y124.298 E13.58717
G1 X159.056 Y126.208 E13.67105
G1 X157.443 Y128.192 E13.7561
G1 X155.93 Y130.163 E13.83874
G1 X154.441 Y132.221 E13.92323
G1 X153.006 Y134.328 E14.00802
G1 X151.669 Y136.415 E14.09045
G1 X149.883 Y139.414 E14.20655
G1 X149.126 Y140.731 E14.25707
G1 X147.999 Y142.575 E14.32895
G1 X147.61 Y143.192 E14.35321
G1 X146.924 Y144.156 E14.39256
G1 X146.737 Y144.39 E14.40253
G1 X146.525 Y144.647 E14.41361
G1 X145.111 Y146.304 E14.48606
G1 X144.631 Y146.851 E14.51026
G1 X144 Y147.511 E14.54063
G1 X143.854 Y147.651 E14.54736
G1 X143.492 Y147.983 E14.5637
G1 X143.043 Y148.374 E14.5835
G1 X141.649 Y149.562 E14.64442
G1 X141.09 Y150.025 E14.66856
G1 X140.157 Y150.715 E14.70715
G1 X139.873 Y150.902 E14.71846
G1 X139.592 Y151.081 E14.72955
G1 X137.785 Y152.19 E14.80006
G1 X137.16 Y152.562 E14.82425
G1 X136.099 Y153.115 E14.86405
G1 X135.771 Y153.263 E14.87602
G1 X135.484 Y153.387 E14.88642
G1 X133.448 Y154.234 E14.95976
G1 X132.837 Y154.479 E14.98165
G1 X131.723 Y154.855 E15.02076
G1 X131.456 Y154.929 E15.02997
G1 X131.106 Y155.02 E15.042
G1 X128.957 Y155.536 E15.11551
G1 X128.292 Y155.687 E15.13819
G1 X127.092 Y155.888 E15.17866
G1 X126.454 Y155.953 E15.19999
G1 X123.925 Y156.15 E15.28436
G1 X123.541 Y156.169 E15.29715
G1 X123.087 Y156.183 E15.31225
G1 X122.104 Y156.168 E15.34495
G1 X121.151 Y156.107 E15.37671
G1 X119.565 Y155.981 E15.42963
G1 X118.866 Y155.917 E15.45298
G1 X117.652 Y155.734 E15.49381
G1 X117.059 Y155.606 E15.51399
G1 X114.961 Y155.104 E15.58574
G1 X114.273 Y154.93 E15.60934
G1 X113.136 Y154.574 E15.64897
G1 X112.525 Y154.339 E15.67074
G1 X110.455 Y153.484 E15.74523
G1 X109.83 Y153.214 E15.76788
G1 X108.895 Y152.754 E15.80253
G1 X108.628 Y152.606 E15.81269
G1 X108.237 Y152.378 E15.82774
G1 X106.393 Y151.25 E15.89964
G1 X105.758 Y150.849 E15.92462
G1 X104.768 Y150.141 E15.9651
G1 X104.293 Y149.753 E15.9855
G1 X102.633 Y148.337 E16.05807
G1 X102.115 Y147.882 E16.081
G1 X101.463 Y147.259 E16.11099
G1 X101.319 Y147.109 E16.11791
G1 X100.985 Y146.743 E16.13439
G1 X100.591 Y146.292 E16.15431
G1 X99.412 Y144.909 E16.21475
G1 X98.95 Y144.353 E16.2388
G1 X98.239 Y143.391 E16.27858
G1 X97.884 Y142.85 E16.30011
G1 X96.421 Y140.681 E16.38712
G1 X94.957 Y138.638 E16.47072
G1 X93.416 Y136.611 E16.55541
G1 X91.831 Y134.644 E16.63943
G1 X90.173 Y132.703 E16.72433
G1 X88.506 Y130.86 E16.80698
G1 X86.736 Y129.009 E16.89217
G1 X84.935 Y127.23 E16.97636
G1 X83.107 Y125.525 E17.05951
G1 X81.198 Y123.842 E17.14415
G1 X79.238 Y122.21 E17.22898
G1 X77.272 Y120.666 E17.31212
G1 X75.242 Y119.161 E17.39617
G1 X73.192 Y117.73 E17.47933
G1 X71.037 Y116.314 E17.56509
G1 X68.892 Y114.99 E17.64893
G1 X66.719 Y113.732 E17.73244
G1 X64.494 Y112.526 E17.81662
G1 X62.226 Y111.38 E17.90113
G1 X59.349 Y110.037 E18.00674
G1 X58.865 Y109.822 E18.02435
G1 X58.041 Y109.412 E18.05496
G1 X57.626 Y109.169 E18.07096
G1 X57.294 Y108.965 E18.08392
G1 X57 Y108.778 E18.09551
G1 X56.555 Y108.484 E18.11325
G1 X55.81 Y107.944 E18.14385
G1 X55.411 Y107.611 E18.16113
G1 X55.079 Y107.32 E18.17582
G1 X54.829 Y107.094 E18.18703
G1 X54.463 Y106.752 E18.20369
G1 X53.533 Y105.764 E18.24882
G1 X53.279 Y105.457 E18.26207
G1 X53.046 Y105.166 E18.27447
G1 X52.715 Y104.736 E18.29252
G1 X52.186 Y103.983 E18.32312
G1 X51.941 Y103.581 E18.33878
G1 X51.754 Y103.258 E18.3512
G1 X51.574 Y102.933 E18.36355
G1 X51.3 Y102.419 E18.38293
G1 X50.903 Y101.589 E18.41353
G1 X50.728 Y101.152 E18.42918
G1 X50.492 Y100.509 E18.45197
G1 X50.305 Y99.958 E18.47132
G1 X50.048 Y99.074 E18.50194
G1 X49.931 Y98.537 E18.52022
G1 X49.793 Y97.791 E18.54545
G1 X49.715 Y97.302 E18.56192
G1 X49.589 Y95.992 E18.60569
G1 X49.577 Y95.639 E18.61744
G1 X49.571 Y95.243 E18.63061
G1 X49.573 Y94.652 E18.65027
G1 X49.616 Y93.732 E18.6809
G1 X49.67 Y93.26 E18.6967
G1 X49.726 Y92.848 E18.71053
G1 X49.784 Y92.469 E18.72328
G1 X49.875 Y91.943 E18.74104
G1 X50.071 Y91.043 E18.77167
G1 X50.208 Y90.571 E18.78802
G1 X50.341 Y90.148 E18.80277
G1 X50.455 Y89.806 E18.81476
G1 X50.611 Y89.363 E18.83038
G1 X51.128 Y88.144 E18.87442
G1 X51.316 Y87.768 E18.8884
G1 X51.489 Y87.436 E18.90085
G1 X51.744 Y86.968 E18.91858
G1 X52.219 Y86.18 E18.94918
G1 X52.495 Y85.784 E18.96524
G1 X52.726 Y85.468 E18.97826
G1 X52.945 Y85.178 E18.99034
G1 X53.292 Y84.736 E19.00903
G1 X53.892 Y84.038 E19.03965
G1 X54.253 Y83.67 E19.05679
G1 X54.544 Y83.388 E19.07027
G1 X54.798 Y83.15 E19.08185
G1 X55.198 Y82.787 E19.09981
G1 X55.906 Y82.199 E19.13042
G1 X56.28 Y81.927 E19.1458
G1 X56.603 Y81.703 E19.15888
G1 X56.897 Y81.506 E19.17065
G1 X57.348 Y81.215 E19.1885
G1 X58.529 Y80.556 E19.23348
G1 X58.86 Y80.398 E19.24568
G1 X59.214 Y80.237 E19.25862
G1 X59.736 Y80.011 E19.27754
G1 X60.596 Y79.682 E19.30816
G1 X61.052 Y79.541 E19.32404
G1 X61.485 Y79.418 E19.33901
G1 X61.855 Y79.32 E19.35174
G1 X62.34 Y79.201 E19.36835
G1 X63.655 Y78.965 E19.41278
G1 X64.029 Y78.922 E19.4253
G1 X64.416 Y78.885 E19.43824
G1 X64.929 Y78.845 E19.45535
G1 X65.564 Y78.815 E19.47649
G1 X66.635 Y78.797 E19.51212
G1 X69.677 Y78.793 E19.6133
G1 X168.151 Y78.793 E22.88856
G1 X168.301 Y78.794 E22.89354
G1 X169.007 Y78.804 E22.91703
G0 F6000 X169.013 Y78.404
G1 F1200 X169.599 Y78.428 E22.93654
G1 X170.38 Y78.485 E22.96258
G1 X170.87 Y78.532 E22.97895
G1 X172.236 Y78.751 E23.02497
G1 X172.649 Y78.844 E23.03905
G1 X173.073 Y78.948 E23.05357
G1 X173.638 Y79.099 E23.07302
G1 X174.533 Y79.38 E23.10422
G1 X175.043 Y79.578 E23.12242
G1 X175.736 Y79.873 E23.14747
G1 X176.24 Y80.101 E23.16587
G1 X177.077 Y80.523 E23.19704
G1 X177.541 Y80.798 E23.21498
G1 X177.907 Y81.027 E23.22934
G1 X178.229 Y81.236 E23.24211
G1 X178.688 Y81.546 E23.26053
G1 X179.442 Y82.104 E23.29173
G1 X179.813 Y82.418 E23.3079
G1 X180.13 Y82.698 E23.32196
G1 X180.414 Y82.958 E23.33477
G1 X180.834 Y83.356 E23.35401
G1 X181.487 Y84.029 E23.3852
G1 X181.8 Y84.397 E23.40127
G1 X182.049 Y84.703 E23.41439
G1 X182.299 Y85.022 E23.42787
G1 X182.649 Y85.486 E23.4472
G1 X183.181 Y86.258 E23.47839
G1 X183.436 Y86.684 E23.4949
G1 X183.66 Y87.079 E23.51
G1 X183.839 Y87.408 E23.52246
G1 X184.091 Y87.89 E23.54055
G1 X184.49 Y88.739 E23.57175
