;FLAVOR:Marlin
;TIME:11192
;Filament used: 5.81961m
;Layer height: 0.16
;MINX:84.5
;MINY:75.392
;MINZ:0.2
;MAXX:150.5
;MAXY:159.542
;MAXZ:44.84
;Generated with Cura_SteamEngine 4.11.0
M140 S50
M105
M190 S50
M104 S200
M105
M109 S200
M82 ;absolute extrusion mode
; Ender 3 Custom Start G-code
G92 E0 ; Reset Extruder
G28 ; Home all axes
G1 Z2.0 F3000 ; Move Z Axis up little to prevent scratching of Heat Bed
G1 X0.1 Y20 Z0.3 F5000.0 ; Move to start position
G1 X0.1 Y200.0 Z0.3 F1500.0 E15 ; Draw the first line
G1 X0.4 Y200.0 Z0.3 F5000.0 ; Move to side a little
G1 X0.4 Y20 Z0.3 F1500.0 E30 ; Draw the second line
G92 E0 ; Reset Extruder
G1 Z2.0 F3000 ; Move Z Axis up little to prevent scratching of Heat Bed
G1 X5 Y20 Z0.3 F5000.0 ; Move over to prevent blob squish
G92 E0
G92 E0
G1 F2700 E-5
;LAYER_COUNT:231
;LAYER:0
M107
G0 F6000 X87.71 Y87.719 Z0.2
;TYPE:SKIRT
G1 F2700 E0
G1 F1200 X88.399 Y87.082 E0.03121
G1 X89.14 Y86.507 E0.06241
G1 X89.927 Y85.997 E0.0936
G1 X90.755 Y85.556 E0.1248
G1 X91.244 Y85.336 E0.14263
G1 X92.163 Y84.951 E0.17577
G1 X93.204 Y84.531 E0.21311
G1 X95.549 Y83.505 E0.29824
G1 X97.841 Y82.425 E0.38251
G1 X99.549 Y81.569 E0.44606
G1 X100.431 Y81.174 E0.4782
G1 X100.933 Y80.988 E0.49601
G1 X101.926 Y80.646 E0.53094
G1 X104.324 Y79.782 E0.61571
G1 X106.707 Y78.844 E0.70089
G1 X109.007 Y77.863 E0.78406
G1 X111.341 Y76.791 E0.86948
G1 X111.987 Y76.482 E0.8933
G1 X112.849 Y76.115 E0.92446
G1 X113.74 Y75.822 E0.95566
G1 X114.653 Y75.606 E0.98686
G1 X115.581 Y75.468 E1.01807
G1 X116.536 Y75.41 E1.04989
G1 X117.645 Y75.392 E1.08678
G1 X118.485 Y75.392 E1.11472
G1 X119.36 Y75.404 E1.14382
G1 X120.296 Y75.459 E1.17501
G1 X121.225 Y75.593 E1.20623
G1 X122.138 Y75.806 E1.23741
G1 X123.03 Y76.096 E1.26861
G1 X124.116 Y76.569 E1.308
G1 X125.158 Y77.093 E1.3468
G1 X125.769 Y77.412 E1.36972
G1 X128.034 Y78.515 E1.45351
G1 X130.344 Y79.557 E1.5378
G1 X132.638 Y80.518 E1.62052
G1 X133.522 Y80.86 E1.65205
G1 X134.404 Y81.214 E1.68366
G1 X135 Y81.473 E1.70527
G1 X135.324 Y81.627 E1.7172
G1 X137.434 Y82.652 E1.79522
G1 X139.714 Y83.68 E1.87841
G1 X142.065 Y84.661 E1.96314
G1 X142.589 Y84.864 E1.98183
G1 X143.596 Y85.269 E2.01793
G1 X144.45 Y85.656 E2.04911
G1 X145.268 Y86.114 E2.08029
G1 X146.045 Y86.64 E2.1115
G1 X146.773 Y87.231 E2.14269
G1 X147.449 Y87.881 E2.17388
G1 X148.067 Y88.587 E2.20509
G1 X148.623 Y89.342 E2.23627
G1 X149.112 Y90.142 E2.26746
G1 X149.531 Y90.981 E2.29865
G1 X149.878 Y91.853 E2.32987
G1 X150.148 Y92.751 E2.36105
G1 X150.342 Y93.669 E2.39226
G1 X150.456 Y94.599 E2.42342
G1 X150.487 Y95.168 E2.44238
G1 X150.496 Y95.49 E2.45309
G1 X150.5 Y95.801 E2.46344
G1 X150.499 Y98.376 E2.54908
G1 X150.492 Y100.31 E2.61341
G1 X150.5 Y101.539 E2.65428
G1 X150.499 Y107.089 E2.83888
G1 X150.492 Y109.023 E2.9032
G1 X150.5 Y110.252 E2.94408
G1 X150.499 Y115.802 E3.12868
G1 X150.492 Y117.736 E3.193
G1 X150.5 Y118.965 E3.23388
G1 X150.499 Y124.514 E3.41844
G1 X150.492 Y126.447 E3.48273
G1 X150.5 Y127.677 E3.52364
G1 X150.499 Y133.227 E3.70824
G1 X150.492 Y135.16 E3.77253
G1 X150.5 Y136.312 E3.81084
G1 X150.499 Y138.882 E3.89632
G1 X150.489 Y139.61 E3.92054
G1 X150.436 Y140.546 E3.95172
G1 X150.304 Y141.475 E3.98293
G1 X150.093 Y142.389 E4.01413
G1 X149.805 Y143.281 E4.0453
G1 X149.441 Y144.146 E4.07652
G1 X149.006 Y144.977 E4.10772
G1 X148.501 Y145.767 E4.1389
G1 X147.931 Y146.512 E4.1701
G1 X147.3 Y147.205 E4.20127
G1 X146.612 Y147.842 E4.23246
G1 X145.872 Y148.419 E4.26367
G1 X145.085 Y148.93 E4.29488
G1 X144.258 Y149.372 E4.32607
G1 X143.175 Y149.823 E4.36508
G1 X142.553 Y150.044 E4.38704
G1 X140.113 Y150.947 E4.47357
G1 X137.749 Y151.899 E4.55834
G1 X135.454 Y152.899 E4.6416
G1 X133.173 Y153.971 E4.72543
G1 X130.917 Y155.109 E4.80947
G1 X128.723 Y156.296 E4.89244
G1 X126.475 Y157.596 E4.97881
G1 X125.781 Y158.006 E5.00562
G1 X124.954 Y158.447 E5.03679
G1 X124.091 Y158.816 E5.06801
G1 X123.201 Y159.109 E5.09917
G1 X122.288 Y159.326 E5.13038
G1 X121.361 Y159.465 E5.16156
G1 X120.395 Y159.524 E5.19375
G1 X119.288 Y159.542 E5.23057
G1 X118.292 Y159.541 E5.2637
G1 X117.588 Y159.531 E5.28712
G1 X116.651 Y159.478 E5.31833
G1 X115.723 Y159.345 E5.34951
G1 X114.809 Y159.133 E5.38072
G1 X113.917 Y158.845 E5.4119
G1 X113.052 Y158.481 E5.44311
G1 X112.52 Y158.213 E5.46292
G1 X111.371 Y157.593 E5.50635
G1 X109.164 Y156.442 E5.58913
G1 X106.847 Y155.315 E5.67483
G1 X104.601 Y154.3 E5.75681
G1 X102.237 Y153.31 E5.84205
G1 X99.889 Y152.407 E5.92572
G1 X97.56 Y151.585 E6.00787
G1 X95.122 Y150.8 E6.09306
G1 X92.377 Y150.002 E6.18813
G1 X91.49 Y149.697 E6.21933
G1 X90.632 Y149.317 E6.25054
G1 X89.81 Y148.866 E6.28173
G1 X89.03 Y148.346 E6.31291
G1 X88.296 Y147.762 E6.3441
G1 X87.615 Y147.117 E6.3753
G1 X86.991 Y146.417 E6.40649
G1 X86.429 Y145.666 E6.43769
G1 X85.933 Y144.87 E6.46888
G1 X85.507 Y144.035 E6.50006
G1 X85.153 Y143.166 E6.53127
G1 X84.875 Y142.27 E6.56247
G1 X84.674 Y141.354 E6.59366
G1 X84.552 Y140.424 E6.62486
G1 X84.513 Y139.766 E6.64678
G1 X84.504 Y139.446 E6.65743
G1 X84.5 Y139.133 E6.66784
G1 X84.501 Y136.558 E6.75349
G1 X84.508 Y134.625 E6.81778
G1 X84.5 Y133.395 E6.85869
G1 X84.501 Y127.845 E7.04328
G1 X84.508 Y125.912 E7.10758
G1 X84.5 Y124.682 E7.14849
G1 X84.501 Y119.132 E7.33308
G1 X84.508 Y117.198 E7.39741
G1 X84.5 Y115.969 E7.43828
G1 X84.501 Y110.419 E7.62288
G1 X84.508 Y108.485 E7.6872
G1 X84.5 Y107.256 E7.72808
G1 X84.501 Y101.706 E7.91267
G1 X84.508 Y99.772 E7.977
G1 X84.5 Y98.621 E8.01528
G1 X84.501 Y95.976 E8.10326
G1 X84.511 Y95.31 E8.12541
G1 X84.565 Y94.374 E8.15659
G1 X84.699 Y93.445 E8.18781
G1 X84.911 Y92.532 E8.21899
G1 X85.2 Y91.64 E8.25017
G1 X85.565 Y90.775 E8.2814
G1 X86.001 Y89.945 E8.31258
G1 X86.507 Y89.155 E8.34379
G1 X87.078 Y88.411 E8.37498
G1 X87.71 Y87.719 E8.40615
G0 F6000 X88.102 Y87.894
G1 F1200 X88.788 Y87.279 E8.43679
G1 X89.524 Y86.727 E8.46739
G1 X90.306 Y86.241 E8.49801
G1 X91.399 Y85.705 E8.5385
G1 X92.313 Y85.321 E8.57148
G1 X93.395 Y84.884 E8.61029
G1 X95.701 Y83.876 E8.69399
G1 X97.994 Y82.795 E8.77831
G1 X99.728 Y81.926 E8.84282
G1 X100.578 Y81.546 E8.87379
G1 X101.063 Y81.366 E8.89099
G1 X102.043 Y81.028 E8.92547
G1 X104.481 Y80.15 E9.01166
G1 X106.862 Y79.213 E9.09676
G1 X109.152 Y78.237 E9.17956
G1 X111.53 Y77.144 E9.26661
G1 X112.159 Y76.843 E9.2898
G1 X113.006 Y76.483 E9.32041
G1 X113.881 Y76.197 E9.35103
G1 X114.778 Y75.989 E9.38165
G1 X115.69 Y75.859 E9.41229
G1 X116.543 Y75.81 E9.44071
G1 X117.645 Y75.792 E9.47737
G1 X118.485 Y75.792 E9.50531
G1 X119.354 Y75.804 E9.53421
G1 X120.273 Y75.859 E9.56483
G1 X121.184 Y75.993 E9.59546
G1 X122.08 Y76.205 E9.62608
G1 X122.954 Y76.494 E9.6567
G1 X123.937 Y76.926 E9.69241
G1 X124.973 Y77.447 E9.73098
G1 X125.588 Y77.768 E9.75406
G1 X127.86 Y78.874 E9.8381
G1 X130.174 Y79.919 E9.92255
G1 X132.506 Y80.895 E10.00663
G1 X133.235 Y81.176 E10.03262
G1 X134.255 Y81.585 E10.06917
G1 X134.829 Y81.835 E10.08999
G1 X135.149 Y81.987 E10.10177
G1 X137.26 Y83.012 E10.17982
G1 X139.545 Y84.043 E10.2632
G1 X141.916 Y85.032 E10.34865
G1 X142.439 Y85.236 E10.36732
G1 X143.446 Y85.641 E10.40342
G1 X144.285 Y86.021 E10.43405
G1 X145.087 Y86.472 E10.46466
G1 X145.847 Y86.992 E10.49528
G1 X146.559 Y87.576 E10.52591
G1 X147.218 Y88.219 E10.55654
G1 X147.818 Y88.917 E10.58715
G1 X148.356 Y89.664 E10.61777
G1 X148.827 Y90.455 E10.64839
G1 X149.227 Y91.284 E10.679
G1 X149.554 Y92.145 E10.70964
G1 X149.805 Y93.03 E10.74023
G1 X149.978 Y93.935 E10.77088
G1 X150.087 Y95.179 E10.81241
G1 X150.096 Y95.501 E10.82312
G1 X150.1 Y95.801 E10.8331
G1 X150.099 Y98.374 E10.91868
G1 X150.092 Y100.312 E10.98314
G1 X150.1 Y101.539 E11.02395
G1 X150.099 Y107.087 E11.20848
G1 X150.092 Y109.025 E11.27294
G1 X150.1 Y110.252 E11.31375
G1 X150.099 Y115.8 E11.49828
G1 X150.092 Y117.738 E11.56273
G1 X150.1 Y118.965 E11.60355
G1 X150.099 Y124.512 E11.78804
G1 X150.092 Y126.449 E11.85246
G1 X150.1 Y127.677 E11.89331
G1 X150.099 Y133.225 E12.07784
G1 X150.092 Y135.162 E12.14226
G1 X150.1 Y136.314 E12.18058
G1 X150.099 Y138.877 E12.26582
G1 X150.089 Y139.605 E12.29004
G1 X150.036 Y140.524 E12.32066
G1 X149.904 Y141.435 E12.35127
G1 X149.693 Y142.331 E12.38189
G1 X149.406 Y143.206 E12.41252
G1 X149.043 Y144.052 E12.44314
G1 X148.609 Y144.864 E12.47376
G1 X148.105 Y145.634 E12.50437
G1 X147.537 Y146.359 E12.535
G1 X146.908 Y147.031 E12.56561
G1 X146.223 Y147.646 E12.59623
G1 X145.487 Y148.199 E12.62685
G1 X144.706 Y148.687 E12.65748
G1 X143.886 Y149.105 E12.68809
G1 X143.041 Y149.447 E12.71841
G1 X142.386 Y149.68 E12.74154
G1 X139.95 Y150.582 E12.82793
G1 X137.588 Y151.532 E12.91261
G1 X135.303 Y152.528 E12.99552
G1 X133.002 Y153.61 E13.08009
G1 X130.726 Y154.758 E13.16487
G1 X128.523 Y155.949 E13.24817
G1 X126.289 Y157.242 E13.33402
G1 X125.578 Y157.661 E13.36147
G1 X124.766 Y158.093 E13.39206
G1 X123.918 Y158.453 E13.4227
G1 X123.043 Y158.738 E13.45331
G1 X122.146 Y158.946 E13.48393
G1 X121.234 Y159.076 E13.51457
G1 X120.388 Y159.124 E13.54275
G1 X119.288 Y159.142 E13.57935
G1 X118.297 Y159.141 E13.61231
G1 X117.593 Y159.131 E13.63572
G1 X116.674 Y159.078 E13.66634
G1 X115.763 Y158.945 E13.69696
G1 X114.867 Y158.734 E13.72758
G1 X113.993 Y158.446 E13.75819
G1 X113.147 Y158.083 E13.7888
G1 X112.71 Y157.861 E13.80511
G1 X111.598 Y157.261 E13.84713
G1 X109.317 Y156.071 E13.9327
G1 X107.051 Y154.969 E14.01651
G1 X104.741 Y153.925 E14.10082
G1 X102.357 Y152.927 E14.18678
G1 X100.062 Y152.044 E14.26857
G1 X97.668 Y151.199 E14.35301
G1 X95.251 Y150.421 E14.43746
G1 X92.491 Y149.618 E14.53307
G1 X91.62 Y149.318 E14.56371
G1 X90.779 Y148.943 E14.59433
G1 X89.974 Y148.497 E14.62494
G1 X89.211 Y147.983 E14.65554
G1 X88.495 Y147.404 E14.68617
G1 X87.831 Y146.766 E14.71679
G1 X87.226 Y146.072 E14.74742
G1 X86.683 Y145.328 E14.77805
G1 X86.207 Y144.54 E14.80867
G1 X85.801 Y143.714 E14.83928
G1 X85.469 Y142.855 E14.86991
G1 X85.212 Y141.971 E14.90053
G1 X85.032 Y141.068 E14.93116
G1 X84.913 Y139.755 E14.97501
G1 X84.904 Y139.435 E14.98565
G1 X84.9 Y139.133 E14.9957
G1 X84.901 Y136.56 E15.08128
G1 X84.908 Y134.623 E15.1457
G1 X84.9 Y133.395 E15.18655
G1 X84.901 Y127.847 E15.37107
G1 X84.908 Y125.91 E15.4355
G1 X84.9 Y124.682 E15.47634
G1 X84.901 Y119.134 E15.66087
G1 X84.908 Y117.196 E15.72533
G1 X84.9 Y115.969 E15.76614
G1 X84.901 Y110.421 E15.95067
G1 X84.908 Y108.483 E16.01513
G1 X84.9 Y107.256 E16.05594
G1 X84.901 Y101.708 E16.24046
G1 X84.908 Y99.77 E16.30492
G1 X84.9 Y98.619 E16.34321
G1 X84.901 Y95.982 E16.43091
G1 X84.911 Y95.316 E16.45307
G1 X84.965 Y94.397 E16.48369
G1 X85.098 Y93.486 E16.51431
G1 X85.31 Y92.59 E16.54493
G1 X85.599 Y91.716 E16.57555
G1 X85.963 Y90.87 E16.60618
G1 X86.398 Y90.059 E16.63679
G1 X86.903 Y89.289 E16.66742
G1 X87.472 Y88.565 E16.69804
G1 X88.102 Y87.894 E16.72866
G0 F6000 X88.493 Y88.072
G1 F1200 X89.175 Y87.481 E16.75867
G1 X89.907 Y86.952 E16.78871
G1 X90.683 Y86.489 E16.81877
G1 X91.554 Y86.073 E16.85087
G1 X92.462 Y85.692 E16.88362
G1 X93.538 Y85.258 E16.92221
G1 X95.896 Y84.227 E17.00781
G1 X98.165 Y83.156 E17.09126
G1 X99.907 Y82.284 E17.15605
G1 X100.725 Y81.918 E17.18586
G1 X101.193 Y81.744 E17.20246
G1 X102.183 Y81.403 E17.23729
G1 X104.645 Y80.515 E17.32434
G1 X106.969 Y79.602 E17.40739
G1 X109.341 Y78.59 E17.49316
G1 X111.693 Y77.509 E17.57926
G1 X112.331 Y77.204 E17.60278
G1 X113.163 Y76.851 E17.63284
G1 X114.022 Y76.573 E17.66286
G1 X114.902 Y76.373 E17.69288
G1 X115.797 Y76.251 E17.72292
G1 X116.55 Y76.21 E17.74801
G1 X117.645 Y76.192 E17.78443
G1 X118.485 Y76.192 E17.81237
G1 X119.348 Y76.204 E17.84107
G1 X120.249 Y76.258 E17.8711
G1 X121.142 Y76.392 E17.90113
G1 X122.02 Y76.604 E17.93117
G1 X122.876 Y76.893 E17.96122
G1 X123.758 Y77.284 E17.99331
G1 X124.634 Y77.723 E18.0259
G1 X125.392 Y78.118 E18.05433
G1 X127.699 Y79.241 E18.13967
G1 X130.003 Y80.281 E18.22374
G1 X132.374 Y81.274 E18.30924
G1 X133.224 Y81.602 E18.33954
G1 X134.106 Y81.956 E18.37115
G1 X134.659 Y82.197 E18.39122
G1 X134.974 Y82.346 E18.40281
G1 X137.099 Y83.378 E18.48138
G1 X139.422 Y84.426 E18.56614
G1 X141.734 Y85.39 E18.64945
G1 X142.29 Y85.607 E18.66931
G1 X143.297 Y86.012 E18.70541
G1 X144.119 Y86.385 E18.73543
G1 X144.905 Y86.83 E18.76547
G1 X145.648 Y87.343 E18.7955
G1 X146.344 Y87.92 E18.82557
G1 X146.985 Y88.555 E18.85558
G1 X147.568 Y89.245 E18.88563
G1 X148.087 Y89.984 E18.91566
G1 X148.539 Y90.766 E18.9457
G1 X148.92 Y91.585 E18.97575
G1 X149.227 Y92.434 E19.00577
G1 X149.458 Y93.307 E19.03581
G1 X149.611 Y94.197 E19.06584
G1 X149.687 Y95.19 E19.09897
G1 X149.696 Y95.512 E19.10968
G1 X149.7 Y95.801 E19.11929
G1 X149.699 Y98.373 E19.20484
G1 X149.692 Y100.315 E19.26943
G1 X149.7 Y101.539 E19.31014
G1 X149.699 Y107.086 E19.49464
G1 X149.692 Y109.028 E19.55923
G1 X149.7 Y110.252 E19.59994
G1 X149.699 Y115.799 E19.78443
G1 X149.692 Y117.741 E19.84903
G1 X149.7 Y118.965 E19.88974
G1 X149.699 Y124.511 E20.0742
G1 X149.692 Y126.452 E20.13876
G1 X149.7 Y127.677 E20.1795
G1 X149.699 Y133.224 E20.36399
G1 X149.692 Y135.165 E20.42855
G1 X149.7 Y136.317 E20.46687
G1 X149.699 Y138.871 E20.55182
G1 X149.689 Y139.599 E20.57603
G1 X149.637 Y140.501 E20.60608
G1 X149.505 Y141.394 E20.63611
G1 X149.294 Y142.272 E20.66614
G1 X149.007 Y143.129 E20.6962
G1 X148.645 Y143.956 E20.72623
G1 X148.212 Y144.748 E20.75625
G1 X147.709 Y145.499 E20.78631
G1 X147.143 Y146.202 E20.81633
G1 X146.517 Y146.853 E20.84637
G1 X145.835 Y147.445 E20.8764
G1 X145.104 Y147.975 E20.90644
G1 X144.328 Y148.438 E20.93649
G1 X143.515 Y148.831 E20.96652
G1 X142.907 Y149.07 E20.98825
G1 X142.262 Y149.299 E21.01102
G1 X139.779 Y150.218 E21.09908
G1 X137.476 Y151.145 E21.18165
G1 X135.109 Y152.177 E21.26753
G1 X132.844 Y153.242 E21.35078
G1 X130.535 Y154.407 E21.4368
G1 X128.313 Y155.608 E21.52081
G1 X126.081 Y156.9 E21.60658
G1 X125.952 Y156.978 E21.6116
G1 X125.376 Y157.317 E21.63383
G1 X124.578 Y157.74 E21.66387
G1 X123.746 Y158.091 E21.6939
G1 X122.886 Y158.367 E21.72394
G1 X122.005 Y158.565 E21.75397
G1 X121.11 Y158.686 E21.78401
G1 X120.381 Y158.724 E21.80829
G1 X119.288 Y158.742 E21.84465
G1 X118.303 Y158.741 E21.87741
G1 X117.599 Y158.731 E21.90083
G1 X116.698 Y158.678 E21.93085
G1 X115.804 Y158.546 E21.96091
G1 X114.926 Y158.335 E21.99094
G1 X114.07 Y158.047 E22.02098
G1 X112.9 Y157.509 E22.06381
G1 X111.766 Y156.897 E22.10667
G1 X109.498 Y155.714 E22.19175
G1 X107.212 Y154.602 E22.2763
G1 X104.911 Y153.562 E22.36028
G1 X102.53 Y152.565 E22.44614
G1 X100.19 Y151.666 E22.52951
G1 X97.787 Y150.817 E22.61428
G1 X95.38 Y150.043 E22.69837
G1 X92.605 Y149.235 E22.7945
G1 X91.751 Y148.94 E22.82456
G1 X90.927 Y148.57 E22.8546
G1 X90.139 Y148.129 E22.88463
G1 X89.393 Y147.62 E22.91467
G1 X88.695 Y147.047 E22.94471
G1 X88.05 Y146.415 E22.97474
G1 X87.464 Y145.728 E23.00477
G1 X86.941 Y144.991 E23.03483
G1 X86.485 Y144.212 E23.06485
G1 X86.1 Y143.395 E23.09489
G1 X85.788 Y142.547 E23.12495
G1 X85.553 Y141.675 E23.15498
G1 X85.396 Y140.786 E23.18501
G1 X85.313 Y139.744 E23.21978
G1 X85.304 Y139.424 E23.23042
G1 X85.3 Y139.133 E23.2401
G1 X85.301 Y136.561 E23.32565
G1 X85.308 Y134.62 E23.39021
G1 X85.3 Y133.395 E23.43095
G1 X85.301 Y127.848 E23.61545
G1 X85.308 Y125.907 E23.68
G1 X85.3 Y124.682 E23.72075
G1 X85.301 Y119.135 E23.90524
G1 X85.308 Y117.193 E23.96983
G1 X85.3 Y115.969 E24.01054
G1 X85.301 Y110.422 E24.19504
G1 X85.308 Y108.48 E24.25963
G1 X85.3 Y107.256 E24.30034
G1 X85.301 Y101.709 E24.48484
G1 X85.308 Y99.767 E24.54943
G1 X85.3 Y98.616 E24.58771
G1 X85.301 Y95.988 E24.67512
G1 X85.311 Y95.322 E24.69727
G1 X85.365 Y94.42 E24.72733
G1 X85.498 Y93.527 E24.75736
G1 X85.709 Y92.649 E24.78739
G1 X85.998 Y91.793 E24.81744
G1 X86.361 Y90.966 E24.84748
G1 X86.795 Y90.175 E24.87749
G1 X87.298 Y89.425 E24.90752
G1 X87.866 Y88.722 E24.93758
G1 X88.493 Y88.072 E24.96762
G0 F6000 X117.647 Y89.938
G1 F1200 X117.847 Y89.792 E24.97586
G1 X118.085 Y89.792 E24.98377
G1 X118.285 Y89.938 E24.99201
G1 X118.36 Y90.167 E25.00002
G1 X118.285 Y90.396 E25.00804
G1 X118.085 Y90.542 E25.01627
G1 X117.847 Y90.542 E25.02419
G1 X117.647 Y90.396 E25.03243
G1 X117.572 Y90.167 E25.04044
G1 X117.647 Y89.938 E25.04845
G0 F6000 X117.306 Y89.691
G1 F1200 X117.716 Y89.392 E25.06533
