;FLAVOR:Marlin
;TIME:5779
;Filament used: 5.14038m
;Layer height: 0.2
;MINX:84.54
;MINY:84.482
;MINZ:0.2
;MAXX:150.54
;MAXY:150.482
;MAXZ:45
;Generated with Cura_SteamEngine 4.11.0
M140 S65
M105
M190 S65
M104 S225
M105
M109 S225
M82 ;absolute extrusion mode
; Ender 3 Custom Start G-code
G92 E0 ; Reset Extruder
G28 ; Home all axes
G1 Z2.0 F3000 ; Move Z Axis up little to prevent scratching of Heat Bed
G1 X0.1 Y20 Z0.3 F5000.0 ; Move to start position
G1 X0.1 Y200.0 Z0.3 F1500.0 E15 ; Draw the first line
G1 X0.4 Y200.0 Z0.3 F5000.0 ; Move to side a little
G1 X0.4 Y20 Z0.3 F1500.0 E30 ; Draw the second line
G92 E0 ; Reset Extruder
G1 Z2.0 F3000 ; Move Z Axis up little to prevent scratching of Heat Bed
G1 X5 Y20 Z0.3 F5000.0 ; Move over to prevent blob squish
G92 E0
G92 E0
G1 F2700 E-4
;LAYER_COUNT:225
;LAYER:0
M107
G0 F6000 X87.738 Y87.746 Z0.2
;TYPE:SKIRT
G1 F2700 E0
G1 F1200 X88.426 Y87.109 E0.03119
G1 X89.166 Y86.533 E0.06237
G1 X89.952 Y86.021 E0.09357
G1 X90.779 Y85.579 E0.12476
G1 X91.641 Y85.209 E0.15596
G1 X92.531 Y84.913 E0.18716
G1 X93.443 Y84.695 E0.21835
G1 X94.37 Y84.554 E0.24953
G1 X95.241 Y84.495 E0.27857
G1 X95.562 Y84.486 E0.28925
G1 X95.87 Y84.482 E0.29949
G1 X99.395 Y84.482 E0.41674
G1 X99.692 Y84.485 E0.42662
G1 X101.816 Y84.485 E0.49726
G1 X101.904 Y84.489 E0.50019
G1 X102.838 Y84.482 E0.53126
G1 X105.979 Y84.483 E0.63573
G1 X106.12 Y84.485 E0.64042
G1 X108.244 Y84.485 E0.71106
G1 X108.332 Y84.489 E0.71399
G1 X109.266 Y84.482 E0.74506
G1 X112.551 Y84.483 E0.85432
G1 X112.692 Y84.485 E0.85901
G1 X114.816 Y84.485 E0.92965
G1 X114.904 Y84.489 E0.93258
G1 X115.838 Y84.482 E0.96365
G1 X119.221 Y84.483 E1.07616
G1 X119.362 Y84.485 E1.08086
G1 X121.486 Y84.485 E1.1515
G1 X121.574 Y84.489 E1.15443
G1 X122.508 Y84.482 E1.1855
G1 X125.711 Y84.483 E1.29203
G1 X125.852 Y84.485 E1.29672
G1 X127.976 Y84.485 E1.36736
G1 X128.064 Y84.489 E1.37029
G1 X128.998 Y84.482 E1.40136
G1 X131.996 Y84.483 E1.50107
G1 X132.137 Y84.485 E1.50576
G1 X134.261 Y84.485 E1.57641
G1 X134.349 Y84.489 E1.57934
G1 X135.283 Y84.482 E1.6104
G1 X138.991 Y84.483 E1.73373
G1 X139.689 Y84.493 E1.75695
G1 X140.625 Y84.547 E1.78813
G1 X141.553 Y84.679 E1.81931
G1 X142.467 Y84.891 E1.85052
G1 X143.359 Y85.18 E1.8817
G1 X144.224 Y85.543 E1.9129
G1 X145.054 Y85.979 E1.94409
G1 X145.845 Y86.484 E1.9753
G1 X146.589 Y87.055 E2.00649
G1 X147.282 Y87.687 E2.03769
G1 X147.919 Y88.375 E2.06887
G1 X148.494 Y89.116 E2.10007
G1 X149.005 Y89.902 E2.13125
G1 X149.447 Y90.73 E2.16247
G1 X149.816 Y91.592 E2.19365
G1 X150.111 Y92.482 E2.22484
G1 X150.329 Y93.394 E2.25603
G1 X150.469 Y94.322 E2.28724
G1 X150.527 Y95.183 E2.31594
G1 X150.536 Y95.503 E2.32659
G1 X150.54 Y95.812 E2.33687
G1 X150.539 Y138.882 E3.76938
G1 X150.53 Y139.609 E3.79356
G1 X150.479 Y140.546 E3.82478
G1 X150.347 Y141.474 E3.85595
G1 X150.138 Y142.388 E3.88714
G1 X149.851 Y143.281 E3.91833
G1 X149.489 Y144.147 E3.94955
G1 X149.055 Y144.978 E3.98073
G1 X148.551 Y145.769 E4.01193
G1 X147.982 Y146.514 E4.04311
G1 X147.351 Y147.209 E4.07433
G1 X146.664 Y147.847 E4.10551
G1 X145.925 Y148.424 E4.1367
G1 X145.139 Y148.936 E4.1679
G1 X144.313 Y149.379 E4.19907
G1 X143.451 Y149.751 E4.2303
G1 X142.562 Y150.047 E4.26146
G1 X141.65 Y150.267 E4.29266
G1 X140.723 Y150.408 E4.32385
G1 X139.839 Y150.469 E4.35332
G1 X139.518 Y150.478 E4.364
G1 X139.21 Y150.482 E4.37425
G1 X136.055 Y150.481 E4.47918
G1 X135.916 Y150.479 E4.48381
G1 X133.795 Y150.48 E4.55435
G1 X133.686 Y150.475 E4.55798
G1 X132.768 Y150.482 E4.58852
G1 X129.893 Y150.481 E4.68414
G1 X129.752 Y150.479 E4.68883
G1 X127.628 Y150.479 E4.75947
G1 X127.54 Y150.475 E4.7624
G1 X126.606 Y150.482 E4.79347
G1 X123.185 Y150.481 E4.90725
G1 X123.044 Y150.479 E4.91194
G1 X120.92 Y150.479 E4.98259
G1 X120.832 Y150.475 E4.98552
G1 X119.898 Y150.482 E5.01658
G1 X116.547 Y150.481 E5.12804
G1 X116.406 Y150.479 E5.13273
G1 X114.282 Y150.479 E5.20337
G1 X114.194 Y150.475 E5.2063
G1 X113.26 Y150.482 E5.23737
G1 X109.85 Y150.481 E5.35078
G1 X109.709 Y150.479 E5.35548
G1 X107.585 Y150.479 E5.42612
G1 X107.497 Y150.475 E5.42905
G1 X106.563 Y150.482 E5.46012
G1 X103.569 Y150.481 E5.5597
G1 X103.428 Y150.479 E5.56439
G1 X101.304 Y150.479 E5.63503
G1 X101.216 Y150.475 E5.63796
G1 X100.282 Y150.482 E5.66903
G1 X96.089 Y150.481 E5.80849
G1 X95.391 Y150.471 E5.8317
G1 X94.455 Y150.417 E5.86289
G1 X93.527 Y150.285 E5.89406
G1 X92.613 Y150.073 E5.92527
G1 X91.721 Y149.784 E5.95646
G1 X90.856 Y149.421 E5.98766
G1 X90.026 Y148.985 E6.01884
G1 X89.235 Y148.48 E6.05005
G1 X88.491 Y147.909 E6.08125
G1 X87.798 Y147.277 E6.11244
G1 X87.161 Y146.589 E6.14363
G1 X86.586 Y145.848 E6.17482
G1 X86.075 Y145.062 E6.206
G1 X85.633 Y144.234 E6.23722
G1 X85.264 Y143.372 E6.26841
G1 X84.969 Y142.482 E6.29959
G1 X84.751 Y141.57 E6.33078
G1 X84.611 Y140.642 E6.362
G1 X84.553 Y139.77 E6.39106
G1 X84.544 Y139.438 E6.40211
G1 X84.54 Y139.14 E6.41202
G1 X84.541 Y96.007 E7.84663
G1 X84.55 Y95.342 E7.86875
G1 X84.603 Y94.406 E7.89993
G1 X84.735 Y93.477 E7.93114
G1 X84.946 Y92.563 E7.96234
G1 X85.234 Y91.671 E7.99352
G1 X85.597 Y90.806 E8.02472
G1 X86.032 Y89.975 E8.05591
G1 X86.536 Y89.185 E8.08708
G1 X87.106 Y88.44 E8.11828
G1 X87.738 Y87.746 E8.1495
G0 F6000 X88.129 Y87.921
G1 F1200 X88.814 Y87.305 E8.18014
G1 X89.55 Y86.752 E8.21076
G1 X90.331 Y86.264 E8.24139
G1 X91.151 Y85.846 E8.272
G1 X92.005 Y85.501 E8.30264
G1 X92.885 Y85.231 E8.33325
G1 X93.785 Y85.039 E8.36386
G1 X94.699 Y84.925 E8.3945
G1 X95.252 Y84.895 E8.41292
G1 X95.573 Y84.886 E8.4236
G1 X95.87 Y84.882 E8.43348
G1 X99.395 Y84.882 E8.55072
G1 X99.686 Y84.885 E8.5604
G1 X101.816 Y84.885 E8.63124
G1 X101.904 Y84.889 E8.63417
G1 X102.841 Y84.882 E8.66534
G1 X105.973 Y84.883 E8.76951
G1 X106.114 Y84.885 E8.7742
G1 X108.244 Y84.885 E8.84504
G1 X108.332 Y84.889 E8.84797
G1 X109.269 Y84.882 E8.87914
G1 X112.545 Y84.883 E8.9881
G1 X112.686 Y84.885 E8.99279
G1 X114.816 Y84.885 E9.06363
G1 X114.904 Y84.889 E9.06656
G1 X115.841 Y84.882 E9.09773
G1 X119.215 Y84.883 E9.20995
G1 X119.356 Y84.885 E9.21464
G1 X121.486 Y84.885 E9.28548
G1 X121.574 Y84.889 E9.28841
G1 X122.511 Y84.882 E9.31958
G1 X125.705 Y84.883 E9.42581
G1 X125.846 Y84.885 E9.4305
G1 X127.976 Y84.885 E9.50134
G1 X128.064 Y84.889 E9.50427
G1 X129.001 Y84.882 E9.53544
G1 X131.99 Y84.883 E9.63485
G1 X132.131 Y84.885 E9.63954
G1 X134.261 Y84.885 E9.71039
G1 X134.349 Y84.889 E9.71332
G1 X135.286 Y84.882 E9.74448
G1 X138.985 Y84.883 E9.86751
G1 X139.683 Y84.893 E9.89073
G1 X140.602 Y84.946 E9.92135
G1 X141.513 Y85.079 E9.95197
G1 X142.409 Y85.29 E9.98259
G1 X143.283 Y85.578 E10.01319
G1 X144.13 Y85.941 E10.04384
G1 X144.941 Y86.376 E10.07445
G1 X145.711 Y86.88 E10.10506
G1 X146.435 Y87.449 E10.13569
G1 X147.107 Y88.079 E10.16632
G1 X147.722 Y88.764 E10.19694
G1 X148.275 Y89.5 E10.22756
G1 X148.762 Y90.281 E10.25817
G1 X149.179 Y91.102 E10.2888
G1 X149.524 Y91.956 E10.31944
G1 X149.793 Y92.836 E10.35004
G1 X149.985 Y93.737 E10.38068
G1 X150.098 Y94.65 E10.41128
G1 X150.127 Y95.194 E10.4294
G1 X150.136 Y95.514 E10.44005
G1 X150.14 Y95.812 E10.44996
G1 X150.139 Y138.877 E11.88231
G1 X150.13 Y139.604 E11.90649
G1 X150.079 Y140.523 E11.9371
G1 X149.948 Y141.435 E11.96775
G1 X149.738 Y142.331 E11.99835
G1 X149.452 Y143.206 E12.02897
G1 X149.091 Y144.053 E12.0596
G1 X148.657 Y144.865 E12.09022
G1 X148.155 Y145.637 E12.12085
G1 X147.587 Y146.362 E12.15148
G1 X146.959 Y147.035 E12.1821
G1 X146.275 Y147.651 E12.21271
G1 X145.54 Y148.205 E12.24332
G1 X144.76 Y148.694 E12.27394
G1 X143.94 Y149.113 E12.30457
G1 X143.087 Y149.459 E12.33519
G1 X142.207 Y149.73 E12.36581
G1 X141.307 Y149.923 E12.39643
G1 X140.393 Y150.038 E12.42707
G1 X139.828 Y150.069 E12.44589
G1 X139.507 Y150.078 E12.45657
G1 X139.21 Y150.082 E12.46645
G1 X136.061 Y150.081 E12.57118
G1 X135.922 Y150.079 E12.57581
G1 X133.795 Y150.08 E12.64655
G1 X133.687 Y150.075 E12.65015
G1 X132.765 Y150.082 E12.68081
G1 X129.899 Y150.081 E12.77614
G1 X129.758 Y150.079 E12.78083
G1 X127.628 Y150.079 E12.85167
G1 X127.54 Y150.075 E12.8546
G1 X126.603 Y150.082 E12.88577
G1 X123.191 Y150.081 E12.99925
G1 X123.05 Y150.079 E13.00394
G1 X120.92 Y150.079 E13.07478
G1 X120.832 Y150.075 E13.07771
G1 X119.895 Y150.082 E13.10888
G1 X116.553 Y150.081 E13.22004
G1 X116.412 Y150.079 E13.22473
G1 X114.282 Y150.079 E13.29557
G1 X114.194 Y150.075 E13.2985
G1 X113.257 Y150.082 E13.32966
G1 X109.856 Y150.081 E13.44278
G1 X109.715 Y150.079 E13.44747
G1 X107.585 Y150.079 E13.51832
G1 X107.497 Y150.075 E13.52125
G1 X106.56 Y150.082 E13.55241
G1 X103.575 Y150.081 E13.65169
G1 X103.434 Y150.079 E13.65638
G1 X101.304 Y150.079 E13.72723
G1 X101.216 Y150.075 E13.73016
G1 X100.279 Y150.082 E13.76132
G1 X96.095 Y150.081 E13.90048
G1 X95.397 Y150.071 E13.9237
G1 X94.478 Y150.018 E13.95432
G1 X93.567 Y149.885 E13.98494
G1 X92.671 Y149.674 E14.01556
G1 X91.797 Y149.386 E14.04616
G1 X90.95 Y149.023 E14.07681
G1 X90.139 Y148.588 E14.10742
G1 X89.369 Y148.084 E14.13803
G1 X88.645 Y147.515 E14.16866
G1 X87.973 Y146.885 E14.19929
G1 X87.358 Y146.2 E14.22991
G1 X86.805 Y145.464 E14.26053
G1 X86.318 Y144.683 E14.29114
G1 X85.901 Y143.862 E14.32177
G1 X85.556 Y143.008 E14.35241
G1 X85.287 Y142.128 E14.38301
G1 X85.095 Y141.227 E14.41365
G1 X84.982 Y140.314 E14.44425
G1 X84.953 Y139.759 E14.46274
G1 X84.944 Y139.427 E14.47378
G1 X84.94 Y139.14 E14.48333
G1 X84.941 Y96.013 E15.91774
G1 X84.95 Y95.348 E15.93986
G1 X85.002 Y94.428 E15.97051
G1 X85.134 Y93.517 E16.00112
G1 X85.345 Y92.621 E16.03174
G1 X85.632 Y91.746 E16.06237
G1 X85.995 Y90.9 E16.09299
G1 X86.429 Y90.088 E16.12361
G1 X86.932 Y89.317 E16.15423
G1 X87.501 Y88.593 E16.18485
G1 X88.129 Y87.921 E16.21545
G0 F6000 X88.521 Y88.099
G1 F1200 X89.202 Y87.506 E16.24548
G1 X89.934 Y86.976 E16.27554
G1 X90.709 Y86.513 E16.30556
G1 X91.522 Y86.12 E16.3356
G1 X92.367 Y85.8 E16.36565
G1 X93.236 Y85.557 E16.39566
G1 X94.124 Y85.391 E16.42571
G1 X95.263 Y85.295 E16.46373
G1 X95.584 Y85.286 E16.47441
G1 X95.87 Y85.282 E16.48392
G1 X99.395 Y85.282 E16.60116
G1 X99.68 Y85.285 E16.61064
G1 X101.816 Y85.285 E16.68169
G1 X101.902 Y85.289 E16.68455
G1 X102.844 Y85.282 E16.71588
G1 X105.967 Y85.283 E16.81975
G1 X106.108 Y85.285 E16.82444
G1 X108.244 Y85.285 E16.89549
G1 X108.33 Y85.289 E16.89835
G1 X109.272 Y85.282 E16.92968
G1 X112.539 Y85.283 E17.03834
G1 X112.68 Y85.285 E17.04303
G1 X114.816 Y85.285 E17.11408
G1 X114.902 Y85.289 E17.11694
G1 X115.844 Y85.282 E17.14827
G1 X119.209 Y85.283 E17.26019
G1 X119.35 Y85.285 E17.26488
G1 X121.486 Y85.285 E17.33593
G1 X121.572 Y85.289 E17.33879
G1 X122.514 Y85.282 E17.37012
G1 X125.699 Y85.283 E17.47605
G1 X125.84 Y85.285 E17.48075
G1 X127.976 Y85.285 E17.55179
G1 X128.062 Y85.289 E17.55465
G1 X129.004 Y85.282 E17.58598
G1 X131.984 Y85.283 E17.6851
G1 X132.125 Y85.285 E17.68979
G1 X134.261 Y85.285 E17.76083
G1 X134.347 Y85.289 E17.7637
G1 X135.289 Y85.282 E17.79503
G1 X138.979 Y85.283 E17.91776
G1 X139.677 Y85.293 E17.94098
G1 X140.579 Y85.346 E17.97103
G1 X141.472 Y85.478 E18.00105
G1 X142.35 Y85.689 E18.03109
G1 X143.206 Y85.977 E18.06113
G1 X144.033 Y86.339 E18.09115
G1 X144.825 Y86.774 E18.12121
G1 X145.576 Y87.276 E18.15125
G1 X146.279 Y87.843 E18.18129
G1 X146.929 Y88.47 E18.21133
G1 X147.521 Y89.152 E18.24136
G1 X148.051 Y89.883 E18.2714
G1 X148.513 Y90.659 E18.30143
G1 X148.906 Y91.472 E18.33147
G1 X149.224 Y92.317 E18.3615
G1 X149.467 Y93.187 E18.39154
G1 X149.632 Y94.075 E18.42158
G1 X149.727 Y95.205 E18.4593
G1 X149.736 Y95.525 E18.46994
G1 X149.74 Y95.812 E18.47949
G1 X149.739 Y138.872 E19.91167
G1 X149.73 Y139.599 E19.93585
G1 X149.679 Y140.501 E19.9659
G1 X149.548 Y141.395 E19.99596
G1 X149.339 Y142.273 E20.02597
G1 X149.053 Y143.13 E20.05602
G1 X148.692 Y143.958 E20.08607
G1 X148.26 Y144.75 E20.11607
G1 X147.759 Y145.502 E20.14613
G1 X147.193 Y146.206 E20.17617
G1 X146.568 Y146.857 E20.20619
G1 X145.887 Y147.451 E20.23624
G1 X145.156 Y147.982 E20.26629
G1 X144.382 Y148.446 E20.29631
G1 X143.569 Y148.84 E20.32636
G1 X142.725 Y149.16 E20.35638
G1 X141.855 Y149.405 E20.38644
G1 X140.968 Y149.571 E20.41645
G1 X139.817 Y149.669 E20.45487
G1 X139.496 Y149.678 E20.46555
G1 X139.21 Y149.682 E20.47507
G1 X136.067 Y149.681 E20.5796
G1 X135.928 Y149.679 E20.58423
G1 X133.795 Y149.68 E20.65517
G1 X133.688 Y149.675 E20.65874
G1 X132.762 Y149.682 E20.68953
G1 X129.905 Y149.681 E20.78456
G1 X129.764 Y149.679 E20.78925
G1 X127.628 Y149.679 E20.86029
G1 X127.542 Y149.675 E20.86316
G1 X126.6 Y149.682 E20.89449
G1 X123.197 Y149.681 E21.00767
G1 X123.056 Y149.679 E21.01236
G1 X120.92 Y149.679 E21.08341
G1 X120.834 Y149.675 E21.08627
G1 X119.892 Y149.682 E21.1176
G1 X116.559 Y149.681 E21.22846
G1 X116.418 Y149.679 E21.23315
G1 X114.282 Y149.679 E21.30419
G1 X114.196 Y149.675 E21.30705
G1 X113.254 Y149.682 E21.33839
G1 X109.862 Y149.681 E21.45121
G1 X109.721 Y149.679 E21.4559
G1 X107.585 Y149.679 E21.52694
G1 X107.499 Y149.675 E21.5298
G1 X106.557 Y149.682 E21.56113
G1 X103.581 Y149.681 E21.66012
G1 X103.44 Y149.679 E21.66481
G1 X101.304 Y149.679 E21.73585
G1 X101.218 Y149.675 E21.73871
G1 X100.276 Y149.682 E21.77005
G1 X96.101 Y149.681 E21.90891
G1 X95.403 Y149.671 E21.93212
G1 X94.501 Y149.618 E21.96218
G1 X93.608 Y149.486 E21.9922
G1 X92.73 Y149.275 E22.02224
G1 X91.874 Y148.987 E22.05227
G1 X91.047 Y148.625 E22.0823
G1 X90.255 Y148.19 E22.11235
G1 X89.504 Y147.688 E22.1424
G1 X88.801 Y147.121 E22.17244
G1 X88.151 Y146.494 E22.20248
G1 X87.559 Y145.812 E22.23251
G1 X87.029 Y145.081 E22.26254
G1 X86.567 Y144.305 E22.29258
G1 X86.174 Y143.492 E22.32262
G1 X85.856 Y142.647 E22.35264
G1 X85.613 Y141.777 E22.38269
G1 X85.448 Y140.889 E22.41273
G1 X85.353 Y139.748 E22.45081
G1 X85.344 Y139.416 E22.46186
G1 X85.34 Y139.14 E22.47104
G1 X85.341 Y96.018 E23.90528
G1 X85.35 Y95.353 E23.9274
G1 X85.402 Y94.451 E23.95745
G1 X85.534 Y93.558 E23.98748
G1 X85.744 Y92.68 E24.0175
G1 X86.031 Y91.823 E24.04756
G1 X86.393 Y90.996 E24.07759
G1 X86.826 Y90.204 E24.10761
G1 X87.328 Y89.453 E24.13765
G1 X87.895 Y88.749 E24.16772
G1 X88.521 Y88.099 E24.19773
G1 F2700 E20.19773
;MESH:SwitchBoardV8.stl
G0 F6000 X95.128 Y95.071
G0 X95.954 Y95.896
G0 X97.378 Y100.933
G0 X97.602 Y101.355
G0 X97.906 Y101.724
G0 X98.273 Y102.027
G0 X98.656 Y102.231
G0 X101.393 Y102.902
;TYPE:WALL-INNER
G1 F2700 E24.19773
G1 F1200 X101.466 Y102.863 E24.20049
G1 X101.528 Y102.83 E24.20282
G1 X101.648 Y102.731 E24.208
G1 X102.043 Y102.406 E24.22501
G1 X102.464 Y101.89 E24.24716
G1 X102.779 Y101.302 E24.26935
G1 X102.973 Y100.661 E24.29162
G1 X103.039 Y99.998 E24.31378
G1 X102.973 Y99.335 E24.33594
G1 X102.779 Y98.694 E24.35822
G1 X102.701 Y98.549 E24.36369
G1 X102.544 Y98.256 E24.37475
G1 X102.876 Y98.256 E24.38105
G1 X102.877 Y98.256 E24.38109
G1 X104.005 Y98.256 E24.4186
G1 X104.005 Y96.882 E24.4643
G1 X105.133 Y96.882 E24.50182
G1 X105.133 Y100.423 E24.61959
G1 X110.433 Y100.423 E24.79587
G1 X110.433 Y96.882 E24.91365
G1 X111.705 Y96.882 E24.95595
G1 X111.705 Y100.423 E25.07373
G1 X117.005 Y100.423 E25.25001
G1 X117.005 Y96.882 E25.36778
G1 X118.375 Y96.882 E25.41335
G1 X118.375 Y100.423 E25.53112
G1 X123.675 Y100.423 E25.7074
G1 X123.675 Y96.882 E25.82517
G1 X124.865 Y96.882 E25.86475
G1 X124.865 Y100.423 E25.98253
G1 X130.165 Y100.423 E26.15881
G1 X130.165 Y96.882 E26.27658
G1 X131.15 Y96.882 E26.30934
G1 X131.15 Y100.423 E26.42712
G1 X136.45 Y100.423 E26.60339
G1 X136.45 Y96.882 E26.72117
G1 X138.14 Y96.882 E26.77738
G1 X138.14 Y138.082 E28.1477
G1 X136.901 Y138.082 E28.18891
G1 X136.901 Y134.413 E28.31094
G1 X131.601 Y134.413 E28.48722
G1 X131.601 Y138.082 E28.60925
G1 X130.739 Y138.082 E28.63792
G1 X130.739 Y134.413 E28.75995
G1 X125.439 Y134.413 E28.93623
G1 X125.439 Y138.082 E29.05826
G1 X124.031 Y138.082 E29.10509
G1 X124.031 Y134.413 E29.22712
G1 X118.731 Y134.413 E29.4034
G1 X118.731 Y138.082 E29.52543
G1 X117.393 Y138.082 E29.56993
G1 X117.393 Y134.413 E29.69196
G1 X112.093 Y134.413 E29.86824
G1 X112.093 Y138.082 E29.99027
G1 X110.696 Y138.082 E30.03674
G1 X110.696 Y134.413 E30.15877
G1 X105.396 Y134.413 E30.33505
G1 X105.396 Y138.082 E30.45708
G1 X104.415 Y138.082 E30.48971
G1 X104.415 Y136.711 E30.53531
