;FLAVOR:Marlin
;TIME:2246
;Filament used: 1.12299m
;Layer height: 0.2
;MINX:96.45
;MINY:96.45
;MINZ:0.2
;MAXX:138.55
;MAXY:138.55
;MAXZ:16
;Generated with Cura_SteamEngine 4.6.1
M140 S57
M105
M190 S57
M104 S208
M105
M109 S208
M82 ;absolute extrusion mode
; Ender 3 Custom Start G-code
G92 E0 ; Reset Extruder
G28 ; Home all axes
G1 Z2.0 F3000 ; Move Z Axis up little to prevent scratching of Heat Bed
G1 X0.1 Y20 Z0.3 F5000.0 ; Move to start position
G1 X0.1 Y200.0 Z0.3 F1500.0 E15 ; Draw the first line
G1 X0.4 Y200.0 Z0.3 F5000.0 ; Move to side a little
G1 X0.4 Y20 Z0.3 F1500.0 E30 ; Draw the second line
G92 E0 ; Reset Extruder
G1 Z2.0 F3000 ; Move Z Axis up little to prevent scratching of Heat Bed
G1 X5 Y20 Z0.3 F5000.0 ; Move over to prevent blob squish
G92 E0
G92 E0
G1 F2700 E-5
;LAYER_COUNT:80
;LAYER:0
M107
G0 F6000 X113.032 Y97.269 Z0.2
;TYPE:SKIRT
G1 F2700 E0
G1 F1200 X113.601 Y97.293 E0.01894
G1 X116.207 Y97.368 E0.10565
G1 X118.741 Y97.368 E0.18993
G1 X121.316 Y97.296 E0.27561
G1 X121.829 Y97.272 E0.29269
G1 X122.742 Y97.25 E0.32307
G1 X126.989 Y97.251 E0.46433
G1 X127.687 Y97.261 E0.48754
G1 X128.589 Y97.314 E0.5176
G1 X129.482 Y97.446 E0.54762
G1 X130.36 Y97.657 E0.57765
G1 X131.216 Y97.945 E0.60769
G1 X132.043 Y98.307 E0.63772
G1 X132.835 Y98.742 E0.66777
G1 X133.586 Y99.244 E0.69782
G1 X134.289 Y99.811 E0.72786
G1 X134.939 Y100.438 E0.75789
G1 X135.531 Y101.12 E0.78793
G1 X136.061 Y101.851 E0.81796
G1 X136.523 Y102.627 E0.848
G1 X136.916 Y103.44 E0.87803
G1 X137.234 Y104.285 E0.90806
G1 X137.477 Y105.155 E0.93811
G1 X137.642 Y106.043 E0.96815
G1 X137.737 Y107.173 E1.00586
G1 X137.75 Y107.78 E1.02606
G1 X137.749 Y126.94 E1.66332
G1 X137.74 Y127.667 E1.6875
G1 X137.689 Y128.569 E1.71755
G1 X137.558 Y129.463 E1.7476
G1 X137.349 Y130.341 E1.77762
G1 X137.063 Y131.198 E1.80767
G1 X136.702 Y132.026 E1.83772
G1 X136.27 Y132.818 E1.86772
G1 X135.769 Y133.57 E1.89778
G1 X135.203 Y134.274 E1.92782
G1 X134.578 Y134.925 E1.95784
G1 X133.897 Y135.519 E1.98789
G1 X133.166 Y136.05 E2.01794
G1 X132.392 Y136.514 E2.04796
G1 X131.579 Y136.908 E2.07801
G1 X130.735 Y137.228 E2.10803
G1 X129.865 Y137.473 E2.13809
G1 X128.978 Y137.639 E2.1681
G1 X127.827 Y137.737 E2.20652
G1 X127.22 Y137.75 E2.22672
G1 X108.025 Y137.749 E2.86515
G1 X107.327 Y137.74 E2.88836
G1 X106.426 Y137.689 E2.91838
G1 X105.532 Y137.557 E2.94844
G1 X104.654 Y137.348 E2.97845
G1 X103.797 Y137.061 E3.00851
G1 X102.97 Y136.7 E3.03853
G1 X102.177 Y136.267 E3.06858
G1 X101.426 Y135.766 E3.0986
G1 X100.722 Y135.2 E3.12865
G1 X100.071 Y134.574 E3.15869
G1 X99.478 Y133.893 E3.18872
G1 X98.948 Y133.162 E3.21875
G1 X98.484 Y132.387 E3.24879
G1 X98.09 Y131.574 E3.27884
G1 X97.77 Y130.73 E3.30886
G1 X97.526 Y129.86 E3.33892
G1 X97.36 Y128.972 E3.36896
G1 X97.263 Y127.817 E3.40751
G1 X97.25 Y127.208 E3.42778
G1 X97.251 Y107.986 E4.0671
G1 X97.26 Y107.321 E4.08922
G1 X97.312 Y106.419 E4.11927
G1 X97.444 Y105.526 E4.1493
G1 X97.654 Y104.648 E4.17932
G1 X97.941 Y103.791 E4.20938
G1 X98.303 Y102.964 E4.23941
G1 X98.736 Y102.172 E4.26943
G1 X99.238 Y101.421 E4.29947
G1 X99.805 Y100.717 E4.32954
G1 X100.431 Y100.067 E4.35955
G1 X101.112 Y99.474 E4.38959
G1 X101.844 Y98.944 E4.41965
G1 X102.619 Y98.481 E4.44967
G1 X103.432 Y98.088 E4.47971
G1 X104.277 Y97.768 E4.50976
G1 X105.146 Y97.525 E4.53977
G1 X106.034 Y97.359 E4.56982
G1 X107.173 Y97.263 E4.60784
G1 X107.78 Y97.25 E4.62803
G1 X112.021 Y97.251 E4.76909
G1 X113.032 Y97.269 E4.80272
G0 F6000 X113.049 Y96.87
G1 F1200 X113.56 Y96.892 E4.81973
G1 X116.218 Y96.968 E4.90817
G1 X118.73 Y96.968 E4.99172
G1 X121.285 Y96.897 E5.07673
G1 X121.817 Y96.873 E5.09444
G1 X122.742 Y96.85 E5.12522
G1 X126.995 Y96.851 E5.26667
G1 X127.693 Y96.861 E5.28989
G1 X128.612 Y96.914 E5.32051
G1 X129.523 Y97.047 E5.35113
G1 X130.419 Y97.258 E5.38175
G1 X131.293 Y97.546 E5.41235
G1 X132.14 Y97.909 E5.443
G1 X132.951 Y98.344 E5.47361
G1 X133.721 Y98.848 E5.50422
G1 X134.445 Y99.417 E5.53485
G1 X135.117 Y100.047 E5.56549
G1 X135.732 Y100.732 E5.5961
G1 X136.285 Y101.468 E5.62672
G1 X136.772 Y102.249 E5.65734
G1 X137.189 Y103.07 E5.68796
G1 X137.534 Y103.924 E5.7186
G1 X137.803 Y104.804 E5.7492
G1 X137.995 Y105.705 E5.77984
G1 X138.108 Y106.618 E5.81044
G1 X138.137 Y107.162 E5.82856
G1 X138.15 Y107.78 E5.84912
G1 X138.149 Y126.945 E6.48655
G1 X138.14 Y127.672 E6.51073
G1 X138.089 Y128.591 E6.54134
G1 X137.958 Y129.503 E6.57199
G1 X137.748 Y130.399 E6.6026
G1 X137.462 Y131.274 E6.63322
G1 X137.101 Y132.121 E6.66384
G1 X136.667 Y132.933 E6.69446
G1 X136.165 Y133.705 E6.72509
G1 X135.597 Y134.43 E6.75572
G1 X134.969 Y135.103 E6.78634
G1 X134.285 Y135.719 E6.81695
G1 X133.55 Y136.273 E6.84757
G1 X132.77 Y136.762 E6.87819
G1 X131.95 Y137.181 E6.90881
G1 X131.097 Y137.527 E6.93943
G1 X130.217 Y137.798 E6.97006
G1 X129.317 Y137.991 E7.00067
G1 X128.403 Y138.106 E7.03131
G1 X127.838 Y138.137 E7.05013
G1 X127.22 Y138.15 E7.07069
G1 X108.02 Y138.149 E7.70928
G1 X107.322 Y138.14 E7.7325
G1 X106.403 Y138.088 E7.76312
G1 X105.492 Y137.957 E7.79373
G1 X104.596 Y137.747 E7.82434
G1 X103.721 Y137.46 E7.85496
G1 X102.874 Y137.098 E7.8856
G1 X102.062 Y136.664 E7.91622
G1 X101.291 Y136.162 E7.94682
G1 X100.566 Y135.594 E7.97746
G1 X99.893 Y134.965 E8.0081
G1 X99.278 Y134.281 E8.03869
G1 X98.724 Y133.546 E8.0693
G1 X98.236 Y132.765 E8.09993
G1 X97.817 Y131.945 E8.13056
G1 X97.471 Y131.092 E8.16118
G1 X97.201 Y130.212 E8.19179
G1 X97.008 Y129.311 E8.22244
G1 X96.894 Y128.398 E8.25304
G1 X96.863 Y127.827 E8.27206
G1 X96.85 Y127.208 E8.29265
G1 X96.851 Y107.981 E8.93215
G1 X96.86 Y107.316 E8.95427
G1 X96.912 Y106.396 E8.98491
G1 X97.044 Y105.485 E9.01553
G1 X97.255 Y104.589 E9.04615
G1 X97.542 Y103.714 E9.07677
G1 X97.905 Y102.868 E9.10739
G1 X98.339 Y102.056 E9.13802
G1 X98.842 Y101.285 E9.16863
G1 X99.411 Y100.561 E9.19926
G1 X100.039 Y99.889 E9.22985
G1 X100.724 Y99.273 E9.26049
G1 X101.46 Y98.72 E9.29111
G1 X102.241 Y98.232 E9.32174
G1 X103.061 Y97.814 E9.35236
G1 X103.915 Y97.469 E9.38299
G1 X104.795 Y97.199 E9.41361
G1 X105.695 Y97.007 E9.44421
G1 X106.609 Y96.893 E9.47485
G1 X107.162 Y96.863 E9.49327
G1 X107.78 Y96.85 E9.51383
G1 X112.027 Y96.851 E9.65508
G1 X113.049 Y96.87 E9.68908
G0 F6000 X113.066 Y96.47
G1 F1200 X113.657 Y96.495 E9.70876
G1 X116.195 Y96.568 E9.7932
G1 X118.719 Y96.568 E9.87715
G1 X121.298 Y96.496 E9.96296
G1 X121.805 Y96.473 E9.97984
G1 X122.742 Y96.45 E10.01102
G1 X127.001 Y96.451 E10.15267
G1 X127.699 Y96.461 E10.17589
G1 X128.635 Y96.515 E10.20707
G1 X129.563 Y96.647 E10.23825
G1 X130.477 Y96.859 E10.26946
G1 X131.369 Y97.148 E10.30064
G1 X132.234 Y97.511 E10.33184
G1 X133.064 Y97.947 E10.36303
G1 X133.855 Y98.452 E10.39424
G1 X134.599 Y99.023 E10.42543
G1 X135.292 Y99.655 E10.45663
G1 X135.929 Y100.343 E10.48781
G1 X136.504 Y101.084 E10.51901
G1 X137.015 Y101.87 E10.55019
G1 X137.457 Y102.698 E10.58141
G1 X137.826 Y103.56 E10.6126
G1 X138.121 Y104.45 E10.64378
G1 X138.339 Y105.362 E10.67497
G1 X138.479 Y106.29 E10.70618
G1 X138.537 Y107.151 E10.73489
G1 X138.55 Y107.78 E10.75581
G1 X138.549 Y126.95 E11.39341
G1 X138.54 Y127.677 E11.41759
G1 X138.489 Y128.614 E11.4488
G1 X138.357 Y129.542 E11.47998
G1 X138.148 Y130.456 E11.51116
G1 X137.861 Y131.349 E11.54236
G1 X137.499 Y132.215 E11.57358
G1 X137.065 Y133.046 E11.60476
G1 X136.561 Y133.837 E11.63595
G1 X135.992 Y134.582 E11.66713
G1 X135.361 Y135.277 E11.69835
G1 X134.674 Y135.915 E11.72954
G1 X133.935 Y136.492 E11.76072
G1 X133.149 Y137.004 E11.79192
G1 X132.323 Y137.447 E11.8231
G1 X131.461 Y137.819 E11.85432
G1 X130.572 Y138.115 E11.88549
G1 X129.66 Y138.335 E11.91669
G1 X128.733 Y138.476 E11.94788
G1 X127.849 Y138.537 E11.97735
G1 X127.22 Y138.55 E11.99827
G1 X108.015 Y138.549 E12.63703
G1 X107.317 Y138.54 E12.66025
G1 X106.381 Y138.488 E12.69143
G1 X105.452 Y138.356 E12.72264
G1 X104.538 Y138.146 E12.75383
G1 X103.645 Y137.859 E12.78503
G1 X102.78 Y137.496 E12.81623
G1 X101.949 Y137.062 E12.84741
G1 X101.158 Y136.558 E12.87861
G1 X100.413 Y135.988 E12.90981
G1 X99.719 Y135.357 E12.941
G1 X99.082 Y134.67 E12.97216
G1 X98.505 Y133.93 E13.00337
G1 X97.993 Y133.144 E13.03457
G1 X97.55 Y132.317 E13.06578
G1 X97.179 Y131.456 E13.09696
G1 X96.883 Y130.566 E13.12816
G1 X96.664 Y129.654 E13.15935
G1 X96.523 Y128.727 E13.19054
G1 X96.463 Y127.838 E13.22017
G1 X96.45 Y127.208 E13.24113
G1 X96.451 Y107.975 E13.88082
G1 X96.46 Y107.31 E13.90294
G1 X96.513 Y106.374 E13.93413
G1 X96.645 Y105.445 E13.96533
G1 X96.856 Y104.531 E13.99653
G1 X97.144 Y103.639 E14.02771
G1 X97.507 Y102.774 E14.05891
G1 X97.942 Y101.943 E14.09011
G1 X98.446 Y101.153 E14.12128
G1 X99.016 Y100.408 E14.15247
G1 X99.648 Y99.714 E14.18369
G1 X100.336 Y99.077 E14.21488
G1 X101.076 Y98.501 E14.24607
G1 X101.862 Y97.989 E14.27727
G1 X102.689 Y97.547 E14.30846
G1 X103.551 Y97.177 E14.33966
G1 X104.441 Y96.881 E14.37085
G1 X105.353 Y96.663 E14.40204
G1 X106.28 Y96.522 E14.43323
G1 X107.151 Y96.463 E14.46226
G1 X107.78 Y96.45 E14.48319
G1 X112.032 Y96.451 E14.62461
G1 X113.066 Y96.47 E14.65901
G0 F6000 X117.188 Y112.826
G1 F1200 X117.799 Y112.826 E14.67933
G1 X117.799 Y118.904 E14.88148
G1 X117.19 Y118.904 E14.90174
G1 X117.188 Y112.826 E15.10389
G0 F6000 X116.788 Y112.426
G1 F1200 X118.2 Y112.426 E15.15086
G1 X118.198 Y119.304 E15.37962
G1 X116.79 Y119.304 E15.42645
G1 X116.788 Y112.426 E15.65521
G0 F6000 X116.388 Y112.026
G1 F1200 X118.6 Y112.026 E15.72879
G1 X118.598 Y119.704 E15.98416
G1 X116.39 Y119.704 E16.0576
G1 X116.388 Y112.026 E16.31297
G0 F6000 X115.988 Y111.626
G1 F1200 X119 Y111.626 E16.41315
G1 X118.998 Y120.104 E16.69513
G1 X115.99 Y120.104 E16.79517
G1 X115.988 Y111.626 E17.07715
G0 F6000 X115.588 Y111.226
G1 F1200 X119.4 Y111.226 E17.20394
G1 X119.398 Y120.504 E17.51253
G1 X115.59 Y120.504 E17.63918
G1 X115.588 Y111.226 E17.94777
G0 F6000 X115.188 Y110.826
G1 F1200 X119.8 Y110.826 E18.10117
G1 X119.798 Y120.904 E18.43636
G1 X115.19 Y120.904 E18.58962
G1 X115.188 Y110.826 E18.92482
G0 F6000 X114.787 Y110.426
G1 F1200 X120.2 Y110.426 E19.10486
G1 X120.198 Y121.304 E19.46666
G1 X114.791 Y121.304 E19.6465
G1 X114.787 Y110.426 E20.0083
G0 F6000 X114.387 Y110.026
G1 F1200 X120.6 Y110.026 E20.21495
G1 X120.598 Y121.704 E20.60336
G1 X114.391 Y121.704 E20.8098
G1 X114.387 Y110.026 E21.19822
G0 F6000 X113.987 Y109.626
G1 F1200 X121 Y109.626 E21.43147
G1 X120.998 Y122.104 E21.84649
G1 X113.991 Y122.104 E22.07954
G1 X113.987 Y109.626 E22.49456
G0 F6000 X113.587 Y109.226
G1 F1200 X121.4 Y109.226 E22.75442
G1 X121.398 Y122.504 E23.19605
G1 X113.591 Y122.504 E23.45571
G1 X113.587 Y109.226 E23.89734
G1 F2700 E18.89734
;MESH:End_Clip.STL
G0 F6000 X112.186 Y109.226
G0 X111.804 Y108.232
G0 X108.232 Y108.232
G0 X108.05 Y126.95
;TYPE:WALL-INNER
G1 F2700 E23.89734
G1 F1200 X108.05 Y108.05 E24.52596
G1 X111.986 Y108.05 E24.65687
G1 X111.991 Y124.675 E25.20982
G1 X111.991 Y124.874 E25.21644
G1 X112.19 Y124.874 E25.22072
G1 X122.998 Y124.87 E25.5802
G1 X123 Y108.05 E26.13963
G1 X126.95 Y108.05 E26.27101
G1 X126.95 Y126.95 E26.89963
G1 X108.05 Y126.95 E27.52824
G0 F6000 X107.65 Y127.35
;TYPE:WALL-OUTER
G1 F1200 X107.65 Y107.65 E28.18347
G1 X112.386 Y107.65 E28.34099
G1 X112.391 Y124.474 E28.90056
G1 X122.598 Y124.47 E29.24004
G1 X122.6 Y107.65 E29.79948
G1 X127.35 Y107.65 E29.95746
G1 X127.35 Y127.35 E30.61269
G1 X107.65 Y127.35 E31.26791
G0 F6000 X107.92 Y127.08
G0 X108.16 Y126.56
G0 X108.44 Y126.56
;TYPE:SKIN
G1 F1200 X108.44 Y108.44 E31.87059
G1 X111.596 Y108.44 E31.97556
G1 X111.601 Y125.264 E32.53512
G1 X123.388 Y125.26 E32.92716
G1 X123.39 Y108.44 E33.4866
G1 X126.56 Y108.44 E33.59203
G1 X126.56 Y126.56 E34.19471
G1 X108.44 Y126.56 E34.79738
G0 F6000 X108.863 Y126.399
G1 F1200 X108.599 Y126.135 E34.8098
G0 F6000 X108.599 Y125.57
G1 F1200 X109.429 Y126.399 E34.84881
G0 F6000 X109.994 Y126.399
G1 F1200 X108.599 Y125.004 E34.91443
G0 F6000 X108.599 Y124.438
G1 F1200 X110.56 Y126.399 E35.00667
G0 F6000 X111.126 Y126.399
G1 F1200 X108.599 Y123.873 E35.12551
G0 F6000 X108.599 Y123.307
G1 F1200 X111.691 Y126.399 E35.27095
G0 F6000 X112.257 Y126.399
G1 F1200 X108.599 Y122.741 E35.44301
G0 F6000 X108.599 Y122.176
G1 F1200 X111.44 Y125.017 E35.57664
G0 F6000 X111.44 Y124.451
G1 F1200 X108.599 Y121.61 E35.71027
G0 F6000 X108.599 Y121.044
G1 F1200 X111.44 Y123.885 E35.8439
G0 F6000 X111.44 Y123.319
G1 F1200 X108.599 Y120.478 E35.97754
G0 F6000 X108.599 Y119.913
G1 F1200 X111.44 Y122.753 E36.11114
G0 F6000 X111.44 Y122.188
G1 F1200 X108.599 Y119.347 E36.24478
G0 F6000 X108.599 Y118.781
G1 F1200 X111.44 Y121.622 E36.37841
G0 F6000 X111.439 Y121.055
G1 F1200 X108.599 Y118.216 E36.51197
G0 F6000 X108.599 Y117.65
G1 F1200 X111.439 Y120.49 E36.64555
G0 F6000 X111.439 Y119.924
G1 F1200 X108.599 Y117.084 E36.77914
G0 F6000 X108.599 Y116.519
G1 F1200 X111.439 Y119.358 E36.9127
G0 F6000 X111.438 Y118.792
G1 F1200 X108.599 Y115.953 E37.04624
G0 F6000 X108.599 Y115.387
G1 F1200 X111.438 Y118.226 E37.17978
G0 F6000 X111.438 Y117.661
G1 F1200 X108.599 Y114.822 E37.31331
G0 F6000 X108.599 Y114.256
G1 F1200 X111.438 Y117.095 E37.44685
G0 F6000 X111.437 Y116.529
G1 F1200 X108.599 Y113.69 E37.58037
G0 F6000 X108.599 Y113.125
G1 F1200 X111.437 Y115.963 E37.71386
G0 F6000 X111.437 Y115.397
G1 F1200 X108.599 Y112.559 E37.84735
G0 F6000 X108.599 Y111.993
G1 F1200 X111.437 Y114.831 E37.98084
G0 F6000 X111.437 Y114.265
G1 F1200 X108.599 Y111.428 E38.11431
G0 F6000 X108.599 Y110.862
G1 F1200 X111.437 Y113.699 E38.24777
G0 F6000 X111.437 Y113.134
G1 F1200 X108.599 Y110.296 E38.38126
G0 F6000 X108.599 Y109.73
G1 F1200 X111.436 Y112.567 E38.51471
G0 F6000 X111.436 Y112.002
G1 F1200 X108.599 Y109.165 E38.64815
G0 F6000 X108.599 Y108.599
G1 F1200 X111.436 Y111.436 E38.7816
G0 F6000 X111.436 Y110.87
G1 F1200 X109.165 Y108.599 E38.88842
G0 F6000 X109.73 Y108.599
G1 F1200 X111.435 Y110.304 E38.96861
G0 F6000 X111.435 Y109.738
G1 F1200 X110.296 Y108.599 E39.02219
G0 F6000 X110.862 Y108.599
G1 F1200 X111.435 Y109.173 E39.04917
G1 F2700 E34.04917
G0 F6000 X111.877 Y109.173
G0 X112.163 Y124.702
G0 X122.826 Y124.698
G0 X123.11 Y109.405
G0 X123.548 Y109.406
G1 F2700 E39.04917
G1 F1200 X126.399 Y112.257 E39.18327
G0 F6000 X126.399 Y112.823
G1 F1200 X123.548 Y109.972 E39.31737
G0 F6000 X123.548 Y110.537
G1 F1200 X126.399 Y113.388 E39.45147
G0 F6000 X126.399 Y113.954
G1 F1200 X123.548 Y111.103 E39.58557
G0 F6000 X123.548 Y111.669
G1 F1200 X126.399 Y114.52 E39.71968
G0 F6000 X126.399 Y115.085
G1 F1200 X123.548 Y112.234 E39.85378
G0 F6000 X123.548 Y112.8
G1 F1200 X126.399 Y115.651 E39.98788
G0 F6000 X126.399 Y116.217
G1 F1200 X123.548 Y113.366 E40.12198
G0 F6000 X123.548 Y113.931
G1 F1200 X126.399 Y116.782 E40.25609
G0 F6000 X126.399 Y117.348
G1 F1200 X123.548 Y114.497 E40.39019
G0 F6000 X123.548 Y115.063
G1 F1200 X126.399 Y117.914 E40.52429
G0 F6000 X126.399 Y118.479
G1 F1200 X123.548 Y115.628 E40.65839
G0 F6000 X123.548 Y116.194
G1 F1200 X126.399 Y119.045 E40.79249
G0 F6000 X126.399 Y119.611
G1 F1200 X123.548 Y116.76 E40.9266
G0 F6000 X123.547 Y117.325
G1 F1200 X126.399 Y120.177 E41.06075
G0 F6000 X126.399 Y120.742
G1 F1200 X123.547 Y117.89 E41.1949
G0 F6000 X123.547 Y118.456
G1 F1200 X126.399 Y121.308 E41.32905
G0 F6000 X126.399 Y121.874
G1 F1200 X123.547 Y119.022 E41.46319
G0 F6000 X123.547 Y119.588
G1 F1200 X126.399 Y122.439 E41.59732
G0 F6000 X126.399 Y123.005
G1 F1200 X123.547 Y120.153 E41.73147
G0 F6000 X123.547 Y120.719
G1 F1200 X126.399 Y123.571 E41.86562
G0 F6000 X126.399 Y124.136
G1 F1200 X123.547 Y121.285 E41.99974
G0 F6000 X123.547 Y121.85
G1 F1200 X126.399 Y124.702 E42.13389
G0 F6000 X126.399 Y125.268
G1 F1200 X123.547 Y122.416 E42.26804
G0 F6000 X123.547 Y122.982
G1 F1200 X126.399 Y125.833 E42.40217
G0 F6000 X126.399 Y126.399
G1 F1200 X123.547 Y123.547 E42.53632
G0 F6000 X123.547 Y124.113
G1 F1200 X125.833 Y126.399 E42.64385
G0 F6000 X125.268 Y126.399
G1 F1200 X123.547 Y124.679 E42.72477
G0 F6000 X123.547 Y125.244
G1 F1200 X124.702 Y126.399 E42.7791
G0 F6000 X124.136 Y126.399
G1 F1200 X123.156 Y125.419 E42.8252
G0 F6000 X122.591 Y125.419
G1 F1200 X123.571 Y126.399 E42.87129
G0 F6000 X123.005 Y126.399
G1 F1200 X122.025 Y125.419 E42.91739
