;FLAVOR:Marlin
;TIME:5103
;Filament used: 3.13851m
;Layer height: 0.2
;MINX:78.944
;MINY:49.221
;MINZ:0.2
;MAXX:155.567
;MAXY:186.306
;MAXZ:20
;Generated with Cura_SteamEngine 4.6.1
M140 S57
M105
M190 S57
M104 S208
M105
M109 S208
M82 ;absolute extrusion mode
; Ender 3 Custom Start G-code
G92 E0 ; Reset Extruder
G28 ; Home all axes
G1 Z2.0 F3000 ; Move Z Axis up little to prevent scratching of Heat Bed
G1 X0.1 Y20 Z0.3 F5000.0 ; Move to start position
G1 X0.1 Y200.0 Z0.3 F1500.0 E15 ; Draw the first line
G1 X0.4 Y200.0 Z0.3 F5000.0 ; Move to side a little
G1 X0.4 Y20 Z0.3 F1500.0 E30 ; Draw the second line
G92 E0 ; Reset Extruder
G1 Z2.0 F3000 ; Move Z Axis up little to prevent scratching of Heat Bed
G1 X5 Y20 Z0.3 F5000.0 ; Move over to prevent blob squish
G92 E0
G92 E0
G1 F2700 E-5
;LAYER_COUNT:101
;LAYER:0
M107
G0 F6000 X137.454 Y50.129 Z0.2
;TYPE:SKIRT
G1 F2700 E0
G1 F1200 X138.369 Y50.264 E0.03076
G1 X138.625 Y50.305 E0.03939
G1 X139.909 Y50.528 E0.08273
G1 X140.791 Y50.722 E0.11277
G1 X141.653 Y50.993 E0.14282
G1 X142.208 Y51.214 E0.16269
G1 X143.145 Y51.62 E0.19665
G1 X144.14 Y52.072 E0.233
G1 X144.693 Y52.332 E0.25333
G1 X145.492 Y52.752 E0.28335
G1 X146.252 Y53.242 E0.31343
G1 X146.677 Y53.56 E0.33108
G1 X147.583 Y54.278 E0.36953
G1 X148.261 Y54.837 E0.39876
G1 X148.789 Y55.285 E0.42179
G1 X149.451 Y55.9 E0.45184
G1 X150.056 Y56.57 E0.48187
G1 X150.364 Y56.962 E0.49845
G1 X150.998 Y57.814 E0.53377
G1 X151.547 Y58.581 E0.56514
G1 X151.939 Y59.143 E0.58793
G1 X152.422 Y59.906 E0.61797
G1 X152.836 Y60.708 E0.64799
G1 X153.257 Y61.776 E0.68617
G1 X153.378 Y62.142 E0.69899
G1 X153.491 Y62.504 E0.7116
G1 X153.701 Y63.233 E0.73683
G1 X154.128 Y64.797 E0.79076
G1 X154.301 Y65.466 E0.81374
G1 X154.511 Y66.491 E0.84854
G1 X154.543 Y66.702 E0.85564
G1 X154.6 Y67.143 E0.87043
G1 X154.684 Y68.011 E0.89943
G1 X154.733 Y68.613 E0.91952
G1 X154.767 Y69.515 E0.94954
G1 X154.72 Y70.413 E0.97945
G1 X154.606 Y71.555 E1.01762
G1 X154.561 Y71.905 E1.02936
G1 X154.406 Y72.794 E1.05937
G1 X154.19 Y73.614 E1.08758
G1 X153.913 Y74.505 E1.11861
G1 X153.185 Y76.733 E1.19657
G1 X152.94 Y77.452 E1.22184
G1 X152.611 Y78.293 E1.25187
G1 X152.209 Y79.102 E1.28192
G1 X151.737 Y79.872 E1.31196
G1 X151.266 Y80.513 E1.33841
G1 X150.63 Y81.311 E1.37235
G1 X150.027 Y82.042 E1.40387
G1 X149.578 Y82.573 E1.427
G1 X148.984 Y83.217 E1.45614
G1 X148.193 Y84.004 E1.49325
G1 X146.358 Y85.883 E1.58061
G1 X144.653 Y87.729 E1.66419
G1 X142.975 Y89.655 E1.74915
G1 X141.357 Y91.618 E1.83376
G1 X139.815 Y93.604 E1.91738
G1 X138.292 Y95.681 E2.00305
G1 X136.862 Y97.755 E2.08684
G1 X135.487 Y99.872 E2.1708
G1 X134.153 Y102.062 E2.25608
G1 X132.898 Y104.259 E2.34024
G1 X131.695 Y106.509 E2.4251
G1 X130.564 Y108.776 E2.50936
G1 X129.494 Y111.084 E2.59398
G1 X128.495 Y113.406 E2.67805
G1 X127.552 Y115.784 E2.76313
G1 X126.682 Y118.175 E2.84776
G1 X125.959 Y120.335 E2.92352
G1 X123.805 Y127.051 E3.1581
G1 X123.046 Y129.536 E3.24452
G1 X122.372 Y131.992 E3.32923
G1 X121.778 Y134.421 E3.4124
G1 X121.234 Y136.958 E3.4987
G1 X120.776 Y139.434 E3.58245
G1 X120.384 Y141.945 E3.66698
G1 X120.066 Y144.442 E3.7507
G1 X119.816 Y146.985 E3.83569
G1 X119.638 Y149.522 E3.92027
G1 X119.532 Y152.055 E4.0046
G1 X119.498 Y154.588 E4.08885
G1 X119.536 Y157.121 E4.17311
G1 X119.646 Y159.686 E4.2585
G1 X119.826 Y162.193 E4.3421
G1 X120.077 Y164.712 E4.42629
G1 X120.293 Y166.313 E4.48003
G1 X120.462 Y167.717 E4.52706
G1 X120.53 Y168.618 E4.55711
G1 X120.518 Y169.521 E4.58715
G1 X120.427 Y170.419 E4.61717
G1 X120.256 Y171.306 E4.64721
G1 X120.007 Y172.174 E4.67725
G1 X119.683 Y173.017 E4.70729
G1 X119.285 Y173.828 E4.73733
G1 X118.818 Y174.6 E4.76734
G1 X118.537 Y174.999 E4.78357
G1 X117.786 Y176.015 E4.8256
G1 X117.42 Y176.496 E4.8457
G1 X115.955 Y178.541 E4.92937
G1 X114.641 Y180.504 E5.00794
G1 X114.25 Y181.073 E5.0309
G1 X113.706 Y181.794 E5.06094
G1 X113.1 Y182.464 E5.09099
G1 X112.438 Y183.077 E5.12099
G1 X111.723 Y183.63 E5.15106
G1 X110.963 Y184.118 E5.1811
G1 X110.163 Y184.536 E5.21112
G1 X109.329 Y184.882 E5.24115
G1 X108.467 Y185.153 E5.2712
G1 X107.585 Y185.346 E5.30123
G1 X106.689 Y185.461 E5.33128
G1 X106.016 Y185.495 E5.35369
G1 X105.246 Y185.506 E5.37931
G1 X94.734 Y185.499 E5.72894
G1 X94.097 Y185.49 E5.75012
G1 X93.195 Y185.437 E5.78018
G1 X92.302 Y185.305 E5.8102
G1 X91.424 Y185.094 E5.84023
G1 X90.568 Y184.807 E5.87026
G1 X89.74 Y184.444 E5.90033
G1 X88.948 Y184.01 E5.93037
G1 X88.198 Y183.508 E5.96039
G1 X87.495 Y182.941 E5.99043
G1 X86.845 Y182.315 E6.02044
G1 X86.252 Y181.633 E6.0505
G1 X85.738 Y180.925 E6.0796
G1 X85.253 Y180.193 E6.10881
G1 X83.757 Y177.911 E6.19956
G1 X82.175 Y175.647 E6.29142
G1 X81.664 Y174.938 E6.32049
G1 X81.169 Y174.183 E6.35052
G1 X80.743 Y173.387 E6.38055
G1 X80.389 Y172.556 E6.41059
G1 X80.11 Y171.697 E6.44063
G1 X79.908 Y170.817 E6.47066
G1 X79.784 Y169.922 E6.50071
G1 X79.74 Y169.02 E6.53075
G1 X79.776 Y168.118 E6.56077
G1 X79.905 Y167.151 E6.59322
G1 X80.052 Y166.367 E6.61975
G1 X80.425 Y164.613 E6.67939
G1 X80.887 Y162.101 E6.76434
G1 X81.268 Y159.632 E6.84744
G1 X81.59 Y157.066 E6.93345
G1 X81.863 Y154.229 E7.02825
G1 X81.907 Y153.846 E7.04107
G1 X82.027 Y152.953 E7.07104
G1 X82.11 Y152.437 E7.08842
G1 X83.843 Y143.17 E7.40198
G1 X83.981 Y142.485 E7.42522
G1 X84.114 Y141.91 E7.44485
G1 X84.355 Y140.995 E7.47633
G1 X88.089 Y127.622 E7.93813
G1 X88.271 Y127.001 E7.95965
G1 X88.463 Y126.413 E7.98022
G1 X88.823 Y125.417 E8.01545
G1 X90.706 Y120.447 E8.19222
G1 X91.099 Y119.461 E8.22752
G1 X91.336 Y118.904 E8.24765
G1 X96.72 Y106.605 E8.6942
G1 X97.043 Y105.894 E8.72017
G1 X97.359 Y105.259 E8.74376
G1 X97.757 Y104.526 E8.7715
G1 X101.22 Y98.354 E9.00689
G1 X101.9 Y97.184 E9.0519
G1 X106.757 Y89.03 E9.36757
G1 X108.081 Y86.735 E9.45569
G1 X109.266 Y84.541 E9.53863
G1 X110.43 Y82.228 E9.62475
G1 X111.489 Y79.967 E9.7078
G1 X112.516 Y77.603 E9.79352
G1 X113.474 Y75.222 E9.87888
G1 X114.333 Y72.885 E9.9617
G1 X115.143 Y70.481 E10.04607
G1 X115.891 Y68.037 E10.13108
G1 X116.568 Y65.575 E10.21601
G1 X116.863 Y64.393 E10.25653
G1 X117.12 Y63.528 E10.28654
G1 X117.314 Y63.012 E10.30487
G1 X117.721 Y62.013 E10.34075
G1 X117.881 Y61.641 E10.35422
G1 X118.285 Y60.754 E10.38664
G1 X118.558 Y60.175 E10.40793
G1 X118.979 Y59.376 E10.43797
G1 X119.469 Y58.617 E10.46802
G1 X119.781 Y58.201 E10.48531
G1 X120.475 Y57.326 E10.52246
G1 X121.076 Y56.596 E10.55391
G1 X121.481 Y56.116 E10.57479
G1 X122.094 Y55.453 E10.60483
G1 X122.762 Y54.846 E10.63485
G1 X123.155 Y54.535 E10.65152
G1 X124.049 Y53.868 E10.68862
G1 X124.858 Y53.29 E10.72168
G1 X125.376 Y52.93 E10.74267
G1 X126.14 Y52.448 E10.77271
G1 X127.194 Y51.925 E10.81185
G1 X128.062 Y51.56 E10.84316
G1 X129.241 Y51.115 E10.88508
G1 X129.941 Y50.866 E10.90979
G1 X130.804 Y50.601 E10.93982
G1 X131.687 Y50.414 E10.96984
G1 X132.455 Y50.316 E10.99559
G1 X132.887 Y50.278 E11.01001
G1 X134.948 Y50.071 E11.0789
G1 X135.849 Y50.021 E11.10892
G1 X136.752 Y50.05 E11.13897
G1 X137.454 Y50.129 E11.16246
G0 F6000 X137.512 Y49.734
G1 F1200 X138.427 Y49.869 E11.19323
G1 X138.694 Y49.911 E11.20222
G1 X139.978 Y50.134 E11.24556
G1 X140.877 Y50.331 E11.27617
G1 X141.756 Y50.605 E11.30679
G1 X142.367 Y50.847 E11.32865
G1 X143.31 Y51.256 E11.36284
G1 X144.31 Y51.71 E11.39937
G1 X144.863 Y51.97 E11.41969
G1 X145.678 Y52.398 E11.45031
G1 X146.454 Y52.895 E11.48096
G1 X146.925 Y53.246 E11.5005
G1 X147.837 Y53.969 E11.5392
G1 X148.52 Y54.532 E11.56864
G1 X149.048 Y54.98 E11.59167
G1 X149.723 Y55.606 E11.62229
G1 X150.342 Y56.288 E11.65293
G1 X150.685 Y56.722 E11.67133
G1 X151.323 Y57.581 E11.70691
G1 X151.875 Y58.352 E11.73845
G1 X152.267 Y58.914 E11.76124
G1 X152.76 Y59.691 E11.79185
G1 X153.185 Y60.508 E11.82248
G1 X153.637 Y61.651 E11.86336
G1 X153.758 Y62.017 E11.87618
G1 X153.875 Y62.393 E11.88928
G1 X154.087 Y63.127 E11.91469
G1 X154.515 Y64.697 E11.96881
G1 X154.688 Y65.366 E11.9918
G1 X154.906 Y66.431 E12.02795
G1 X154.938 Y66.642 E12.03505
G1 X154.998 Y67.1 E12.05041
G1 X155.083 Y67.978 E12.07975
G1 X155.132 Y68.58 E12.09984
G1 X155.167 Y69.5 E12.13046
G1 X155.119 Y70.451 E12.16213
G1 X155.041 Y71.265 E12.18933
G1 X154.957 Y71.956 E12.21248
G1 X154.801 Y72.863 E12.24309
G1 X154.572 Y73.732 E12.27298
G1 X154.293 Y74.629 E12.30423
G1 X153.563 Y76.862 E12.38237
G1 X153.318 Y77.581 E12.40763
G1 X152.984 Y78.439 E12.43825
G1 X152.576 Y79.264 E12.46887
G1 X152.099 Y80.051 E12.49947
G1 X151.579 Y80.762 E12.52877
G1 X150.939 Y81.565 E12.56292
G1 X150.332 Y82.3 E12.59463
G1 X149.883 Y82.831 E12.61776
G1 X149.266 Y83.5 E12.64803
G1 X148.513 Y84.249 E12.68335
G1 X146.638 Y86.169 E12.77261
G1 X144.95 Y87.997 E12.85537
G1 X143.3 Y89.891 E12.93891
G1 X141.653 Y91.889 E13.02504
G1 X140.138 Y93.839 E13.10717
G1 X138.612 Y95.922 E13.19305
G1 X137.211 Y97.954 E13.27514
G1 X135.806 Y100.117 E13.36093
G1 X134.499 Y102.263 E13.4445
G1 X133.248 Y104.452 E13.52836
G1 X132.062 Y106.67 E13.61201
G1 X130.921 Y108.958 E13.69705
G1 X129.853 Y111.261 E13.78148
G1 X128.875 Y113.533 E13.86375
G1 X127.907 Y115.973 E13.95106
G1 X127.069 Y118.277 E14.0326
G1 X126.359 Y120.398 E14.107
G1 X124.196 Y127.142 E14.34256
G1 X123.429 Y129.654 E14.42991
G1 X122.761 Y132.088 E14.51386
G1 X122.164 Y134.528 E14.59741
G1 X121.624 Y137.043 E14.68297
G1 X121.17 Y139.497 E14.76597
G1 X120.782 Y141.99 E14.84989
G1 X120.463 Y144.495 E14.93388
G1 X120.215 Y147.016 E15.01813
G1 X120.038 Y149.533 E15.10205
G1 X119.932 Y152.076 E15.18671
G1 X119.898 Y154.587 E15.27023
G1 X119.936 Y157.133 E15.35492
G1 X120.044 Y159.641 E15.43842
G1 X120.224 Y162.158 E15.52235
G1 X120.476 Y164.675 E15.60648
G1 X120.69 Y166.265 E15.65984
G1 X120.859 Y167.669 E15.70687
G1 X120.929 Y168.587 E15.7375
G1 X120.92 Y169.508 E15.76813
G1 X120.83 Y170.424 E15.79874
G1 X120.661 Y171.329 E15.82936
G1 X120.415 Y172.216 E15.85998
G1 X120.092 Y173.078 E15.8906
G1 X119.696 Y173.909 E15.92121
G1 X119.229 Y174.703 E15.95185
G1 X118.859 Y175.237 E15.97346
G1 X118.104 Y176.257 E16.01567
G1 X117.748 Y176.725 E16.03522
G1 X116.3 Y178.747 E16.11794
G1 X114.97 Y180.73 E16.19736
G1 X114.579 Y181.299 E16.22032
G1 X114.025 Y182.035 E16.25096
G1 X113.41 Y182.719 E16.28155
G1 X112.737 Y183.348 E16.31219
G1 X112.012 Y183.916 E16.34282
G1 X111.241 Y184.418 E16.37342
G1 X110.429 Y184.852 E16.40405
G1 X109.583 Y185.214 E16.43465
G1 X108.708 Y185.501 E16.46528
G1 X107.812 Y185.712 E16.4959
G1 X106.9 Y185.843 E16.52654
G1 X106.022 Y185.894 E16.55579
G1 X105.246 Y185.906 E16.58161
G1 X94.728 Y185.899 E16.93144
G1 X94.091 Y185.89 E16.95263
G1 X93.172 Y185.837 E16.98324
G1 X92.261 Y185.704 E17.01386
G1 X91.365 Y185.493 E17.04448
G1 X90.491 Y185.205 E17.07509
G1 X89.644 Y184.842 E17.10574
G1 X88.833 Y184.408 E17.13633
G1 X88.062 Y183.904 E17.16697
G1 X87.338 Y183.335 E17.19759
G1 X86.666 Y182.706 E17.22821
G1 X86.051 Y182.021 E17.25883
G1 X85.405 Y181.146 E17.295
G1 X84.892 Y180.372 E17.32588
G1 X83.422 Y178.13 E17.41505
G1 X81.834 Y175.858 E17.50725
G1 X81.34 Y175.172 E17.53537
G1 X80.834 Y174.403 E17.56598
G1 X80.398 Y173.592 E17.59661
G1 X80.033 Y172.747 E17.62722
G1 X79.744 Y171.873 E17.65784
G1 X79.531 Y170.977 E17.68847
G1 X79.396 Y170.066 E17.7191
G1 X79.341 Y169.147 E17.74972
G1 X79.366 Y168.227 E17.78033
G1 X79.511 Y167.08 E17.81879
G1 X79.599 Y166.596 E17.83515
G1 X79.661 Y166.284 E17.84573
G1 X80.027 Y164.564 E17.90422
G1 X80.49 Y162.044 E17.98944
G1 X80.875 Y159.552 E18.0733
G1 X81.194 Y157.014 E18.15838
G1 X81.465 Y154.19 E18.25274
G1 X81.51 Y153.792 E18.26606
G1 X81.63 Y152.899 E18.29603
G1 X81.716 Y152.363 E18.31409
G1 X83.451 Y143.091 E18.62783
G1 X83.589 Y142.406 E18.65107
G1 X83.727 Y141.808 E18.67148
G1 X83.97 Y140.887 E18.70316
G1 X87.705 Y127.51 E19.1651
G1 X87.887 Y126.889 E19.18662
G1 X88.087 Y126.277 E19.20804
G1 X88.449 Y125.275 E19.24347
G1 X90.334 Y120.3 E19.42042
G1 X90.731 Y119.305 E19.45605
G1 X90.97 Y118.744 E19.47633
G1 X96.356 Y106.44 E19.92306
G1 X96.679 Y105.729 E19.94903
G1 X97.007 Y105.069 E19.97354
G1 X97.408 Y104.33 E20.00151
G1 X100.874 Y98.153 E20.23709
G1 X101.556 Y96.979 E20.28225
G1 X106.441 Y88.779 E20.59971
G1 X107.726 Y86.551 E20.68525
G1 X108.922 Y84.337 E20.76895
G1 X110.061 Y82.072 E20.85327
G1 X111.138 Y79.774 E20.93768
G1 X112.131 Y77.487 E21.02061
G1 X113.096 Y75.089 E21.10658
G1 X113.954 Y72.757 E21.18923
G1 X114.764 Y70.353 E21.2736
G1 X115.508 Y67.919 E21.35825
G1 X116.188 Y65.45 E21.44343
G1 X116.475 Y64.297 E21.48295
G1 X116.736 Y63.414 E21.51357
G1 X116.943 Y62.861 E21.53321
G1 X117.35 Y61.862 E21.56909
G1 X117.517 Y61.476 E21.58308
G1 X117.923 Y60.583 E21.61571
G1 X118.196 Y60.004 E21.637
G1 X118.625 Y59.189 E21.66763
G1 X119.122 Y58.415 E21.69822
G1 X119.467 Y57.953 E21.7174
G1 X120.166 Y57.072 E21.75481
G1 X120.771 Y56.338 E21.78644
G1 X121.176 Y55.858 E21.80733
G1 X121.799 Y55.181 E21.83793
G1 X122.479 Y54.561 E21.86854
G1 X122.915 Y54.215 E21.88705
G1 X123.817 Y53.542 E21.92448
G1 X124.63 Y52.962 E21.9577
G1 X125.148 Y52.602 E21.97868
G1 X125.926 Y52.11 E22.0093
G1 X127.037 Y51.557 E22.05057
G1 X127.583 Y51.324 E22.07032
G1 X127.918 Y51.187 E22.08236
G1 X129.106 Y50.738 E22.1246
G1 X129.806 Y50.489 E22.14931
G1 X130.686 Y50.218 E22.17993
G1 X131.587 Y50.025 E22.21058
G1 X132.42 Y49.918 E22.23851
G1 X132.808 Y49.884 E22.25147
G1 X134.908 Y49.673 E22.32167
G1 X135.827 Y49.621 E22.35228
G1 X136.747 Y49.649 E22.38289
G1 X137.512 Y49.734 E22.4085
G0 F6000 X137.571 Y49.338
G1 F1200 X138.486 Y49.473 E22.43926
G1 X138.762 Y49.517 E22.44855
G1 X140.046 Y49.74 E22.4919
G1 X140.963 Y49.94 E22.52312
G1 X141.859 Y50.217 E22.55431
G1 X142.526 Y50.48 E22.57815
G1 X143.475 Y50.892 E22.61257
G1 X144.48 Y51.348 E22.64927
G1 X145.033 Y51.608 E22.6696
G1 X145.864 Y52.043 E22.70079
G1 X146.655 Y52.547 E22.73199
G1 X147.173 Y52.932 E22.75345
G1 X148.091 Y53.66 E22.79242
G1 X148.779 Y54.227 E22.82208
G1 X149.307 Y54.675 E22.84511
G1 X149.995 Y55.312 E22.87629
G1 X150.627 Y56.005 E22.90749
G1 X151.005 Y56.483 E22.92776
G1 X151.648 Y57.348 E22.9636
G1 X152.203 Y58.123 E22.99531
G1 X152.595 Y58.685 E23.0181
G1 X153.098 Y59.476 E23.04928
G1 X153.532 Y60.308 E23.08049
G1 X154.017 Y61.525 E23.12406
G1 X154.138 Y61.891 E23.13688
G1 X154.259 Y62.281 E23.15046
G1 X154.472 Y63.021 E23.17607
G1 X154.903 Y64.597 E23.23042
G1 X155.076 Y65.266 E23.2534
G1 X155.302 Y66.371 E23.29091
G1 X155.334 Y66.582 E23.29801
G1 X155.435 Y67.439 E23.32671
G1 X155.482 Y67.946 E23.34365
G1 X155.531 Y68.548 E23.36374
G1 X155.567 Y69.485 E23.39492
G1 X155.517 Y70.489 E23.42836
G1 X155.439 Y71.303 E23.45556
G1 X155.399 Y71.657 E23.46741
G1 X155.354 Y72.007 E23.47914
G1 X155.195 Y72.931 E23.51033
G1 X154.954 Y73.85 E23.54193
G1 X154.674 Y74.753 E23.57337
G1 X153.942 Y76.991 E23.65169
G1 X153.697 Y77.71 E23.67695
G1 X153.357 Y78.584 E23.70814
G1 X152.944 Y79.426 E23.73934
G1 X152.46 Y80.23 E23.77055
G1 X151.892 Y81.012 E23.80269
G1 X151.247 Y81.819 E23.83706
G1 X150.638 Y82.559 E23.86893
G1 X150.189 Y83.09 E23.89206
G1 X149.549 Y83.784 E23.92346
G1 X148.729 Y84.6 E23.96194
G1 X146.952 Y86.419 E24.04651
G1 X145.246 Y88.266 E24.13014
G1 X143.576 Y90.183 E24.2147
G1 X141.992 Y92.105 E24.29754
G1 X140.43 Y94.116 E24.38223
G1 X138.976 Y96.1 E24.46404
G1 X137.515 Y98.219 E24.54965
G1 X136.155 Y100.313 E24.6327
G1 X134.838 Y102.474 E24.71687
G1 X133.597 Y104.648 E24.80013
G1 X132.423 Y106.843 E24.88292
G1 X131.277 Y109.139 E24.96827
G1 X130.225 Y111.408 E25.05145
G1 X129.226 Y113.732 E25.13559
G1 X128.295 Y116.079 E25.21957
G1 X127.449 Y118.403 E25.30183
G1 X126.697 Y120.651 E25.38067
G1 X124.586 Y127.233 E25.61057
G1 X123.818 Y129.748 E25.69803
G1 X123.154 Y132.165 E25.7814
G1 X122.55 Y134.636 E25.866
G1 X122.015 Y137.129 E25.95081
G1 X121.571 Y139.531 E26.03205
G1 X121.176 Y142.061 E26.11722
G1 X120.859 Y144.552 E26.20074
G1 X120.614 Y147.047 E26.28412
G1 X120.436 Y149.577 E26.36848
G1 X120.332 Y152.063 E26.45124
G1 X120.298 Y154.587 E26.53519
G1 X120.336 Y157.111 E26.61915
G1 X120.444 Y159.629 E26.70298
G1 X120.623 Y162.125 E26.78621
G1 X120.871 Y164.608 E26.8692
G1 X121.087 Y166.217 E26.9232
G1 X121.256 Y167.621 E26.97023
G1 X121.328 Y168.556 E27.00142
G1 X121.321 Y169.494 E27.03262
