;FLAVOR:Marlin
;TIME:10897
;Filament used: 5.9196m
;Layer height: 0.2
;MINX:84.5
;MINY:74.152
;MINZ:0.2
;MAXX:150.5
;MAXY:160.782
;MAXZ:45
;Generated with Cura_SteamEngine 4.11.0
M140 S57
M105
M190 S57
M104 S208
M105
M109 S208
M82 ;absolute extrusion mode
; Ender 3 Custom Start G-code
G92 E0 ; Reset Extruder
G28 ; Home all axes
G1 Z2.0 F3000 ; Move Z Axis up little to prevent scratching of Heat Bed
G1 X0.1 Y20 Z0.3 F5000.0 ; Move to start position
G1 X0.1 Y200.0 Z0.3 F1500.0 E15 ; Draw the first line
G1 X0.4 Y200.0 Z0.3 F5000.0 ; Move to side a little
G1 X0.4 Y20 Z0.3 F1500.0 E30 ; Draw the second line
G92 E0 ; Reset Extruder
G1 Z2.0 F3000 ; Move Z Axis up little to prevent scratching of Heat Bed
G1 X5 Y20 Z0.3 F5000.0 ; Move over to prevent blob squish
G92 E0
G92 E0
G1 F2700 E-5
;LAYER_COUNT:225
;LAYER:0
M107
G0 F6000 X87.71 Y87.718 Z0.2
;TYPE:SKIRT
G1 F2700 E0
G1 F1200 X88.399 Y87.082 E0.03119
G1 X89.14 Y86.506 E0.0624
G1 X89.927 Y85.996 E0.09359
G1 X90.754 Y85.555 E0.12477
G1 X91.549 Y85.212 E0.15356
G1 X92.055 Y85.017 E0.1716
G1 X94.442 Y84.054 E0.25721
G1 X96.756 Y83.044 E0.34119
G1 X99.038 Y81.97 E0.42507
G1 X99.948 Y81.516 E0.4589
G1 X101.835 Y80.582 E0.52892
G1 X104.053 Y79.404 E0.61245
G1 X106.249 Y78.157 E0.69645
G1 X108.4 Y76.854 E0.78009
G1 X109.28 Y76.288 E0.81489
G1 X110.004 Y75.836 E0.84328
G1 X110.82 Y75.374 E0.87447
G1 X111.672 Y74.983 E0.90565
G1 X112.555 Y74.666 E0.93685
G1 X113.461 Y74.425 E0.96803
G1 X114.385 Y74.262 E0.99924
G1 X115.637 Y74.169 E1.041
G1 X116.689 Y74.152 E1.07599
G1 X117.995 Y74.152 E1.11943
G1 X118.851 Y74.163 E1.1479
G1 X119.788 Y74.217 E1.17912
G1 X120.716 Y74.349 E1.2103
G1 X121.63 Y74.561 E1.2415
G1 X122.522 Y74.85 E1.27269
G1 X123.444 Y75.241 E1.306
G1 X124.474 Y75.8 E1.34498
G1 X124.889 Y76.056 E1.36119
G1 X126.554 Y77.114 E1.42681
G1 X128.743 Y78.418 E1.51155
G1 X130.896 Y79.622 E1.5936
G1 X133.151 Y80.799 E1.6782
G1 X135.418 Y81.902 E1.76205
G1 X137.728 Y82.946 E1.84637
G1 X140.023 Y83.906 E1.92911
G1 X142.426 Y84.832 E2.01476
G1 X143.297 Y85.153 E2.04564
G1 X144.162 Y85.515 E2.07682
G1 X144.994 Y85.949 E2.10803
G1 X145.785 Y86.453 E2.13923
G1 X146.531 Y87.022 E2.17043
G1 X147.225 Y87.652 E2.20161
G1 X147.863 Y88.339 E2.23279
G1 X148.441 Y89.078 E2.264
G1 X148.953 Y89.864 E2.2952
G1 X149.396 Y90.69 E2.32637
G1 X149.768 Y91.551 E2.35757
G1 X150.065 Y92.441 E2.38877
G1 X150.285 Y93.353 E2.41998
G1 X150.426 Y94.28 E2.45116
G1 X150.487 Y95.168 E2.48077
G1 X150.496 Y95.491 E2.49152
G1 X150.5 Y95.801 E2.50183
G1 X150.499 Y98.376 E2.58747
G1 X150.492 Y100.31 E2.6518
G1 X150.5 Y101.539 E2.69267
G1 X150.499 Y107.089 E2.87727
G1 X150.492 Y109.023 E2.94159
G1 X150.5 Y110.252 E2.98247
G1 X150.499 Y115.802 E3.16707
G1 X150.492 Y117.736 E3.23139
G1 X150.5 Y118.965 E3.27227
G1 X150.499 Y124.514 E3.45683
G1 X150.492 Y126.447 E3.52112
G1 X150.5 Y127.677 E3.56203
G1 X150.499 Y133.227 E3.74663
G1 X150.492 Y135.16 E3.81092
G1 X150.5 Y136.312 E3.84923
G1 X150.499 Y138.882 E3.93471
G1 X150.489 Y139.61 E3.95893
G1 X150.436 Y140.546 E3.99011
G1 X150.304 Y141.475 E4.02132
G1 X150.093 Y142.389 E4.05252
G1 X149.805 Y143.281 E4.08369
G1 X149.441 Y144.146 E4.11491
G1 X149.006 Y144.977 E4.14611
G1 X148.501 Y145.767 E4.17729
G1 X147.931 Y146.512 E4.20849
G1 X147.3 Y147.205 E4.23966
G1 X146.612 Y147.842 E4.27085
G1 X145.872 Y148.419 E4.30206
G1 X145.085 Y148.93 E4.33327
G1 X144.258 Y149.372 E4.36446
G1 X143.17 Y149.825 E4.40365
G1 X142.014 Y150.234 E4.44444
G1 X141.829 Y150.296 E4.45093
G1 X139.462 Y151.167 E4.53482
G1 X137.137 Y152.098 E4.61811
G1 X134.804 Y153.11 E4.7027
G1 X132.558 Y154.16 E4.78516
G1 X130.279 Y155.305 E4.86999
G1 X128.059 Y156.501 E4.95386
G1 X125.886 Y157.751 E5.03724
G1 X124.138 Y158.817 E5.10533
G1 X123.702 Y159.09 E5.12244
G1 X122.887 Y159.553 E5.15362
G1 X122.035 Y159.946 E5.18483
G1 X121.153 Y160.264 E5.21601
G1 X120.247 Y160.506 E5.2472
G1 X119.323 Y160.67 E5.27841
G1 X118.056 Y160.765 E5.32067
G1 X117.003 Y160.782 E5.3557
G1 X115.525 Y160.781 E5.40486
G1 X114.82 Y160.77 E5.42831
G1 X113.884 Y160.715 E5.45949
G1 X112.956 Y160.581 E5.49068
G1 X112.042 Y160.368 E5.52189
G1 X111.15 Y160.078 E5.55309
G1 X110.286 Y159.714 E5.58427
G1 X109.457 Y159.277 E5.61544
G1 X108.97 Y158.976 E5.63448
G1 X108.141 Y158.432 E5.66746
G1 X107.766 Y158.177 E5.68255
G1 X105.669 Y156.834 E5.76537
G1 X103.471 Y155.515 E5.85063
G1 X101.315 Y154.3 E5.93294
G1 X99.055 Y153.111 E6.01788
G1 X96.828 Y152.02 E6.10036
G1 X94.527 Y150.97 E6.18448
G1 X91.8 Y149.824 E6.28287
G1 X91.393 Y149.66 E6.29746
G1 X90.539 Y149.273 E6.32864
G1 X89.721 Y148.814 E6.35984
G1 X88.945 Y148.286 E6.39106
G1 X88.217 Y147.695 E6.42225
G1 X87.542 Y147.044 E6.45344
G1 X86.925 Y146.338 E6.48462
G1 X86.371 Y145.582 E6.5158
G1 X85.882 Y144.781 E6.54701
G1 X85.464 Y143.941 E6.57822
G1 X85.119 Y143.069 E6.60941
G1 X84.849 Y142.171 E6.6406
G1 X84.657 Y141.253 E6.67179
G1 X84.544 Y140.322 E6.70298
G1 X84.515 Y139.8 E6.72037
G1 X84.505 Y139.477 E6.73112
G1 X84.5 Y139.133 E6.74256
G1 X84.501 Y136.558 E6.82821
G1 X84.508 Y134.625 E6.8925
G1 X84.5 Y133.395 E6.93341
G1 X84.501 Y127.845 E7.118
G1 X84.508 Y125.912 E7.1823
G1 X84.5 Y124.682 E7.22321
G1 X84.501 Y119.132 E7.4078
G1 X84.508 Y117.198 E7.47213
G1 X84.5 Y115.969 E7.513
G1 X84.501 Y110.419 E7.6976
G1 X84.508 Y108.485 E7.76192
G1 X84.5 Y107.256 E7.8028
G1 X84.501 Y101.706 E7.98739
G1 X84.508 Y99.772 E8.05172
G1 X84.5 Y98.621 E8.09
G1 X84.501 Y95.976 E8.17798
G1 X84.511 Y95.309 E8.20016
G1 X84.565 Y94.373 E8.23135
G1 X84.699 Y93.444 E8.26256
G1 X84.911 Y92.531 E8.29374
G1 X85.2 Y91.639 E8.32492
G1 X85.564 Y90.774 E8.35614
G1 X86.001 Y89.944 E8.38734
G1 X86.506 Y89.154 E8.41852
G1 X87.078 Y88.41 E8.44974
G1 X87.71 Y87.718 E8.48091
G0 F6000 X88.102 Y87.893
G1 F1200 X88.787 Y87.279 E8.5115
G1 X89.524 Y86.726 E8.54215
G1 X90.305 Y86.24 E8.57274
G1 X91.126 Y85.823 E8.60337
G1 X91.693 Y85.585 E8.62382
G1 X92.223 Y85.38 E8.64272
G1 X94.573 Y84.433 E8.72699
G1 X96.937 Y83.4 E8.8128
G1 X99.225 Y82.324 E8.89689
G1 X100.125 Y81.874 E8.93036
G1 X102.021 Y80.935 E9.00073
G1 X104.274 Y79.74 E9.08555
G1 X106.432 Y78.513 E9.16812
G1 X108.619 Y77.189 E9.25315
G1 X109.491 Y76.627 E9.28766
G1 X110.215 Y76.175 E9.31604
G1 X111.017 Y75.722 E9.34668
G1 X111.855 Y75.34 E9.37731
G1 X112.722 Y75.033 E9.4079
G1 X113.613 Y74.801 E9.43852
G1 X114.521 Y74.648 E9.46915
G1 X115.644 Y74.569 E9.50659
G1 X116.689 Y74.552 E9.54136
G1 X117.995 Y74.552 E9.58479
G1 X118.846 Y74.563 E9.6131
G1 X119.765 Y74.616 E9.64372
G1 X120.676 Y74.749 E9.67434
G1 X121.572 Y74.96 E9.70495
G1 X122.446 Y75.248 E9.73556
G1 X123.272 Y75.602 E9.76545
G1 X124.265 Y76.141 E9.80303
G1 X124.674 Y76.394 E9.81903
G1 X126.34 Y77.452 E9.88467
G1 X128.522 Y78.752 E9.96914
G1 X130.722 Y79.983 E10.05299
G1 X132.969 Y81.156 E10.1373
G1 X135.257 Y82.268 E10.22191
G1 X137.514 Y83.289 E10.3043
G1 X139.891 Y84.284 E10.39001
G1 X142.354 Y85.232 E10.47779
G1 X143.159 Y85.529 E10.50632
G1 X144.008 Y85.884 E10.53693
G1 X144.823 Y86.313 E10.56756
G1 X145.598 Y86.81 E10.59819
G1 X146.326 Y87.372 E10.62877
G1 X147.004 Y87.996 E10.65942
G1 X147.624 Y88.676 E10.69003
G1 X148.183 Y89.407 E10.72064
G1 X148.677 Y90.185 E10.75129
G1 X149.101 Y91.002 E10.7819
G1 X149.453 Y91.852 E10.8125
G1 X149.73 Y92.731 E10.84316
G1 X149.929 Y93.629 E10.87375
G1 X150.05 Y94.542 E10.90438
G1 X150.087 Y95.179 E10.9256
G1 X150.096 Y95.502 E10.93635
G1 X150.1 Y95.801 E10.94629
G1 X150.099 Y98.374 E11.03187
G1 X150.092 Y100.312 E11.09633
G1 X150.1 Y101.539 E11.13714
G1 X150.099 Y107.087 E11.32167
G1 X150.092 Y109.025 E11.38613
G1 X150.1 Y110.252 E11.42694
G1 X150.099 Y115.8 E11.61147
G1 X150.092 Y117.738 E11.67593
G1 X150.1 Y118.965 E11.71674
G1 X150.099 Y124.512 E11.90123
G1 X150.092 Y126.449 E11.96566
G1 X150.1 Y127.677 E12.0065
G1 X150.099 Y133.225 E12.19103
G1 X150.092 Y135.162 E12.25545
G1 X150.1 Y136.314 E12.29377
G1 X150.099 Y138.877 E12.37901
G1 X150.089 Y139.605 E12.40323
G1 X150.036 Y140.524 E12.43385
G1 X149.904 Y141.435 E12.46446
G1 X149.693 Y142.331 E12.49508
G1 X149.406 Y143.206 E12.52571
G1 X149.043 Y144.052 E12.55633
G1 X148.609 Y144.864 E12.58695
G1 X148.105 Y145.634 E12.61756
G1 X147.537 Y146.359 E12.64819
G1 X146.908 Y147.031 E12.67881
G1 X146.223 Y147.646 E12.70942
G1 X145.487 Y148.199 E12.74004
G1 X144.706 Y148.687 E12.77067
G1 X143.886 Y149.105 E12.80129
G1 X143.036 Y149.448 E12.83177
G1 X141.886 Y149.855 E12.87235
G1 X141.711 Y149.914 E12.87849
G1 X139.312 Y150.796 E12.9635
G1 X136.978 Y151.731 E13.04713
G1 X134.641 Y152.745 E13.13186
G1 X132.359 Y153.812 E13.21564
G1 X130.116 Y154.939 E13.29913
G1 X127.876 Y156.145 E13.38375
G1 X125.66 Y157.42 E13.46878
G1 X123.959 Y158.457 E13.53504
G1 X123.49 Y158.751 E13.55345
G1 X122.689 Y159.205 E13.58408
G1 X121.852 Y159.588 E13.61469
G1 X120.985 Y159.897 E13.6453
G1 X120.094 Y160.13 E13.67594
G1 X119.186 Y160.284 E13.70657
G1 X118.049 Y160.365 E13.74448
G1 X117.003 Y160.382 E13.77927
G1 X115.532 Y160.381 E13.8282
G1 X114.827 Y160.37 E13.85165
G1 X113.908 Y160.315 E13.88227
G1 X112.997 Y160.182 E13.91289
G1 X112.101 Y159.969 E13.94352
G1 X111.227 Y159.68 E13.97414
G1 X110.381 Y159.316 E14.00477
G1 X109.189 Y158.642 E14.05032
G1 X108.524 Y158.207 E14.07675
G1 X107.985 Y157.842 E14.0984
G1 X105.885 Y156.497 E14.18134
G1 X103.694 Y155.183 E14.26632
G1 X101.491 Y153.941 E14.35043
G1 X99.239 Y152.756 E14.43507
G1 X96.991 Y151.654 E14.51834
G1 X94.682 Y150.601 E14.60275
G1 X92.017 Y149.481 E14.69889
G1 X91.543 Y149.29 E14.71589
G1 X90.705 Y148.908 E14.74652
G1 X89.903 Y148.456 E14.77714
G1 X89.144 Y147.935 E14.80776
G1 X88.432 Y147.351 E14.83839
G1 X87.774 Y146.707 E14.86901
G1 X87.175 Y146.008 E14.89963
G1 X86.638 Y145.26 E14.93026
G1 X86.168 Y144.469 E14.96086
G1 X85.769 Y143.639 E14.99149
G1 X85.443 Y142.778 E15.02211
G1 X85.193 Y141.892 E15.05273
G1 X85.021 Y140.987 E15.08337
G1 X84.915 Y139.788 E15.1234
G1 X84.905 Y139.465 E15.13415
G1 X84.9 Y139.133 E15.14519
G1 X84.901 Y136.56 E15.23077
G1 X84.908 Y134.623 E15.2952
G1 X84.9 Y133.395 E15.33604
G1 X84.901 Y127.847 E15.52057
G1 X84.908 Y125.91 E15.58499
G1 X84.9 Y124.682 E15.62584
G1 X84.901 Y119.134 E15.81037
G1 X84.908 Y117.196 E15.87482
G1 X84.9 Y115.969 E15.91564
G1 X84.901 Y110.421 E16.10016
G1 X84.908 Y108.483 E16.16462
G1 X84.9 Y107.256 E16.20543
G1 X84.901 Y101.708 E16.38996
G1 X84.908 Y99.77 E16.45442
G1 X84.9 Y98.619 E16.4927
G1 X84.901 Y95.982 E16.58041
G1 X84.911 Y95.315 E16.6026
G1 X84.965 Y94.396 E16.63321
G1 X85.098 Y93.485 E16.66384
G1 X85.31 Y92.589 E16.69446
G1 X85.599 Y91.715 E16.72508
G1 X85.962 Y90.869 E16.7557
G1 X86.398 Y90.058 E16.78632
G1 X86.902 Y89.288 E16.81693
G1 X87.472 Y88.564 E16.84758
G1 X88.102 Y87.893 E16.87819
G0 F6000 X88.493 Y88.071
G1 F1200 X89.175 Y87.48 E16.90821
G1 X89.907 Y86.951 E16.93824
G1 X90.683 Y86.489 E16.96828
G1 X91.837 Y85.958 E17.01053
G1 X92.368 Y85.753 E17.02946
G1 X94.746 Y84.794 E17.11475
G1 X97.088 Y83.771 E17.19975
G1 X99.395 Y82.686 E17.28454
G1 X100.303 Y82.233 E17.31829
G1 X102.207 Y81.29 E17.38896
G1 X104.426 Y80.112 E17.47252
G1 X106.642 Y78.853 E17.55729
G1 X108.837 Y77.524 E17.64263
G1 X109.703 Y76.967 E17.67688
G1 X110.427 Y76.515 E17.70527
G1 X111.214 Y76.071 E17.73532
G1 X112.036 Y75.698 E17.76535
G1 X112.889 Y75.4 E17.7954
G1 X113.764 Y75.178 E17.82542
G1 X114.656 Y75.035 E17.85547
G1 X115.651 Y74.969 E17.88864
G1 X116.689 Y74.952 E17.92316
G1 X117.995 Y74.952 E17.9666
G1 X118.84 Y74.963 E17.99471
G1 X119.741 Y75.016 E18.02473
G1 X120.635 Y75.148 E18.05479
G1 X121.513 Y75.359 E18.08482
G1 X122.369 Y75.647 E18.11486
G1 X123.1 Y75.963 E18.14135
G1 X124.056 Y76.482 E18.17753
G1 X124.46 Y76.732 E18.19333
G1 X126.142 Y77.801 E18.25961
G1 X128.3 Y79.087 E18.34317
G1 X130.548 Y80.344 E18.42883
G1 X132.788 Y81.513 E18.51287
G1 X135.067 Y82.621 E18.59715
G1 X137.374 Y83.664 E18.68136
G1 X139.729 Y84.65 E18.76628
G1 X142.22 Y85.609 E18.85506
G1 X143.02 Y85.904 E18.88342
G1 X143.853 Y86.254 E18.91347
G1 X144.651 Y86.676 E18.94349
G1 X145.409 Y87.167 E18.97353
G1 X146.121 Y87.723 E19.00358
G1 X146.781 Y88.339 E19.0336
G1 X147.383 Y89.012 E19.06364
G1 X147.924 Y89.736 E19.0937
G1 X148.398 Y90.504 E19.12371
G1 X148.803 Y91.311 E19.15375
G1 X149.135 Y92.151 E19.18379
G1 X149.391 Y93.017 E19.21382
G1 X149.569 Y93.903 E19.24388
G1 X149.687 Y95.19 E19.28686
G1 X149.696 Y95.513 E19.29761
G1 X149.7 Y95.801 E19.30719
G1 X149.699 Y98.373 E19.39274
G1 X149.692 Y100.315 E19.45733
G1 X149.7 Y101.539 E19.49804
G1 X149.699 Y107.086 E19.68253
G1 X149.692 Y109.028 E19.74713
G1 X149.7 Y110.252 E19.78784
G1 X149.699 Y115.799 E19.97233
G1 X149.692 Y117.741 E20.03692
G1 X149.7 Y118.965 E20.07763
G1 X149.699 Y124.511 E20.26209
G1 X149.692 Y126.452 E20.32665
G1 X149.7 Y127.677 E20.3674
G1 X149.699 Y133.224 E20.55189
G1 X149.692 Y135.165 E20.61645
G1 X149.7 Y136.317 E20.65477
G1 X149.699 Y138.871 E20.73971
G1 X149.689 Y139.599 E20.76393
G1 X149.637 Y140.501 E20.79398
G1 X149.505 Y141.394 E20.824
G1 X149.294 Y142.272 E20.85404
G1 X149.007 Y143.129 E20.8841
G1 X148.645 Y143.956 E20.91412
G1 X148.212 Y144.748 E20.94414
G1 X147.709 Y145.499 E20.97421
G1 X147.143 Y146.202 E21.00423
G1 X146.517 Y146.853 E21.03426
G1 X145.835 Y147.445 E21.0643
G1 X145.104 Y147.975 E21.09433
G1 X144.328 Y148.438 E21.12439
G1 X143.515 Y148.831 E21.15442
G1 X142.903 Y149.071 E21.17629
G1 X141.759 Y149.476 E21.21665
G1 X141.551 Y149.546 E21.22395
G1 X139.162 Y150.425 E21.30862
G1 X136.854 Y151.349 E21.3913
G1 X134.462 Y152.387 E21.47803
G1 X132.203 Y153.442 E21.56095
G1 X129.898 Y154.601 E21.64676
G1 X127.708 Y155.78 E21.72949
G1 X125.459 Y157.075 E21.81581
G1 X123.757 Y158.112 E21.88209
G1 X123.278 Y158.412 E21.90089
G1 X122.492 Y158.857 E21.93093
G1 X121.67 Y159.23 E21.96096
G1 X120.818 Y159.53 E21.991
G1 X119.943 Y159.753 E22.02103
G1 X119.051 Y159.898 E22.05109
G1 X118.042 Y159.965 E22.08472
G1 X117.003 Y159.982 E22.11928
G1 X115.538 Y159.981 E22.16801
G1 X114.833 Y159.97 E22.19146
G1 X113.931 Y159.916 E22.22152
G1 X113.038 Y159.782 E22.25155
G1 X112.16 Y159.57 E22.28159
G1 X111.305 Y159.281 E22.31161
G1 X110.478 Y158.918 E22.34165
G1 X109.408 Y158.307 E22.38263
G1 X108.743 Y157.872 E22.40906
G1 X108.22 Y157.518 E22.43007
G1 X106.085 Y156.151 E22.51439
G1 X103.89 Y154.834 E22.59952
G1 X101.694 Y153.596 E22.68337
G1 X99.422 Y152.4 E22.76877
G1 X97.154 Y151.289 E22.85277
G1 X94.865 Y150.245 E22.93644
G1 X92.137 Y149.099 E23.03486
G1 X91.692 Y148.919 E23.05082
G1 X90.871 Y148.544 E23.08084
G1 X90.085 Y148.098 E23.1109
G1 X89.343 Y147.584 E23.14092
G1 X88.648 Y147.007 E23.17097
G1 X88.008 Y146.37 E23.201
G1 X87.426 Y145.68 E23.23102
G1 X86.907 Y144.94 E23.26109
G1 X86.456 Y144.158 E23.29111
G1 X86.076 Y143.338 E23.32117
G1 X85.77 Y142.489 E23.35119
G1 X85.54 Y141.615 E23.38125
G1 X85.389 Y140.725 E23.41127
G1 X85.315 Y139.776 E23.44293
G1 X85.305 Y139.453 E23.45368
G1 X85.3 Y139.133 E23.46432
G1 X85.301 Y136.561 E23.54987
G1 X85.308 Y134.62 E23.61443
G1 X85.3 Y133.395 E23.65517
G1 X85.301 Y127.848 E23.83967
G1 X85.308 Y125.907 E23.90422
G1 X85.3 Y124.682 E23.94497
G1 X85.301 Y119.135 E24.12946
G1 X85.308 Y117.193 E24.19405
G1 X85.3 Y115.969 E24.23476
G1 X85.301 Y110.422 E24.41926
G1 X85.308 Y108.48 E24.48385
G1 X85.3 Y107.256 E24.52456
G1 X85.301 Y101.709 E24.70906
G1 X85.308 Y99.767 E24.77365
G1 X85.3 Y98.616 E24.81193
G1 X85.301 Y95.988 E24.89934
G1 X85.311 Y95.321 E24.92153
G1 X85.365 Y94.42 E24.95155
G1 X85.498 Y93.526 E24.98161
G1 X85.709 Y92.648 E25.01164
G1 X85.998 Y91.793 E25.04166
G1 X86.36 Y90.966 E25.07169
G1 X86.795 Y90.174 E25.10174
G1 X87.298 Y89.424 E25.13178
G1 X87.865 Y88.721 E25.16181
G1 X88.493 Y88.071 E25.19188
G1 F2700 E20.19188
G0 F6000 X116.303 Y89.045
G0 X116.744 Y89.189
G1 F2700 E25.19188
G1 F1200 X117.07 Y88.952 E25.20528
G1 X117.466 Y88.952 E25.21845
G1 X117.792 Y89.189 E25.23186
G1 X117.915 Y89.567 E25.24508
G1 X117.792 Y89.945 E25.2583
G1 X117.466 Y90.182 E25.27171
G1 X117.07 Y90.182 E25.28488
G1 X116.744 Y89.945 E25.29828
G1 X116.621 Y89.567 E25.3115
G1 X116.744 Y89.189 E25.32472
G0 F6000 X116.404 Y88.943
G1 F1200 X116.941 Y88.552 E25.34682
G1 X117.595 Y88.552 E25.36857
G1 X118.132 Y88.943 E25.39066
