;FLAVOR:Marlin
;TIME:8953
;Filament used: 5.51431m
;Layer height: 0.2
;MINX:87.7
;MINY:87.667
;MINZ:0.2
;MAXX:147.3
;MAXY:147.267
;MAXZ:45
;Generated with Cura_SteamEngine 4.11.0
M140 S57
M105
M190 S57
M104 S208
M105
M109 S208
M82 ;absolute extrusion mode
; Ender 3 Custom Start G-code
G92 E0 ; Reset Extruder
G28 ; Home all axes
G1 Z2.0 F3000 ; Move Z Axis up little to prevent scratching of Heat Bed
G1 X0.1 Y20 Z0.3 F5000.0 ; Move to start position
G1 X0.1 Y200.0 Z0.3 F1500.0 E15 ; Draw the first line
G1 X0.4 Y200.0 Z0.3 F5000.0 ; Move to side a little
G1 X0.4 Y20 Z0.3 F1500.0 E30 ; Draw the second line
G92 E0 ; Reset Extruder
G1 Z2.0 F3000 ; Move Z Axis up little to prevent scratching of Heat Bed
G1 X5 Y20 Z0.3 F5000.0 ; Move over to prevent blob squish
G92 E0
G92 E0
G1 F2700 E-5
;LAYER_COUNT:225
;LAYER:0
M107
G0 F6000 X89.985 Y90.069 Z0.2
;TYPE:SKIRT
G1 F2700 E0
G1 F1200 X90.102 Y89.952 E0.0055
G1 X90.688 Y89.422 E0.03178
G1 X91.324 Y88.955 E0.05803
G1 X92.004 Y88.554 E0.08428
G1 X92.722 Y88.224 E0.11057
G1 X93.469 Y87.969 E0.13682
G1 X94.238 Y87.79 E0.16308
G1 X95.022 Y87.69 E0.18937
G1 X95.617 Y87.667 E0.20917
G1 X139.383 Y87.667 E1.66483
G1 X140.172 Y87.707 E1.69111
G1 X140.952 Y87.826 E1.71735
G1 X141.717 Y88.024 E1.74364
G1 X142.457 Y88.298 E1.76988
G1 X143.166 Y88.646 E1.79615
G1 X143.837 Y89.064 E1.82244
G1 X144.461 Y89.547 E1.84869
G1 X144.898 Y89.952 E1.86851
G1 X145.015 Y90.069 E1.87401
G1 X145.545 Y90.655 E1.90029
G1 X146.012 Y91.291 E1.92653
G1 X146.413 Y91.971 E1.95279
G1 X146.743 Y92.689 E1.97907
G1 X146.998 Y93.436 E2.00532
G1 X147.177 Y94.205 E2.03159
G1 X147.277 Y94.989 E2.05787
G1 X147.3 Y95.584 E2.07768
G1 X147.3 Y98.835 E2.18581
G1 X147.26 Y99.624 E2.21208
G1 X147.198 Y100.031 E2.22577
G1 X147.277 Y100.652 E2.2466
G1 X147.3 Y101.247 E2.2664
G1 X147.3 Y107.548 E2.47597
G1 X147.26 Y108.337 E2.50225
G1 X147.198 Y108.744 E2.51594
G1 X147.277 Y109.365 E2.53676
G1 X147.3 Y109.96 E2.55657
G1 X147.3 Y116.261 E2.76614
G1 X147.26 Y117.05 E2.79241
G1 X147.198 Y117.457 E2.80611
G1 X147.277 Y118.078 E2.82693
G1 X147.3 Y118.673 E2.84673
G1 X147.3 Y124.973 E3.05627
G1 X147.26 Y125.762 E3.08255
G1 X147.198 Y126.17 E3.09627
G1 X147.277 Y126.791 E3.1171
G1 X147.3 Y127.386 E3.1369
G1 X147.3 Y133.686 E3.34644
G1 X147.26 Y134.475 E3.37271
G1 X147.198 Y134.883 E3.38644
G1 X147.277 Y135.504 E3.40726
G1 X147.3 Y136.099 E3.42707
G1 X147.3 Y139.35 E3.53519
G1 X147.26 Y140.139 E3.56147
G1 X147.141 Y140.919 E3.58771
G1 X146.943 Y141.684 E3.614
G1 X146.669 Y142.424 E3.64024
G1 X146.321 Y143.133 E3.66651
G1 X145.903 Y143.804 E3.6928
G1 X145.42 Y144.428 E3.71905
G1 X145.015 Y144.865 E3.73887
G1 X144.898 Y144.982 E3.74437
G1 X144.312 Y145.512 E3.77065
G1 X143.676 Y145.979 E3.79689
G1 X142.996 Y146.38 E3.82315
G1 X142.278 Y146.71 E3.84943
G1 X141.531 Y146.965 E3.87568
G1 X140.762 Y147.144 E3.90195
G1 X139.978 Y147.244 E3.92823
G1 X139.383 Y147.267 E3.94804
G1 X95.617 Y147.267 E5.4037
G1 X94.828 Y147.227 E5.42998
G1 X94.048 Y147.108 E5.45622
G1 X93.283 Y146.91 E5.4825
G1 X92.543 Y146.636 E5.50875
G1 X91.834 Y146.288 E5.53502
G1 X91.163 Y145.87 E5.56131
G1 X90.539 Y145.387 E5.58756
G1 X90.102 Y144.982 E5.60737
G1 X89.985 Y144.865 E5.61288
G1 X89.455 Y144.279 E5.63916
G1 X88.988 Y143.643 E5.6654
G1 X88.587 Y142.963 E5.69166
G1 X88.257 Y142.245 E5.71794
G1 X88.002 Y141.498 E5.74419
G1 X87.823 Y140.729 E5.77045
G1 X87.723 Y139.945 E5.79674
G1 X87.7 Y139.35 E5.81654
G1 X87.7 Y136.099 E5.92467
G1 X87.74 Y135.31 E5.95095
G1 X87.802 Y134.902 E5.96467
G1 X87.723 Y134.281 E5.98549
G1 X87.7 Y133.686 E6.0053
G1 X87.7 Y127.386 E6.21484
G1 X87.74 Y126.597 E6.24111
G1 X87.802 Y126.189 E6.25484
G1 X87.723 Y125.568 E6.27566
G1 X87.7 Y124.973 E6.29547
G1 X87.7 Y118.673 E6.505
G1 X87.74 Y117.884 E6.53128
G1 X87.802 Y117.477 E6.54497
G1 X87.723 Y116.856 E6.56579
G1 X87.7 Y116.261 E6.5856
G1 X87.7 Y109.96 E6.79517
G1 X87.74 Y109.171 E6.82145
G1 X87.802 Y108.764 E6.83514
G1 X87.723 Y108.143 E6.85596
G1 X87.7 Y107.548 E6.87577
G1 X87.7 Y101.247 E7.08534
G1 X87.74 Y100.458 E7.11161
G1 X87.802 Y100.051 E7.12531
G1 X87.723 Y99.43 E7.14613
G1 X87.7 Y98.835 E7.16593
G1 X87.7 Y95.584 E7.27406
G1 X87.74 Y94.795 E7.30034
G1 X87.859 Y94.015 E7.32658
G1 X88.057 Y93.25 E7.35286
G1 X88.331 Y92.51 E7.37911
G1 X88.679 Y91.801 E7.40538
G1 X89.097 Y91.13 E7.43167
G1 X89.58 Y90.506 E7.45792
G1 X89.985 Y90.069 E7.47773
G0 F6000 X90.267 Y90.351
G1 F1200 X90.384 Y90.234 E7.48324
G1 X90.956 Y89.72 E7.50881
G1 X91.578 Y89.267 E7.53441
G1 X92.243 Y88.881 E7.55998
G1 X92.945 Y88.566 E7.58557
G1 X93.676 Y88.326 E7.61116
G1 X94.427 Y88.163 E7.63672
G1 X95.192 Y88.079 E7.66232
G1 X95.617 Y88.067 E7.67646
G1 X139.383 Y88.067 E9.13212
G1 X140.151 Y88.107 E9.1577
G1 X140.911 Y88.226 E9.18329
G1 X141.654 Y88.424 E9.20886
G1 X142.373 Y88.698 E9.23445
G1 X143.059 Y89.045 E9.26002
G1 X143.706 Y89.461 E9.28561
G1 X144.306 Y89.942 E9.31118
G1 X144.616 Y90.234 E9.32535
G1 X144.733 Y90.351 E9.33085
G1 X145.247 Y90.923 E9.35643
G1 X145.7 Y91.545 E9.38202
G1 X146.086 Y92.21 E9.4076
G1 X146.401 Y92.912 E9.43319
G1 X146.641 Y93.643 E9.45878
G1 X146.804 Y94.394 E9.48434
G1 X146.888 Y95.159 E9.50993
G1 X146.9 Y95.584 E9.52408
G1 X146.9 Y98.835 E9.6322
G1 X146.86 Y99.603 E9.65778
G1 X146.795 Y100.017 E9.67172
G1 X146.804 Y100.057 E9.67308
G1 X146.888 Y100.822 E9.69868
G1 X146.9 Y101.247 E9.71282
G1 X146.9 Y107.548 E9.92239
G1 X146.86 Y108.316 E9.94797
G1 X146.795 Y108.73 E9.96191
G1 X146.804 Y108.77 E9.96328
G1 X146.888 Y109.535 E9.98887
G1 X146.9 Y109.96 E10.00301
G1 X146.9 Y116.261 E10.21259
G1 X146.86 Y117.029 E10.23816
G1 X146.795 Y117.443 E10.2521
G1 X146.804 Y117.483 E10.25347
G1 X146.888 Y118.248 E10.27906
G1 X146.9 Y118.673 E10.2932
G1 X146.9 Y124.973 E10.50274
G1 X146.86 Y125.741 E10.52832
G1 X146.795 Y126.155 E10.54226
G1 X146.804 Y126.196 E10.54366
G1 X146.888 Y126.961 E10.56925
G1 X146.9 Y127.386 E10.58339
G1 X146.9 Y133.686 E10.79293
G1 X146.86 Y134.454 E10.81851
G1 X146.795 Y134.868 E10.83245
G1 X146.804 Y134.909 E10.83385
G1 X146.888 Y135.674 E10.85944
G1 X146.9 Y136.099 E10.87358
G1 X146.9 Y139.35 E10.98171
G1 X146.86 Y140.118 E11.00729
G1 X146.741 Y140.878 E11.03288
G1 X146.543 Y141.621 E11.05845
G1 X146.269 Y142.34 E11.08404
G1 X145.922 Y143.026 E11.10961
G1 X145.506 Y143.673 E11.1352
G1 X145.025 Y144.273 E11.16077
G1 X144.733 Y144.583 E11.17494
G1 X144.616 Y144.7 E11.18044
G1 X144.044 Y145.214 E11.20602
G1 X143.422 Y145.667 E11.23161
G1 X142.757 Y146.053 E11.25719
G1 X142.055 Y146.368 E11.28278
G1 X141.324 Y146.608 E11.30837
G1 X140.573 Y146.771 E11.33393
G1 X139.808 Y146.855 E11.35952
G1 X139.383 Y146.867 E11.37366
G1 X95.617 Y146.867 E12.82933
G1 X94.849 Y146.827 E12.85491
G1 X94.089 Y146.708 E12.88049
G1 X93.346 Y146.51 E12.90607
G1 X92.627 Y146.236 E12.93166
G1 X91.941 Y145.889 E12.95723
G1 X91.294 Y145.473 E12.98281
G1 X90.694 Y144.992 E13.00839
G1 X90.384 Y144.7 E13.02255
G1 X90.267 Y144.583 E13.02806
G1 X89.753 Y144.011 E13.05363
G1 X89.3 Y143.389 E13.07923
G1 X88.914 Y142.724 E13.1048
G1 X88.599 Y142.022 E13.13039
G1 X88.359 Y141.291 E13.15598
G1 X88.196 Y140.54 E13.18154
G1 X88.112 Y139.775 E13.20714
G1 X88.1 Y139.35 E13.22128
G1 X88.1 Y136.099 E13.32941
G1 X88.14 Y135.331 E13.35499
G1 X88.205 Y134.917 E13.36893
G1 X88.196 Y134.876 E13.37032
G1 X88.112 Y134.111 E13.39592
G1 X88.1 Y133.686 E13.41006
G1 X88.1 Y127.386 E13.6196
G1 X88.14 Y126.618 E13.64518
G1 X88.205 Y126.204 E13.65912
G1 X88.196 Y126.163 E13.66051
G1 X88.112 Y125.398 E13.68611
G1 X88.1 Y124.973 E13.70025
G1 X88.1 Y118.673 E13.90979
G1 X88.14 Y117.905 E13.93537
G1 X88.205 Y117.491 E13.94931
G1 X88.196 Y117.451 E13.95067
G1 X88.112 Y116.686 E13.97627
G1 X88.1 Y116.261 E13.99041
G1 X88.1 Y109.96 E14.19998
G1 X88.14 Y109.192 E14.22556
G1 X88.205 Y108.778 E14.2395
G1 X88.196 Y108.738 E14.24086
G1 X88.112 Y107.973 E14.26646
G1 X88.1 Y107.548 E14.2806
G1 X88.1 Y101.247 E14.49017
G1 X88.14 Y100.479 E14.51575
G1 X88.205 Y100.065 E14.52969
G1 X88.196 Y100.025 E14.53105
G1 X88.112 Y99.26 E14.55665
G1 X88.1 Y98.835 E14.57079
G1 X88.1 Y95.584 E14.67892
G1 X88.14 Y94.816 E14.7045
G1 X88.259 Y94.056 E14.73008
G1 X88.457 Y93.313 E14.75566
G1 X88.731 Y92.594 E14.78125
G1 X89.078 Y91.908 E14.80682
G1 X89.494 Y91.261 E14.8324
G1 X89.975 Y90.661 E14.85798
G1 X90.267 Y90.351 E14.87214
G0 F6000 X90.55 Y90.634
G1 F1200 X90.667 Y90.517 E14.87765
G1 X91.224 Y90.017 E14.90254
G1 X91.83 Y89.58 E14.92739
G1 X92.48 Y89.209 E14.95228
G1 X93.166 Y88.91 E14.97717
G1 X93.88 Y88.686 E15.00206
G1 X94.613 Y88.539 E15.02693
G1 X95.617 Y88.467 E15.06041
G1 X139.383 Y88.467 E16.51607
G1 X140.13 Y88.507 E16.54095
G1 X140.868 Y88.626 E16.56581
G1 X141.59 Y88.824 E16.59071
G1 X142.286 Y89.097 E16.61558
G1 X142.949 Y89.444 E16.64047
G1 X143.572 Y89.859 E16.66537
G1 X144.333 Y90.517 E16.69883
G1 X144.45 Y90.634 E16.70433
G1 X144.95 Y91.191 E16.72922
G1 X145.387 Y91.797 E16.75407
G1 X145.758 Y92.447 E16.77897
G1 X146.057 Y93.133 E16.80386
G1 X146.281 Y93.847 E16.82875
G1 X146.428 Y94.58 E16.85361
G1 X146.5 Y95.584 E16.88709
G1 X146.5 Y98.835 E16.99522
G1 X146.46 Y99.582 E17.0201
G1 X146.387 Y100.037 E17.03543
G1 X146.428 Y100.243 E17.04241
G1 X146.5 Y101.247 E17.07589
G1 X146.5 Y107.548 E17.28546
G1 X146.46 Y108.295 E17.31034
G1 X146.387 Y108.75 E17.32567
G1 X146.428 Y108.956 E17.33266
G1 X146.5 Y109.96 E17.36614
G1 X146.5 Y116.261 E17.57571
G1 X146.46 Y117.008 E17.60059
G1 X146.387 Y117.463 E17.61592
G1 X146.428 Y117.669 E17.6229
G1 X146.5 Y118.673 E17.65638
G1 X146.5 Y124.973 E17.86592
G1 X146.46 Y125.72 E17.8908
G1 X146.387 Y126.175 E17.90613
G1 X146.428 Y126.382 E17.91315
G1 X146.5 Y127.386 E17.94662
G1 X146.5 Y133.686 E18.15616
G1 X146.46 Y134.433 E18.18104
G1 X146.387 Y134.888 E18.19637
G1 X146.428 Y135.095 E18.20339
G1 X146.5 Y136.099 E18.23687
G1 X146.5 Y139.35 E18.345
G1 X146.46 Y140.097 E18.36988
G1 X146.341 Y140.835 E18.39474
G1 X146.143 Y141.557 E18.41964
G1 X145.87 Y142.253 E18.44451
G1 X145.523 Y142.916 E18.4694
G1 X145.108 Y143.539 E18.49429
G1 X144.45 Y144.3 E18.52776
G1 X144.333 Y144.417 E18.53326
G1 X143.776 Y144.917 E18.55815
G1 X143.17 Y145.354 E18.583
G1 X142.52 Y145.725 E18.6079
G1 X141.834 Y146.024 E18.63279
G1 X141.12 Y146.248 E18.65767
G1 X140.387 Y146.395 E18.68254
G1 X139.383 Y146.467 E18.71602
G1 X95.617 Y146.467 E20.17168
G1 X94.87 Y146.427 E20.19656
G1 X94.132 Y146.308 E20.22143
G1 X93.41 Y146.11 E20.24633
G1 X92.714 Y145.837 E20.27119
G1 X92.051 Y145.49 E20.29608
G1 X91.428 Y145.075 E20.32098
G1 X90.667 Y144.417 E20.35444
G1 X90.55 Y144.3 E20.35994
G1 X90.05 Y143.743 E20.38484
G1 X89.613 Y143.137 E20.40969
G1 X89.242 Y142.487 E20.43458
G1 X88.943 Y141.801 E20.45947
G1 X88.719 Y141.087 E20.48436
G1 X88.572 Y140.354 E20.50922
G1 X88.5 Y139.35 E20.5427
G1 X88.5 Y136.099 E20.65083
G1 X88.54 Y135.352 E20.67571
G1 X88.613 Y134.897 E20.69104
G1 X88.572 Y134.69 E20.69806
G1 X88.5 Y133.686 E20.73154
G1 X88.5 Y127.386 E20.94108
G1 X88.54 Y126.639 E20.96596
G1 X88.613 Y126.184 E20.98128
G1 X88.572 Y125.977 E20.9883
G1 X88.5 Y124.973 E21.02178
G1 X88.5 Y118.673 E21.23132
G1 X88.54 Y117.926 E21.2562
G1 X88.613 Y117.471 E21.27153
G1 X88.572 Y117.265 E21.27851
G1 X88.5 Y116.261 E21.31199
G1 X88.5 Y109.96 E21.52156
G1 X88.54 Y109.213 E21.54645
G1 X88.613 Y108.758 E21.56177
G1 X88.572 Y108.552 E21.56876
G1 X88.5 Y107.548 E21.60224
G1 X88.5 Y101.247 E21.81181
G1 X88.54 Y100.5 E21.83669
G1 X88.613 Y100.045 E21.85202
G1 X88.572 Y99.839 E21.859
G1 X88.5 Y98.835 E21.89248
G1 X88.5 Y95.584 E22.00061
G1 X88.54 Y94.837 E22.02549
G1 X88.659 Y94.099 E22.05035
G1 X88.857 Y93.377 E22.07526
G1 X89.13 Y92.681 E22.10012
G1 X89.477 Y92.018 E22.12501
G1 X89.892 Y91.395 E22.14991
G1 X90.55 Y90.634 E22.18337
G0 F6000 X90.833 Y90.917
G1 F1200 X90.95 Y90.8 E22.18887
G1 X91.491 Y90.316 E22.21302
G1 X92.082 Y89.893 E22.23719
G1 X92.716 Y89.539 E22.26134
G1 X93.385 Y89.256 E22.2855
G1 X94.081 Y89.048 E22.30966
G1 X94.796 Y88.918 E22.33383
G1 X95.617 Y88.867 E22.36119
G1 X139.383 Y88.867 E23.81685
G1 X140.108 Y88.907 E23.841
G1 X140.825 Y89.026 E23.86518
G1 X141.524 Y89.224 E23.88934
G1 X142.197 Y89.497 E23.9135
G1 X142.836 Y89.842 E23.93765
G1 X143.433 Y90.256 E23.96181
G1 X144.05 Y90.8 E23.98917
G1 X144.167 Y90.917 E23.99468
G1 X144.651 Y91.458 E24.01882
G1 X145.074 Y92.049 E24.04299
G1 X145.428 Y92.683 E24.06714
G1 X145.711 Y93.352 E24.0913
G1 X145.919 Y94.048 E24.11546
G1 X146.049 Y94.763 E24.13964
G1 X146.1 Y95.584 E24.16699
G1 X146.1 Y98.835 E24.27512
G1 X146.06 Y99.56 E24.29927
G1 X145.98 Y100.044 E24.31559
G1 X146.049 Y100.426 E24.3285
G1 X146.1 Y101.247 E24.35586
G1 X146.1 Y107.548 E24.56543
G1 X146.06 Y108.273 E24.58958
G1 X145.98 Y108.757 E24.6059
G1 X146.049 Y109.139 E24.61881
G1 X146.1 Y109.96 E24.64617
G1 X146.1 Y116.261 E24.85574
G1 X146.06 Y116.986 E24.87989
G1 X145.98 Y117.47 E24.89621
G1 X146.049 Y117.852 E24.90912
G1 X146.1 Y118.673 E24.93648
G1 X146.1 Y124.973 E25.14602
G1 X146.06 Y125.698 E25.17017
G1 X145.98 Y126.183 E25.18652
G1 X146.049 Y126.565 E25.19943
G1 X146.1 Y127.386 E25.22679
G1 X146.1 Y133.686 E25.43632
G1 X146.06 Y134.411 E25.46048
G1 X145.98 Y134.896 E25.47682
G1 X146.049 Y135.278 E25.48974
G1 X146.1 Y136.099 E25.51709
G1 X146.1 Y139.35 E25.62522
G1 X146.06 Y140.075 E25.64937
G1 X145.941 Y140.792 E25.67355
G1 X145.743 Y141.491 E25.69771
G1 X145.47 Y142.164 E25.72187
G1 X145.125 Y142.803 E25.74602
G1 X144.711 Y143.4 E25.77018
G1 X144.167 Y144.017 E25.79754
G1 X144.05 Y144.134 E25.80305
G1 X143.509 Y144.618 E25.82719
G1 X142.918 Y145.041 E25.85136
G1 X142.284 Y145.395 E25.87551
G1 X141.615 Y145.678 E25.89967
G1 X140.919 Y145.886 E25.92383
G1 X140.204 Y146.016 E25.948
G1 X139.383 Y146.067 E25.97536
G1 X95.617 Y146.067 E27.43103
G1 X94.892 Y146.027 E27.45518
G1 X94.175 Y145.908 E27.47935
G1 X93.476 Y145.71 E27.50351
G1 X92.803 Y145.437 E27.52767
G1 X92.164 Y145.092 E27.55182
G1 X91.567 Y144.678 E27.57599
G1 X90.95 Y144.134 E27.60335
G1 X90.833 Y144.017 E27.60885
G1 X90.349 Y143.476 E27.63299
G1 X89.926 Y142.885 E27.65717
G1 X89.572 Y142.251 E27.68132
G1 X89.289 Y141.582 E27.70548
G1 X89.081 Y140.886 E27.72964
G1 X88.951 Y140.171 E27.75381
G1 X88.9 Y139.35 E27.78117
G1 X88.9 Y136.099 E27.8893
G1 X88.94 Y135.374 E27.91345
G1 X89.02 Y134.889 E27.9298
G1 X88.951 Y134.507 E27.94271
G1 X88.9 Y133.686 E27.97007
G1 X88.9 Y127.386 E28.1796
G1 X88.94 Y126.661 E28.20375
G1 X89.02 Y126.176 E28.2201
G1 X88.951 Y125.794 E28.23301
G1 X88.9 Y124.973 E28.26037
G1 X88.9 Y118.673 E28.46991
G1 X88.94 Y117.948 E28.49406
G1 X89.02 Y117.464 E28.51038
G1 X88.951 Y117.082 E28.52329
G1 X88.9 Y116.261 E28.55065
G1 X88.9 Y109.96 E28.76022
G1 X88.94 Y109.235 E28.78437
G1 X89.02 Y108.751 E28.80069
G1 X88.951 Y108.369 E28.8136
G1 X88.9 Y107.548 E28.84096
G1 X88.9 Y101.247 E29.05053
G1 X88.94 Y100.522 E29.07468
G1 X89.02 Y100.038 E29.091
G1 X88.951 Y99.656 E29.10391
G1 X88.9 Y98.835 E29.13127
G1 X88.9 Y95.584 E29.2394
G1 X88.94 Y94.859 E29.26355
G1 X89.059 Y94.142 E29.28772
G1 X89.257 Y93.443 E29.31188
G1 X89.53 Y92.77 E29.33604
G1 X89.875 Y92.131 E29.36019
G1 X90.289 Y91.534 E29.38436
G1 X90.833 Y90.917 E29.41171
G0 F6000 X91.116 Y91.2
G1 F1200 X91.233 Y91.083 E29.41722
G1 X91.758 Y90.614 E29.44063
G1 X92.333 Y90.208 E29.46404
G1 X92.951 Y89.87 E29.48747
G1 X93.602 Y89.603 E29.51087
G1 X94.28 Y89.413 E29.53429
G1 X94.975 Y89.3 E29.55771
G1 X95.617 Y89.267 E29.57909
G1 X139.383 Y89.267 E31.03476
G1 X140.086 Y89.307 E31.05818
G1 X140.78 Y89.426 E31.0816
G1 X141.455 Y89.624 E31.10499
G1 X142.104 Y89.896 E31.1284
G1 X142.718 Y90.241 E31.15182
G1 X143.289 Y90.652 E31.17522
G1 X143.767 Y91.083 E31.19663
G1 X143.884 Y91.2 E31.20213
G1 X144.353 Y91.725 E31.22555
G1 X144.759 Y92.3 E31.24896
G1 X145.097 Y92.918 E31.27239
G1 X145.364 Y93.569 E31.29579
G1 X145.554 Y94.247 E31.31921
G1 X145.667 Y94.942 E31.34263
G1 X145.7 Y95.584 E31.36401
G1 X145.7 Y98.835 E31.47214
G1 X145.66 Y99.538 E31.49556
G1 X145.575 Y100.036 E31.51236
G1 X145.667 Y100.605 E31.53153
G1 X145.7 Y101.247 E31.55291
G1 X145.7 Y107.548 E31.76248
G1 X145.66 Y108.251 E31.7859
G1 X145.575 Y108.749 E31.80271
G1 X145.667 Y109.318 E31.82188
G1 X145.7 Y109.96 E31.84326
