;FLAVOR:Marlin
;TIME:6024
;Filament used: 5.38766m
;Layer height: 0.2
;MINX:84.5
;MINY:84.467
;MINZ:0.2
;MAXX:150.5
;MAXY:150.467
;MAXZ:45
;Generated with Cura_SteamEngine 4.11.0
M140 S65
M105
M190 S65
M104 S225
M105
M109 S225
M82 ;absolute extrusion mode
; Ender 3 Custom Start G-code
G92 E0 ; Reset Extruder
G28 ; Home all axes
G1 Z2.0 F3000 ; Move Z Axis up little to prevent scratching of Heat Bed
G1 X0.1 Y20 Z0.3 F5000.0 ; Move to start position
G1 X0.1 Y200.0 Z0.3 F1500.0 E15 ; Draw the first line
G1 X0.4 Y200.0 Z0.3 F5000.0 ; Move to side a little
G1 X0.4 Y20 Z0.3 F1500.0 E30 ; Draw the second line
G92 E0 ; Reset Extruder
G1 Z2.0 F3000 ; Move Z Axis up little to prevent scratching of Heat Bed
G1 X5 Y20 Z0.3 F5000.0 ; Move over to prevent blob squish
G92 E0
G92 E0
G1 F2700 E-4
;LAYER_COUNT:225
;LAYER:0
M107
G0 F6000 X87.698 Y87.731 Z0.2
;TYPE:SKIRT
G1 F2700 E0
G1 F1200 X88.386 Y87.094 E0.03119
G1 X89.126 Y86.518 E0.06237
G1 X89.912 Y86.006 E0.09357
G1 X90.739 Y85.564 E0.12476
G1 X91.601 Y85.194 E0.15596
G1 X92.491 Y84.898 E0.18716
G1 X93.403 Y84.68 E0.21835
G1 X94.33 Y84.539 E0.24953
G1 X95.201 Y84.48 E0.27857
G1 X95.522 Y84.471 E0.28925
G1 X95.83 Y84.467 E0.29949
G1 X138.793 Y84.467 E1.72845
G1 X139.649 Y84.478 E1.75692
G1 X140.585 Y84.532 E1.78811
G1 X141.513 Y84.664 E1.81928
G1 X142.427 Y84.876 E1.85049
G1 X143.319 Y85.165 E1.88168
G1 X144.184 Y85.528 E1.91288
G1 X145.014 Y85.964 E1.94406
G1 X145.805 Y86.469 E1.97527
G1 X146.549 Y87.04 E2.00647
G1 X147.242 Y87.672 E2.03766
G1 X147.879 Y88.36 E2.06885
G1 X148.454 Y89.101 E2.10004
G1 X148.965 Y89.887 E2.13122
G1 X149.407 Y90.715 E2.16244
G1 X149.776 Y91.577 E2.19363
G1 X150.071 Y92.467 E2.22481
G1 X150.289 Y93.379 E2.256
G1 X150.429 Y94.307 E2.28721
G1 X150.487 Y95.168 E2.31592
G1 X150.496 Y95.488 E2.32656
G1 X150.5 Y95.801 E2.33697
G1 X150.499 Y98.376 E2.42262
G1 X150.492 Y100.31 E2.48695
G1 X150.5 Y101.539 E2.52782
G1 X150.499 Y107.089 E2.71242
G1 X150.492 Y109.023 E2.77674
G1 X150.5 Y110.252 E2.81762
G1 X150.499 Y115.802 E3.00221
G1 X150.492 Y117.736 E3.06654
G1 X150.5 Y118.965 E3.10742
G1 X150.499 Y124.514 E3.29198
G1 X150.492 Y126.447 E3.35627
G1 X150.5 Y127.677 E3.39718
G1 X150.499 Y133.227 E3.58177
G1 X150.492 Y135.16 E3.64607
G1 X150.5 Y136.312 E3.68438
G1 X150.499 Y138.867 E3.76936
G1 X150.49 Y139.594 E3.79354
G1 X150.439 Y140.531 E3.82476
G1 X150.307 Y141.459 E3.85593
G1 X150.098 Y142.373 E3.88712
G1 X149.811 Y143.266 E3.91831
G1 X149.449 Y144.132 E3.94953
G1 X149.015 Y144.963 E3.98071
G1 X148.511 Y145.754 E4.01191
G1 X147.942 Y146.499 E4.04309
G1 X147.311 Y147.194 E4.07431
G1 X146.624 Y147.832 E4.10549
G1 X145.885 Y148.409 E4.13668
G1 X145.099 Y148.921 E4.16788
G1 X144.273 Y149.364 E4.19905
G1 X143.411 Y149.736 E4.23028
G1 X142.522 Y150.032 E4.26144
G1 X141.61 Y150.252 E4.29264
G1 X140.683 Y150.393 E4.32383
G1 X139.799 Y150.454 E4.3533
G1 X139.478 Y150.463 E4.36398
G1 X139.17 Y150.467 E4.37423
G1 X96.065 Y150.466 E5.80791
G1 X95.367 Y150.457 E5.83112
G1 X94.431 Y150.405 E5.8623
G1 X93.502 Y150.273 E5.89351
G1 X92.588 Y150.063 E5.92471
G1 X91.695 Y149.776 E5.9559
G1 X90.83 Y149.413 E5.9871
G1 X89.999 Y148.979 E6.01829
G1 X89.208 Y148.475 E6.04948
G1 X88.463 Y147.905 E6.08068
G1 X87.769 Y147.274 E6.11188
G1 X87.132 Y146.587 E6.14304
G1 X86.555 Y145.847 E6.17425
G1 X86.043 Y145.061 E6.20545
G1 X85.6 Y144.234 E6.23665
G1 X85.229 Y143.373 E6.26783
G1 X84.933 Y142.483 E6.29903
G1 X84.714 Y141.571 E6.33023
G1 X84.573 Y140.644 E6.36141
G1 X84.513 Y139.755 E6.39105
G1 X84.504 Y139.422 E6.40213
G1 X84.5 Y139.121 E6.41214
G1 X84.501 Y136.558 E6.49739
G1 X84.508 Y134.625 E6.56168
G1 X84.5 Y133.395 E6.60259
G1 X84.501 Y127.845 E6.78718
G1 X84.508 Y125.912 E6.85147
G1 X84.5 Y124.682 E6.89238
G1 X84.501 Y119.132 E7.07698
G1 X84.508 Y117.198 E7.1413
G1 X84.5 Y115.969 E7.18218
G1 X84.501 Y110.419 E7.36678
G1 X84.508 Y108.485 E7.4311
G1 X84.5 Y107.256 E7.47198
G1 X84.501 Y101.706 E7.65657
G1 X84.508 Y99.772 E7.7209
G1 X84.5 Y98.621 E7.75918
G1 X84.501 Y95.992 E7.84662
G1 X84.51 Y95.327 E7.86874
G1 X84.563 Y94.391 E7.89992
G1 X84.695 Y93.462 E7.93113
G1 X84.906 Y92.548 E7.96233
G1 X85.194 Y91.656 E7.99351
G1 X85.557 Y90.791 E8.02471
G1 X85.992 Y89.96 E8.05591
G1 X86.496 Y89.17 E8.08707
G1 X87.066 Y88.425 E8.11827
G1 X87.698 Y87.731 E8.14949
G0 F6000 X88.089 Y87.906
G1 F1200 X88.774 Y87.29 E8.18013
G1 X89.51 Y86.737 E8.21075
G1 X90.291 Y86.249 E8.24138
G1 X91.111 Y85.831 E8.27199
G1 X91.965 Y85.486 E8.30263
G1 X92.845 Y85.216 E8.33324
G1 X93.745 Y85.024 E8.36385
G1 X94.659 Y84.91 E8.39449
G1 X95.212 Y84.88 E8.41291
G1 X95.533 Y84.871 E8.42359
G1 X95.83 Y84.867 E8.43347
G1 X138.793 Y84.867 E9.86242
G1 X139.643 Y84.878 E9.8907
G1 X140.562 Y84.931 E9.92131
G1 X141.473 Y85.064 E9.95193
G1 X142.369 Y85.275 E9.98255
G1 X143.243 Y85.563 E10.01316
G1 X144.09 Y85.926 E10.04381
G1 X144.901 Y86.361 E10.07442
G1 X145.671 Y86.865 E10.10502
G1 X146.395 Y87.434 E10.13565
G1 X147.067 Y88.064 E10.16629
G1 X147.682 Y88.749 E10.19691
G1 X148.235 Y89.485 E10.22753
G1 X148.722 Y90.266 E10.25814
G1 X149.139 Y91.087 E10.28877
G1 X149.484 Y91.941 E10.3194
G1 X149.753 Y92.821 E10.35001
G1 X149.945 Y93.722 E10.38065
G1 X150.058 Y94.635 E10.41124
G1 X150.087 Y95.179 E10.42936
G1 X150.096 Y95.499 E10.44001
G1 X150.1 Y95.801 E10.45006
G1 X150.099 Y98.374 E10.53563
G1 X150.092 Y100.312 E10.60009
G1 X150.1 Y101.539 E10.6409
G1 X150.099 Y107.087 E10.82543
G1 X150.092 Y109.025 E10.88989
G1 X150.1 Y110.252 E10.9307
G1 X150.099 Y115.8 E11.11523
G1 X150.092 Y117.738 E11.17969
G1 X150.1 Y118.965 E11.2205
G1 X150.099 Y124.512 E11.40499
G1 X150.092 Y126.449 E11.46942
G1 X150.1 Y127.677 E11.51026
G1 X150.099 Y133.225 E11.69479
G1 X150.092 Y135.162 E11.75921
G1 X150.1 Y136.314 E11.79753
G1 X150.099 Y138.862 E11.88228
G1 X150.09 Y139.589 E11.90646
G1 X150.039 Y140.508 E11.93707
G1 X149.908 Y141.42 E11.96772
G1 X149.698 Y142.316 E11.99833
G1 X149.412 Y143.191 E12.02894
G1 X149.051 Y144.038 E12.05957
G1 X148.617 Y144.85 E12.09019
G1 X148.115 Y145.622 E12.12082
G1 X147.547 Y146.347 E12.15145
G1 X146.919 Y147.02 E12.18207
G1 X146.235 Y147.636 E12.21268
G1 X145.5 Y148.19 E12.24329
G1 X144.72 Y148.679 E12.27391
G1 X143.9 Y149.098 E12.30454
G1 X143.047 Y149.444 E12.33516
G1 X142.167 Y149.715 E12.36578
G1 X141.267 Y149.908 E12.3964
G1 X140.353 Y150.023 E12.42704
G1 X139.788 Y150.054 E12.44586
G1 X139.467 Y150.063 E12.45654
G1 X139.17 Y150.067 E12.46642
G1 X96.07 Y150.066 E13.89993
G1 X95.372 Y150.057 E13.92315
G1 X94.453 Y150.005 E13.95376
G1 X93.542 Y149.874 E13.98437
G1 X92.646 Y149.664 E14.01498
G1 X91.771 Y149.377 E14.04561
G1 X90.924 Y149.015 E14.07625
G1 X90.112 Y148.581 E14.10687
G1 X89.341 Y148.079 E14.13747
G1 X88.616 Y147.511 E14.1681
G1 X87.943 Y146.882 E14.19874
G1 X87.328 Y146.198 E14.22933
G1 X86.774 Y145.463 E14.25995
G1 X86.286 Y144.682 E14.29058
G1 X85.867 Y143.862 E14.3212
G1 X85.521 Y143.009 E14.35182
G1 X85.251 Y142.129 E14.38244
G1 X85.058 Y141.228 E14.41308
G1 X84.944 Y140.315 E14.44369
G1 X84.913 Y139.744 E14.46271
G1 X84.904 Y139.411 E14.47378
G1 X84.9 Y139.121 E14.48343
G1 X84.901 Y136.56 E14.56861
G1 X84.908 Y134.623 E14.63304
G1 X84.9 Y133.395 E14.67388
G1 X84.901 Y127.847 E14.85841
G1 X84.908 Y125.91 E14.92283
G1 X84.9 Y124.682 E14.96368
G1 X84.901 Y119.134 E15.1482
G1 X84.908 Y117.196 E15.21266
G1 X84.9 Y115.969 E15.25347
G1 X84.901 Y110.421 E15.438
G1 X84.908 Y108.483 E15.50246
G1 X84.9 Y107.256 E15.54327
G1 X84.901 Y101.708 E15.7278
G1 X84.908 Y99.77 E15.79226
G1 X84.9 Y98.619 E15.83054
G1 X84.901 Y95.998 E15.91771
G1 X84.91 Y95.333 E15.93983
G1 X84.962 Y94.413 E15.97048
G1 X85.094 Y93.502 E16.0011
G1 X85.305 Y92.606 E16.03172
G1 X85.592 Y91.731 E16.06234
G1 X85.955 Y90.885 E16.09296
G1 X86.389 Y90.073 E16.12359
G1 X86.892 Y89.302 E16.1542
G1 X87.461 Y88.578 E16.18483
G1 X88.089 Y87.906 E16.21542
G0 F6000 X88.481 Y88.084
G1 F1200 X89.162 Y87.491 E16.24546
G1 X89.894 Y86.961 E16.27551
G1 X90.669 Y86.498 E16.30554
G1 X91.482 Y86.105 E16.33557
G1 X92.327 Y85.785 E16.36563
G1 X93.196 Y85.542 E16.39564
G1 X94.084 Y85.376 E16.42569
G1 X95.223 Y85.28 E16.4637
G1 X95.544 Y85.271 E16.47438
G1 X95.83 Y85.267 E16.4839
G1 X138.793 Y85.267 E17.91285
G1 X139.637 Y85.278 E17.94093
G1 X140.539 Y85.331 E17.97098
G1 X141.432 Y85.463 E18.001
G1 X142.31 Y85.674 E18.03104
G1 X143.166 Y85.962 E18.06108
G1 X143.993 Y86.324 E18.0911
G1 X144.785 Y86.759 E18.12116
G1 X145.536 Y87.261 E18.1512
G1 X146.239 Y87.828 E18.18124
G1 X146.889 Y88.455 E18.21128
G1 X147.481 Y89.137 E18.24131
G1 X148.011 Y89.868 E18.27135
G1 X148.473 Y90.644 E18.30138
G1 X148.866 Y91.457 E18.33142
G1 X149.184 Y92.302 E18.36145
G1 X149.427 Y93.172 E18.39149
G1 X149.592 Y94.06 E18.42153
G1 X149.687 Y95.19 E18.45925
G1 X149.696 Y95.51 E18.46989
G1 X149.7 Y95.801 E18.47957
G1 X149.699 Y98.373 E18.56512
G1 X149.692 Y100.315 E18.62971
G1 X149.7 Y101.539 E18.67042
G1 X149.699 Y107.086 E18.85492
G1 X149.692 Y109.028 E18.91951
G1 X149.7 Y110.252 E18.96022
G1 X149.699 Y115.799 E19.14471
G1 X149.692 Y117.741 E19.2093
G1 X149.7 Y118.965 E19.25002
G1 X149.699 Y124.511 E19.43448
G1 X149.692 Y126.452 E19.49904
G1 X149.7 Y127.677 E19.53978
G1 X149.699 Y133.224 E19.72427
G1 X149.692 Y135.165 E19.78883
G1 X149.7 Y136.317 E19.82715
G1 X149.699 Y138.857 E19.91163
G1 X149.69 Y139.584 E19.93581
G1 X149.639 Y140.486 E19.96586
G1 X149.508 Y141.38 E19.99591
G1 X149.299 Y142.258 E20.02593
G1 X149.013 Y143.115 E20.05598
G1 X148.652 Y143.943 E20.08602
G1 X148.22 Y144.735 E20.11603
G1 X147.719 Y145.487 E20.14608
G1 X147.153 Y146.191 E20.17613
G1 X146.528 Y146.842 E20.20614
G1 X145.847 Y147.436 E20.2362
G1 X145.116 Y147.967 E20.26625
G1 X144.342 Y148.431 E20.29626
G1 X143.529 Y148.825 E20.32631
G1 X142.685 Y149.145 E20.35633
G1 X141.815 Y149.39 E20.3864
G1 X140.928 Y149.556 E20.41641
G1 X139.777 Y149.654 E20.45483
G1 X139.456 Y149.663 E20.46551
G1 X139.17 Y149.667 E20.47502
G1 X96.075 Y149.666 E21.90837
G1 X95.377 Y149.657 E21.93159
G1 X94.476 Y149.606 E21.9616
G1 X93.582 Y149.474 E21.99166
G1 X92.704 Y149.265 E22.02168
G1 X91.847 Y148.978 E22.05174
G1 X91.02 Y148.617 E22.08175
G1 X90.227 Y148.184 E22.1118
G1 X89.476 Y147.683 E22.14183
G1 X88.772 Y147.117 E22.17187
G1 X88.121 Y146.491 E22.20191
G1 X87.528 Y145.81 E22.23195
G1 X86.998 Y145.079 E22.26198
G1 X86.534 Y144.304 E22.29202
G1 X86.14 Y143.491 E22.32207
G1 X85.82 Y142.647 E22.35209
G1 X85.576 Y141.777 E22.38214
G1 X85.41 Y140.889 E22.41219
G1 X85.313 Y139.734 E22.45074
G1 X85.304 Y139.401 E22.46182
G1 X85.3 Y139.121 E22.47113
G1 X85.301 Y136.561 E22.55628
G1 X85.308 Y134.62 E22.62084
G1 X85.3 Y133.395 E22.66158
G1 X85.301 Y127.848 E22.84608
G1 X85.308 Y125.907 E22.91063
G1 X85.3 Y124.682 E22.95138
G1 X85.301 Y119.135 E23.13587
G1 X85.308 Y117.193 E23.20046
G1 X85.3 Y115.969 E23.24118
G1 X85.301 Y110.422 E23.42567
G1 X85.308 Y108.48 E23.49026
G1 X85.3 Y107.256 E23.53097
G1 X85.301 Y101.709 E23.71547
G1 X85.308 Y99.767 E23.78006
G1 X85.3 Y98.616 E23.81834
G1 X85.301 Y96.003 E23.90525
G1 X85.31 Y95.338 E23.92737
G1 X85.362 Y94.436 E23.95742
G1 X85.494 Y93.543 E23.98745
G1 X85.704 Y92.665 E24.01747
G1 X85.991 Y91.808 E24.04753
G1 X86.353 Y90.981 E24.07756
G1 X86.786 Y90.189 E24.10758
G1 X87.288 Y89.438 E24.13762
G1 X87.855 Y88.734 E24.16769
G1 X88.481 Y88.084 E24.1977
G1 F2700 E20.1977
;MESH:SwitchBoardV5.stl
G0 F6000 X95.088 Y95.056
G0 X95.914 Y95.881
G0 X104.096 Y96.972
G0 X135.144 Y102.4
;TYPE:WALL-INNER
G1 F2700 E24.1977
G1 F1200 X135.76 Y102.338 E24.2183
G1 X136.253 Y102.189 E24.23543
G1 X136.315 Y102.17 E24.23758
G1 X136.357 Y102.157 E24.23904
G1 X136.357 Y102.53 E24.24792
G1 X138.1 Y102.53 E24.3059
G1 X138.1 Y106.265 E24.43012
G1 X136.357 Y106.265 E24.4881
G1 X136.357 Y111.243 E24.65367
G1 X138.1 Y111.243 E24.71164
G1 X138.1 Y114.978 E24.83586
G1 X136.357 Y114.978 E24.89384
G1 X136.357 Y119.956 E25.05941
G1 X138.1 Y119.956 E25.11738
G1 X138.1 Y123.69 E25.24157
G1 X136.357 Y123.69 E25.29954
G1 X136.357 Y128.669 E25.46515
G1 X138.1 Y128.669 E25.52312
G1 X138.1 Y132.403 E25.64731
G1 X136.357 Y132.403 E25.70528
G1 X136.357 Y137.382 E25.87089
G1 X138.1 Y137.382 E25.92886
G1 X138.1 Y138.067 E25.95164
G1 X96.9 Y138.067 E27.32196
G1 X96.9 Y137.382 E27.34474
G1 X98.643 Y137.382 E27.40272
G1 X98.643 Y132.403 E27.56832
G1 X96.9 Y132.403 E27.62629
G1 X96.9 Y128.669 E27.75048
G1 X98.643 Y128.669 E27.80846
G1 X98.643 Y123.69 E27.97406
G1 X96.9 Y123.69 E28.03203
G1 X96.9 Y119.956 E28.15622
G1 X98.643 Y119.956 E28.2142
G1 X98.643 Y114.978 E28.37976
G1 X96.9 Y114.978 E28.43774
G1 X96.9 Y111.243 E28.56196
G1 X98.643 Y111.243 E28.61994
G1 X98.643 Y106.265 E28.78551
G1 X96.9 Y106.265 E28.84348
G1 X96.9 Y102.53 E28.9677
G1 X98.643 Y102.53 E29.02568
G1 X98.643 Y102.231 E29.03562
G1 X98.643 Y102.162 E29.03792
G1 X98.643 Y102.004 E29.04317
G1 X98.938 Y102.162 E29.04976
G1 X99.004 Y102.181 E29.05181
G1 X99.533 Y102.338 E29.07016
G1 X100.144 Y102.4 E29.09059
G1 X100.758 Y102.338 E29.11111
G1 X101.356 Y102.159 E29.13187
G1 X101.91 Y101.858 E29.15284
G1 X102.361 Y101.485 E29.17231
G1 X102.822 Y101.866 E29.1922
G1 X103.372 Y102.161 E29.21296
G1 X103.965 Y102.338 E29.23354
G1 X104.587 Y102.4 E29.25433
G1 X105.21 Y102.335 E29.27517
G1 X105.788 Y102.159 E29.29526
G1 X106.339 Y101.864 E29.31605
G1 X106.812 Y101.474 E29.33644
G1 X107.204 Y100.995 E29.35703
G1 X107.5 Y100.443 E29.37786
G1 X107.675 Y99.857 E29.3982
G1 X107.736 Y99.243 E29.41872
G1 X107.675 Y98.626 E29.43935
G1 X107.493 Y98.031 E29.46004
G1 X107.204 Y97.491 E29.48041
G1 X106.982 Y97.218 E29.49211
G1 X106.811 Y97.008 E29.50112
G1 X106.637 Y96.867 E29.50857
G1 X106.811 Y96.867 E29.50922
G1 X107.082 Y96.867 E29.51561
G1 X128.207 Y96.867 E30.21823
G1 X128.479 Y96.867 E30.22727
G1 X128.652 Y96.867 E30.23303
G1 X128.479 Y97.007 E30.2353
G1 X128.308 Y97.218 E30.24169
G1 X128.086 Y97.49 E30.25336
G1 X127.791 Y98.034 E30.27395
G1 X127.614 Y98.633 E30.29472
G1 X127.553 Y99.243 E30.31511
G1 X127.614 Y99.857 E30.33563
G1 X127.794 Y100.452 E30.35631
G1 X128.088 Y101.002 E30.37705
G1 X128.488 Y101.484 E30.39788
G1 X128.956 Y101.866 E30.41798
G1 X129.501 Y102.159 E30.43856
G1 X130.095 Y102.338 E30.45919
G1 X130.718 Y102.4 E30.48001
G1 X131.325 Y102.338 E30.50031
G1 X131.919 Y102.159 E30.52094
G1 X132.34 Y101.934 E30.53682
G1 X132.485 Y101.85 E30.54239
G1 X132.927 Y101.485 E30.56146
G1 X133.399 Y101.87 E30.58172
G1 X133.937 Y102.159 E30.60203
G1 X134.531 Y102.338 E30.62266
G1 X135.144 Y102.4 E30.64316
G0 F6000 X135.144 Y101.998
G1 F1200 X135.682 Y101.944 E30.66114
G1 X136.2 Y101.788 E30.67913
G1 X136.444 Y101.657 E30.68834
G1 X136.683 Y101.528 E30.69738
G1 X136.757 Y101.467 E30.70057
G1 X136.757 Y101.528
G1 X136.757 Y101.8 E30.70646
G1 X136.757 Y102.13 E30.71743
G1 X138.5 Y102.13 E30.77541
G1 X138.5 Y106.665 E30.92624
G1 X136.757 Y106.665 E30.98421
G1 X136.757 Y110.843 E31.12317
G1 X138.5 Y110.843 E31.18115
G1 X138.5 Y115.378 E31.33198
G1 X136.757 Y115.378 E31.38995
G1 X136.757 Y119.556 E31.52891
G1 X138.5 Y119.556 E31.58689
G1 X138.5 Y124.09 E31.73769
G1 X136.757 Y124.09 E31.79566
G1 X136.757 Y128.269 E31.93465
G1 X138.5 Y128.269 E31.99263
G1 X138.5 Y132.803 E32.14343
G1 X136.757 Y132.803 E32.2014
G1 X136.757 Y136.982 E32.3404
G1 X138.5 Y136.982 E32.39837
G1 X138.5 Y138.467 E32.44776
G1 X96.5 Y138.467 E33.84468
G1 X96.5 Y136.982 E33.89408
G1 X98.243 Y136.982 E33.95205
G1 X98.243 Y132.803 E34.09104
G1 X96.5 Y132.803 E34.14901
G1 X96.5 Y128.269 E34.29982
G1 X98.243 Y128.269 E34.35779
G1 X98.243 Y124.09 E34.49678
G1 X96.5 Y124.09 E34.55476
G1 X96.5 Y119.556 E34.70556
G1 X98.243 Y119.556 E34.76353
G1 X98.243 Y115.378 E34.90249
G1 X96.5 Y115.378 E34.96046
G1 X96.5 Y110.843 E35.1113
G1 X98.243 Y110.843 E35.16927
G1 X98.243 Y106.665 E35.30823
G1 X96.5 Y106.665 E35.3662
G1 X96.5 Y102.13 E35.51704
G1 X98.243 Y102.13 E35.57501
G1 X98.243 Y101.557 E35.59407
G1 X98.243 Y101.532 E35.5949
G1 X98.243 Y101.229 E35.60498
G1 X98.611 Y101.532 E35.61448
G1 X98.633 Y101.543 E35.61527
G1 X99.091 Y101.79 E35.63258
G1 X99.611 Y101.944 E35.65061
G1 X100.144 Y101.998 E35.66843
G1 X100.68 Y101.944 E35.68635
G1 X101.201 Y101.788 E35.70444
G1 X101.685 Y101.525 E35.72276
G1 X102.091 Y101.19 E35.74027
