;FLAVOR:Marlin
;TIME:2884
;Filament used: 1.35206m
;Layer height: 0.2
;MINX:82.23
;MINY:91.646
;MINZ:0.2
;MAXX:152.759
;MAXY:143.36
;MAXZ:14
;Generated with Cura_SteamEngine 4.6.1
M140 S57
M105
M190 S57
M104 S208
M105
M109 S208
M82 ;absolute extrusion mode
; Ender 3 Custom Start G-code
G92 E0 ; Reset Extruder
G28 ; Home all axes
G1 Z2.0 F3000 ; Move Z Axis up little to prevent scratching of Heat Bed
G1 X0.1 Y20 Z0.3 F5000.0 ; Move to start position
G1 X0.1 Y200.0 Z0.3 F1500.0 E15 ; Draw the first line
G1 X0.4 Y200.0 Z0.3 F5000.0 ; Move to side a little
G1 X0.4 Y20 Z0.3 F1500.0 E30 ; Draw the second line
G92 E0 ; Reset Extruder
G1 Z2.0 F3000 ; Move Z Axis up little to prevent scratching of Heat Bed
G1 X5 Y20 Z0.3 F5000.0 ; Move over to prevent blob squish
G92 E0
G92 E0
G1 F2700 E-5
;LAYER_COUNT:70
;LAYER:0
M107
G0 F6000 X116.658 Y92.532 Z0.2
;TYPE:SKIRT
G1 F2700 E0
G1 F1200 X117.55 Y92.674 E0.03004
G1 X118.663 Y92.969 E0.06834
G1 X118.899 Y93.046 E0.0766
G1 X119.744 Y93.364 E0.10662
G1 X120.558 Y93.755 E0.13666
G1 X121.271 Y94.176 E0.1642
G1 X121.531 Y94.344 E0.1745
G1 X122.481 Y95.039 E0.21364
G1 X122.958 Y95.432 E0.2342
G1 X123.411 Y95.824 E0.25413
G1 X123.613 Y96.007 E0.26319
G1 X124.834 Y97.145 E0.31871
G1 X126.724 Y98.858 E0.40355
G1 X128.687 Y100.538 E0.48948
G1 X130.648 Y102.124 E0.57337
G1 X132.664 Y103.66 E0.65766
G1 X134.747 Y105.158 E0.743
G1 X136.825 Y106.563 E0.82643
G1 X138.942 Y107.911 E0.9099
G1 X142.329 Y109.902 E1.04058
G1 X143.291 Y110.441 E1.07725
G1 X143.676 Y110.668 E1.09212
G1 X143.926 Y110.823 E1.1019
G1 X144.239 Y111.025 E1.11429
G1 X144.501 Y111.201 E1.12479
G1 X144.955 Y111.522 E1.14328
G1 X145.451 Y111.901 E1.16405
G1 X145.82 Y112.203 E1.1799
G1 X146.082 Y112.428 E1.19139
G1 X146.379 Y112.693 E1.20463
G1 X146.59 Y112.889 E1.21421
G1 X147.064 Y113.356 E1.23634
G1 X147.395 Y113.707 E1.25239
G1 X147.713 Y114.061 E1.26821
G1 X148.067 Y114.477 E1.28638
G1 X148.258 Y114.714 E1.29651
G1 X148.496 Y115.02 E1.3094
G1 X148.645 Y115.22 E1.31769
G1 X148.987 Y115.706 E1.33746
G1 X149.177 Y115.993 E1.34891
G1 X149.341 Y116.25 E1.35905
G1 X149.581 Y116.645 E1.37442
G1 X149.74 Y116.921 E1.38501
G1 X149.97 Y117.342 E1.40097
G1 X150.14 Y117.672 E1.41332
G1 X150.415 Y118.245 E1.43446
G1 X150.569 Y118.593 E1.44711
G1 X150.688 Y118.877 E1.45735
G1 X150.857 Y119.308 E1.47275
G1 X151.106 Y120.014 E1.49765
G1 X151.267 Y120.531 E1.51566
G1 X151.344 Y120.804 E1.5251
G1 X151.455 Y121.233 E1.53983
G1 X151.558 Y121.67 E1.55477
G1 X151.691 Y122.333 E1.57726
G1 X151.761 Y122.753 E1.59142
G1 X151.84 Y123.324 E1.61059
G1 X151.875 Y123.645 E1.62133
G1 X151.926 Y124.265 E1.64202
G1 X151.949 Y124.711 E1.65688
G1 X151.959 Y125.064 E1.66862
G1 X151.959 Y125.725 E1.69061
G1 X151.943 Y126.196 E1.70628
G1 X151.926 Y126.488 E1.71601
G1 X151.892 Y126.913 E1.73019
G1 X151.858 Y127.252 E1.74152
G1 X151.806 Y127.676 E1.75573
G1 X151.766 Y127.956 E1.76514
G1 X151.695 Y128.391 E1.7798
G1 X151.553 Y129.098 E1.80378
G1 X151.443 Y129.561 E1.81961
G1 X151.349 Y129.918 E1.83189
G1 X151.17 Y130.53 E1.8531
G1 X151.034 Y130.941 E1.8675
G1 X150.922 Y131.258 E1.87868
G1 X150.767 Y131.67 E1.89332
G1 X150.485 Y132.345 E1.91765
G1 X150.293 Y132.759 E1.93283
G1 X150.124 Y133.104 E1.94561
G1 X149.868 Y133.593 E1.96396
G1 X149.683 Y133.924 E1.97658
G1 X149.356 Y134.471 E1.99777
G1 X149.085 Y134.892 E2.01443
G1 X148.84 Y135.25 E2.02885
G1 X148.631 Y135.541 E2.04077
G1 X148.362 Y135.898 E2.05564
G1 X148.207 Y136.095 E2.06397
G1 X147.921 Y136.442 E2.07893
G1 X147.686 Y136.715 E2.09091
G1 X147.425 Y137.007 E2.10394
G1 X147.239 Y137.207 E2.11302
G1 X146.759 Y137.693 E2.13574
G1 X146.479 Y137.958 E2.14856
G1 X146.205 Y138.207 E2.16088
G1 X145.875 Y138.494 E2.17542
G1 X145.629 Y138.699 E2.18607
G1 X145.127 Y139.091 E2.20726
G1 X144.753 Y139.365 E2.22268
G1 X144.319 Y139.666 E2.24025
G1 X144.072 Y139.828 E2.25007
G1 X143.566 Y140.139 E2.26982
G1 X143.156 Y140.375 E2.28556
G1 X142.784 Y140.58 E2.29969
G1 X142.55 Y140.702 E2.30846
G1 X141.883 Y141.019 E2.33303
G1 X141.335 Y141.256 E2.35288
G1 X140.877 Y141.441 E2.36931
G1 X140.659 Y141.523 E2.37706
G1 X140.18 Y141.69 E2.39393
G1 X139.474 Y141.906 E2.41849
G1 X138.943 Y142.048 E2.43677
G1 X138.543 Y142.143 E2.45044
G1 X138.223 Y142.212 E2.46133
G1 X137.756 Y142.301 E2.47714
G1 X137.505 Y142.343 E2.48561
G1 X137.077 Y142.406 E2.5
G1 X136.722 Y142.45 E2.51189
G1 X136.192 Y142.501 E2.5296
G1 X135.799 Y142.529 E2.54271
G1 X135.164 Y142.557 E2.56385
G1 X134.674 Y142.561 E2.58015
G1 X134.322 Y142.555 E2.59186
G1 X133.684 Y142.527 E2.6131
G1 X133.146 Y142.483 E2.63105
G1 X132.747 Y142.44 E2.6444
G1 X132.163 Y142.363 E2.66399
G1 X131.482 Y142.248 E2.68696
G1 X129.308 Y141.847 E2.76049
G1 X126.757 Y141.45 E2.84636
G1 X124.277 Y141.137 E2.9295
G1 X121.716 Y140.885 E3.01509
G1 X119.204 Y140.71 E3.09884
G1 X116.675 Y140.606 E3.18302
G1 X114.168 Y140.572 E3.26641
G1 X98.892 Y140.571 E3.7745
G1 X97.813 Y140.553 E3.81039
G1 X96.709 Y140.474 E3.8472
G1 X95.978 Y140.382 E3.87171
G1 X95.088 Y140.23 E3.90174
G1 X94.607 Y140.113 E3.9182
G1 X94.041 Y139.961 E3.93769
G1 X93.254 Y139.715 E3.96512
G1 X92.893 Y139.586 E3.97787
G1 X91.889 Y139.166 E4.01407
G1 X91.419 Y138.939 E4.03143
G1 X90.65 Y138.526 E4.06046
G1 X90.291 Y138.313 E4.07434
G1 X89.708 Y137.94 E4.09736
G1 X89.486 Y137.787 E4.10633
G1 X88.958 Y137.397 E4.12816
G1 X88.764 Y137.244 E4.13638
G1 X88.265 Y136.824 E4.15807
G1 X87.912 Y136.507 E4.17385
G1 X87.393 Y136.007 E4.19782
G1 X87.191 Y135.798 E4.20749
G1 X86.446 Y134.935 E4.24541
G1 X85.989 Y134.342 E4.27031
G1 X85.47 Y133.603 E4.30035
G1 X85.216 Y133.184 E4.31664
G1 X84.92 Y132.667 E4.33646
G1 X84.54 Y131.937 E4.36383
G1 X84.415 Y131.671 E4.3736
G1 X84.008 Y130.67 E4.40954
G1 X83.792 Y130.046 E4.43151
G1 X83.55 Y129.238 E4.45956
G1 X83.475 Y128.945 E4.46962
G1 X83.32 Y128.238 E4.49369
G1 X83.259 Y127.902 E4.50505
G1 X83.166 Y127.284 E4.52584
G1 X83.125 Y126.939 E4.53739
G1 X83.056 Y125.94 E4.5707
G1 X83.03 Y124.539 E4.61731
G1 X83.037 Y120.069 E4.76598
G1 X83.072 Y118.924 E4.80408
G1 X83.088 Y118.583 E4.81543
G1 X83.155 Y117.615 E4.84771
G1 X83.253 Y116.625 E4.88079
G1 X83.338 Y115.943 E4.90365
G1 X83.386 Y115.605 E4.91501
G1 X83.559 Y114.547 E4.95066
G1 X83.682 Y113.897 E4.97267
G1 X83.75 Y113.567 E4.98387
G1 X83.99 Y112.515 E5.01976
G1 X84.152 Y111.885 E5.0414
G1 X84.234 Y111.587 E5.05168
G1 X84.526 Y110.595 E5.08607
G1 X84.778 Y109.817 E5.11327
G1 X84.885 Y109.506 E5.12421
G1 X85.174 Y108.716 E5.15219
G1 X85.501 Y107.89 E5.18174
G1 X85.627 Y107.587 E5.19265
G1 X85.989 Y106.763 E5.22259
G1 X86.319 Y106.058 E5.24848
G1 X86.467 Y105.755 E5.25969
G1 X86.748 Y105.203 E5.28029
G1 X86.902 Y104.912 E5.29124
G1 X87.447 Y103.931 E5.32857
G1 X87.802 Y103.331 E5.35176
G1 X87.961 Y103.073 E5.36184
G1 X88.467 Y102.281 E5.39309
G1 X88.986 Y101.516 E5.42384
G1 X89.18 Y101.241 E5.43504
G1 X89.674 Y100.569 E5.46278
G1 X90.123 Y99.988 E5.4872
G1 X90.337 Y99.721 E5.49858
G1 X91.027 Y98.895 E5.53438
G1 X91.669 Y98.175 E5.56646
G1 X92.208 Y97.6 E5.59267
G1 X92.438 Y97.364 E5.60363
G1 X93.062 Y96.745 E5.63287
G1 X93.662 Y96.179 E5.6603
G1 X93.932 Y95.934 E5.67243
G1 X94.692 Y95.27 E5.70599
G1 X94.885 Y95.109 E5.71435
G1 X95.406 Y94.703 E5.73632
G1 X95.58 Y94.576 E5.74349
G1 X96.332 Y94.077 E5.7735
G1 X97.401 Y93.516 E5.81366
G1 X97.665 Y93.397 E5.82329
G1 X98.504 Y93.063 E5.85333
G1 X99.37 Y92.804 E5.88339
G1 X100.28 Y92.619 E5.91427
G1 X100.625 Y92.565 E5.92589
G1 X101.522 Y92.465 E5.95591
G1 X102.67 Y92.453 E5.99409
G1 X104.064 Y92.518 E6.04051
G1 X104.643 Y92.552 E6.0598
G1 X107.19 Y92.631 E6.14455
G1 X109.724 Y92.639 E6.22883
G1 X112.288 Y92.573 E6.31414
G1 X114.759 Y92.451 E6.39643
G1 X115.662 Y92.447 E6.42646
G1 X116.422 Y92.505 E6.45181
G1 X116.658 Y92.532 E6.45971
G0 F6000 X116.704 Y92.135
G1 F1200 X117.613 Y92.279 E6.49032
G1 X118.787 Y92.589 E6.53071
G1 X119.023 Y92.666 E6.53897
G1 X119.885 Y92.989 E6.56958
G1 X120.716 Y93.386 E6.60022
G1 X121.488 Y93.84 E6.63
G1 X121.748 Y94.008 E6.6403
G1 X122.735 Y94.73 E6.68097
G1 X123.212 Y95.123 E6.70153
G1 X123.676 Y95.524 E6.72193
G1 X123.886 Y95.715 E6.73137
G1 X125.053 Y96.802 E6.78441
G1 X127.007 Y98.573 E6.87212
G1 X128.936 Y100.224 E6.95657
G1 X130.892 Y101.806 E7.04024
G1 X132.9 Y103.336 E7.12421
G1 X134.976 Y104.829 E7.20926
G1 X137.042 Y106.227 E7.29223
G1 X139.17 Y107.581 E7.37612
G1 X142.507 Y109.543 E7.50487
G1 X143.487 Y110.092 E7.54223
G1 X143.887 Y110.328 E7.55768
G1 X144.137 Y110.483 E7.56746
G1 X144.462 Y110.693 E7.58033
G1 X144.724 Y110.869 E7.59083
G1 X145.189 Y111.198 E7.60977
G1 X145.502 Y111.432 E7.62277
G1 X145.698 Y111.585 E7.63104
G1 X146.081 Y111.899 E7.64751
G1 X146.343 Y112.124 E7.659
G1 X146.651 Y112.4 E7.67276
G1 X146.862 Y112.596 E7.68234
G1 X147.349 Y113.075 E7.70505
G1 X147.693 Y113.439 E7.72171
G1 X148.011 Y113.793 E7.73754
G1 X148.378 Y114.226 E7.75642
G1 X148.569 Y114.463 E7.76654
G1 X148.816 Y114.781 E7.77993
G1 X148.965 Y114.981 E7.78823
G1 X149.317 Y115.479 E7.80851
G1 X149.515 Y115.778 E7.82044
G1 X149.679 Y116.035 E7.83058
G1 X149.928 Y116.446 E7.84656
G1 X150.087 Y116.722 E7.85716
G1 X150.325 Y117.159 E7.87371
G1 X150.495 Y117.489 E7.88605
G1 X150.778 Y118.077 E7.90776
G1 X150.937 Y118.439 E7.92091
G1 X151.056 Y118.723 E7.93115
G1 X151.232 Y119.17 E7.94713
G1 X151.485 Y119.886 E7.97239
G1 X151.652 Y120.423 E7.99109
G1 X151.729 Y120.696 E8.00053
G1 X151.844 Y121.141 E8.01581
G1 X151.947 Y121.578 E8.03075
G1 X152.086 Y122.267 E8.05412
G1 X152.156 Y122.687 E8.06829
G1 X152.238 Y123.281 E8.08823
G1 X152.273 Y123.602 E8.09897
G1 X152.325 Y124.236 E8.12013
G1 X152.349 Y124.7 E8.13558
G1 X152.359 Y125.053 E8.14733
G1 X152.359 Y125.73 E8.16984
G1 X152.342 Y126.219 E8.18612
G1 X152.325 Y126.511 E8.19584
G1 X152.29 Y126.953 E8.21059
G1 X152.256 Y127.292 E8.22192
G1 X152.202 Y127.733 E8.2367
G1 X152.162 Y128.013 E8.24611
G1 X152.088 Y128.465 E8.26134
G1 X151.944 Y129.182 E8.28567
G1 X151.83 Y129.663 E8.30211
G1 X151.736 Y130.02 E8.31439
G1 X151.552 Y130.647 E8.33612
G1 X151.412 Y131.074 E8.35107
G1 X151.3 Y131.391 E8.36225
G1 X151.138 Y131.819 E8.37747
G1 X150.851 Y132.504 E8.40217
G1 X150.652 Y132.935 E8.41796
G1 X150.483 Y133.28 E8.43074
G1 X150.217 Y133.789 E8.44984
G1 X150.032 Y134.12 E8.46245
G1 X149.697 Y134.681 E8.48418
G1 X149.42 Y135.111 E8.5012
G1 X149.165 Y135.483 E8.5162
G1 X148.956 Y135.774 E8.52811
G1 X148.677 Y136.146 E8.54358
G1 X148.522 Y136.343 E8.55192
G1 X148.225 Y136.703 E8.56744
G1 X147.99 Y136.976 E8.57942
G1 X147.718 Y137.28 E8.59299
G1 X147.532 Y137.48 E8.60207
G1 X147.039 Y137.979 E8.6254
G1 X146.748 Y138.254 E8.63872
G1 X146.474 Y138.503 E8.65103
G1 X146.131 Y138.801 E8.66615
G1 X145.885 Y139.006 E8.6768
G1 X145.363 Y139.414 E8.69883
G1 X144.989 Y139.688 E8.71425
G1 X144.538 Y140.001 E8.73251
G1 X144.291 Y140.163 E8.74234
G1 X143.766 Y140.486 E8.76284
G1 X143.356 Y140.722 E8.77857
G1 X142.968 Y140.934 E8.79328
G1 X142.734 Y141.056 E8.80205
G1 X142.042 Y141.386 E8.82755
G1 X141.494 Y141.623 E8.84741
G1 X141.018 Y141.815 E8.86448
G1 X140.8 Y141.897 E8.87223
G1 X140.302 Y142.071 E8.88977
G1 X139.586 Y142.289 E8.91467
G1 X139.043 Y142.435 E8.93337
G1 X138.627 Y142.534 E8.94759
G1 X138.307 Y142.603 E8.95848
G1 X137.822 Y142.696 E8.97491
G1 X137.571 Y142.738 E8.98337
G1 X137.126 Y142.803 E8.99833
G1 X136.771 Y142.847 E9.01023
G1 X136.22 Y142.9 E9.02864
G1 X135.827 Y142.928 E9.04174
G1 X135.176 Y142.957 E9.06341
G1 X134.667 Y142.96 E9.08034
G1 X134.315 Y142.954 E9.09205
G1 X133.662 Y142.926 E9.11379
G1 X133.103 Y142.881 E9.13245
G1 X132.704 Y142.838 E9.14579
G1 X132.106 Y142.759 E9.16586
G1 X131.41 Y142.641 E9.18933
G1 X129.246 Y142.242 E9.26252
G1 X126.717 Y141.849 E9.34765
G1 X124.224 Y141.533 E9.43123
G1 X121.718 Y141.287 E9.51498
G1 X119.162 Y141.109 E9.6002
G1 X116.652 Y141.006 E9.68375
G1 X114.163 Y140.972 E9.76654
G1 X98.885 Y140.971 E10.27469
G1 X97.806 Y140.953 E10.31058
G1 X96.659 Y140.871 E10.34883
G1 X95.928 Y140.779 E10.37334
G1 X95.021 Y140.625 E10.40393
G1 X94.503 Y140.499 E10.42167
G1 X93.937 Y140.347 E10.44116
G1 X93.119 Y140.092 E10.46966
G1 X92.758 Y139.963 E10.48241
G1 X91.715 Y139.526 E10.52002
G1 X91.245 Y139.299 E10.53738
G1 X90.446 Y138.87 E10.56754
G1 X90.087 Y138.657 E10.58143
G1 X89.481 Y138.269 E10.60536
G1 X89.259 Y138.116 E10.61433
G1 X88.71 Y137.711 E10.63702
G1 X88.516 Y137.558 E10.64523
G1 X87.998 Y137.122 E10.66775
G1 X87.645 Y136.805 E10.68353
G1 X87.105 Y136.285 E10.70847
G1 X86.903 Y136.076 E10.71814
G1 X86.129 Y135.179 E10.75754
G1 X85.672 Y134.586 E10.78244
G1 X85.142 Y133.834 E10.81304
G1 X84.869 Y133.383 E10.83058
G1 X84.573 Y132.866 E10.85039
G1 X84.178 Y132.107 E10.87885
G1 X84.053 Y131.841 E10.88862
G1 X83.63 Y130.8 E10.926
G1 X83.414 Y130.176 E10.94796
G1 X83.162 Y129.338 E10.97706
G1 X83.087 Y129.045 E10.98712
G1 X82.926 Y128.309 E11.01218
G1 X82.865 Y127.973 E11.02354
G1 X82.769 Y127.331 E11.04513
G1 X82.728 Y126.986 E11.05669
G1 X82.656 Y125.949 E11.09126
G1 X82.63 Y124.539 E11.13816
G1 X82.637 Y120.057 E11.28724
G1 X82.672 Y118.912 E11.32534
G1 X82.689 Y118.558 E11.33712
G1 X82.731 Y117.903 E11.35895
G1 X82.757 Y117.577 E11.36983
G1 X82.856 Y116.576 E11.40329
G1 X82.941 Y115.894 E11.42615
G1 X82.991 Y115.543 E11.43794
G1 X83.166 Y114.472 E11.47403
G1 X83.289 Y113.822 E11.49604
G1 X83.359 Y113.48 E11.50765
G1 X83.524 Y112.742 E11.5328
G1 X83.603 Y112.415 E11.54399
G1 X83.765 Y111.785 E11.56562
G1 X83.85 Y111.476 E11.57628
G1 X84.146 Y110.472 E11.6111
G1 X84.508 Y109.37 E11.64968
G1 X84.684 Y108.881 E11.66696
G1 X84.802 Y108.569 E11.67806
G1 X85.129 Y107.743 E11.7076
G1 X85.26 Y107.427 E11.71898
G1 X85.627 Y106.593 E11.74929
G1 X85.957 Y105.888 E11.77518
G1 X86.111 Y105.573 E11.78684
G1 X86.392 Y105.021 E11.80744
G1 X86.552 Y104.719 E11.81881
G1 X87.103 Y103.727 E11.85655
G1 X87.458 Y103.127 E11.87974
G1 X87.623 Y102.859 E11.8902
G1 X88.136 Y102.057 E11.92187
G1 X88.655 Y101.292 E11.95262
G1 X88.856 Y101.006 E11.96424
G1 X89.358 Y100.324 E11.99241
G1 X89.807 Y99.743 E12.01683
G1 X90.029 Y99.466 E12.02864
G1 X90.727 Y98.63 E12.06486
G1 X91.377 Y97.902 E12.09732
G1 X91.916 Y97.327 E12.12353
G1 X92.155 Y97.081 E12.13494
G1 X92.787 Y96.454 E12.16455
G1 X93.387 Y95.888 E12.19199
G1 X93.668 Y95.633 E12.20461
G1 X94.436 Y94.963 E12.23851
G1 X94.629 Y94.802 E12.24686
G1 X95.17 Y94.38 E12.26969
G1 X95.344 Y94.253 E12.27685
G1 X96.11 Y93.743 E12.30746
G1 X97.237 Y93.151 E12.3498
G1 X97.501 Y93.032 E12.35943
G1 X98.356 Y92.691 E12.39005
G1 X99.237 Y92.425 E12.42065
G1 X100.218 Y92.224 E12.45396
G1 X100.563 Y92.17 E12.46558
G1 X101.478 Y92.067 E12.4962
G1 X102.689 Y92.053 E12.53648
G1 X104.087 Y92.118 E12.58303
G1 X104.677 Y92.153 E12.60269
G1 X107.204 Y92.231 E12.68678
G1 X109.715 Y92.239 E12.77029
G1 X112.299 Y92.173 E12.85626
G1 X114.739 Y92.052 E12.93752
G1 X115.66 Y92.046 E12.96815
G1 X116.468 Y92.108 E12.9951
G1 X116.704 Y92.135 E13.00301
G0 F6000 X116.749 Y91.737
G1 F1200 X117.676 Y91.884 E13.03422
G1 X118.911 Y92.209 E13.0767
G1 X119.147 Y92.286 E13.08495
G1 X120.025 Y92.614 E13.11613
G1 X120.873 Y93.016 E13.14734
G1 X121.705 Y93.504 E13.17942
G1 X121.965 Y93.672 E13.18972
G1 X122.99 Y94.421 E13.23194
G1 X123.467 Y94.814 E13.2525
G1 X123.941 Y95.224 E13.27334
G1 X124.159 Y95.422 E13.28314
G1 X125.35 Y96.532 E13.33729
G1 X127.27 Y98.272 E13.42347
G1 X129.202 Y99.925 E13.50804
G1 X131.14 Y101.493 E13.59095
G1 X133.153 Y103.027 E13.67513
G1 X135.187 Y104.489 E13.75844
G1 X137.275 Y105.902 E13.8423
G1 X139.353 Y107.225 E13.92423
G1 X142.729 Y109.208 E14.05445
G1 X143.682 Y109.743 E14.0908
G1 X144.097 Y109.988 E14.10683
G1 X144.347 Y110.143 E14.11662
G1 X144.685 Y110.361 E14.12999
G1 X144.947 Y110.537 E14.14049
G1 X145.423 Y110.873 E14.15987
G1 X145.944 Y111.27 E14.18166
G1 X146.342 Y111.596 E14.19877
G1 X146.604 Y111.821 E14.21025
G1 X146.923 Y112.107 E14.2245
G1 X147.134 Y112.303 E14.23408
G1 X147.475 Y112.633 E14.24987
G1 X147.634 Y112.794 E14.25739
G1 X147.99 Y113.172 E14.27466
G1 X148.308 Y113.526 E14.29049
G1 X148.69 Y113.975 E14.3101
G1 X148.881 Y114.212 E14.32022
G1 X149.286 Y114.742 E14.34241
G1 X149.647 Y115.253 E14.36322
G1 X150.016 Y115.82 E14.38572
