;FLAVOR:Marlin
;TIME:6796
;Filament used: 4.27209m
;Layer height: 0.2
;MINX:82.183
;MINY:82.588
;MINZ:0.2
;MAXX:152.822
;MAXY:152.412
;MAXZ:39.4
;Generated with Cura_SteamEngine master
M140 S50
M105
M190 S50
M104 S200
M105
M109 S200
M82 ;absolute extrusion mode
; Ender 3 Custom Start G-code
G92 E0 ; Reset Extruder
G28 ; Home all axes
G1 Z2.0 F3000 ; Move Z Axis up little to prevent scratching of Heat Bed
G1 X0.1 Y20 Z0.3 F5000.0 ; Move to start position
G1 X0.1 Y200.0 Z0.3 F1500.0 E15 ; Draw the first line
G1 X0.4 Y200.0 Z0.3 F5000.0 ; Move to side a little
G1 X0.4 Y20 Z0.3 F1500.0 E30 ; Draw the second line
G92 E0 ; Reset Extruder
G1 Z2.0 F3000 ; Move Z Axis up little to prevent scratching of Heat Bed
G1 X5 Y20 Z0.3 F5000.0 ; Move over to prevent blob squish
G92 E0
G92 E0
G1 F2700 E-5
;LAYER_COUNT:197
;LAYER:0
M107
G0 F6000 X85.377 Y90.26 Z0.2
;TYPE:SKIRT
G1 F2700 E0
G1 F1200 X86.065 Y89.622 E0.03121
G1 X86.804 Y89.046 E0.06237
G1 X87.59 Y88.534 E0.09357
G1 X88.417 Y88.091 E0.12477
G1 X89.279 Y87.721 E0.15597
G1 X90.169 Y87.425 E0.18717
G1 X91.081 Y87.206 E0.21837
G1 X92.008 Y87.065 E0.24955
G1 X92.884 Y87.005 E0.27876
G1 X93.205 Y86.996 E0.28944
G1 X93.513 Y86.992 E0.29968
G1 X97.55 Y86.992 E0.43395
G1 X100.158 Y86.955 E0.5207
G1 X102.679 Y86.848 E0.60463
G1 X105.174 Y86.671 E0.68782
G1 X107.674 Y86.423 E0.77138
G1 X110.167 Y86.104 E0.85497
G1 X112.66 Y85.713 E0.9389
G1 X115.15 Y85.25 E1.02314
G1 X117.614 Y84.72 E1.10697
G1 X120.025 Y84.129 E1.18953
G1 X122.643 Y83.407 E1.27986
G1 X123.904 Y83.039 E1.32355
G1 X124.815 Y82.814 E1.35476
G1 X125.741 Y82.669 E1.38593
G1 X126.652 Y82.603 E1.41631
G1 X126.981 Y82.593 E1.42726
G1 X127.315 Y82.588 E1.43837
G1 X141.273 Y82.589 E1.90262
G1 X141.971 Y82.599 E1.92583
G1 X142.907 Y82.653 E1.95702
G1 X143.835 Y82.785 E1.98819
G1 X144.749 Y82.997 E2.0194
G1 X145.641 Y83.286 E2.05059
G1 X146.506 Y83.649 E2.08179
G1 X147.336 Y84.085 E2.11297
G1 X148.127 Y84.59 E2.14418
G1 X148.871 Y85.161 E2.17538
G1 X149.564 Y85.793 E2.20657
G1 X150.201 Y86.481 E2.23776
G1 X150.776 Y87.222 E2.26895
G1 X151.287 Y88.008 E2.30013
G1 X151.729 Y88.836 E2.33135
G1 X152.098 Y89.698 E2.36254
G1 X152.393 Y90.588 E2.39372
G1 X152.611 Y91.5 E2.42491
G1 X152.751 Y92.428 E2.45613
G1 X152.809 Y93.289 E2.48483
G1 X152.818 Y93.609 E2.49548
G1 X152.822 Y93.918 E2.50575
G1 X152.821 Y140.812 E4.06545
G1 X152.812 Y141.539 E4.08964
G1 X152.761 Y142.476 E4.12085
G1 X152.629 Y143.404 E4.15202
G1 X152.42 Y144.318 E4.18321
G1 X152.133 Y145.211 E4.21441
G1 X151.771 Y146.077 E4.24562
G1 X151.337 Y146.908 E4.27681
G1 X150.833 Y147.699 E4.308
G1 X150.264 Y148.444 E4.33918
G1 X149.633 Y149.139 E4.3704
G1 X148.946 Y149.777 E4.40159
G1 X148.207 Y150.354 E4.43277
G1 X147.421 Y150.866 E4.46397
G1 X146.595 Y151.309 E4.49514
G1 X145.733 Y151.681 E4.52637
G1 X144.844 Y151.977 E4.55753
G1 X143.932 Y152.197 E4.58874
G1 X143.005 Y152.338 E4.61992
G1 X142.121 Y152.399 E4.6494
G1 X141.8 Y152.408 E4.66008
G1 X141.492 Y152.412 E4.67032
G1 X127.535 Y152.411 E5.13453
G1 X126.835 Y152.401 E5.15782
G1 X125.899 Y152.348 E5.189
G1 X124.97 Y152.215 E5.22021
G1 X124.174 Y152.035 E5.24736
G1 X123.838 Y151.943 E5.25894
G1 X121.378 Y151.228 E5.34415
G1 X118.949 Y150.595 E5.42764
G1 X116.494 Y150.03 E5.51142
G1 X114.015 Y149.531 E5.59553
G1 X111.562 Y149.113 E5.67829
G1 X109.046 Y148.754 E5.76282
G1 X106.556 Y148.471 E5.84617
G1 X104.05 Y148.257 E5.92983
G1 X101.533 Y148.115 E6.01368
G1 X99.016 Y148.042 E6.09743
G1 X97.673 Y148.033 E6.1421
G1 X93.89 Y148.033 E6.26792
G1 X93.034 Y148.022 E6.29639
G1 X92.098 Y147.968 E6.32758
G1 X91.17 Y147.836 E6.35875
G1 X90.256 Y147.624 E6.38996
G1 X89.364 Y147.335 E6.42115
G1 X88.499 Y146.972 E6.45235
G1 X87.669 Y146.536 E6.48353
G1 X86.878 Y146.031 E6.51474
G1 X86.134 Y145.46 E6.54594
G1 X85.441 Y144.828 E6.57713
G1 X84.804 Y144.14 E6.60832
G1 X84.229 Y143.399 E6.63951
G1 X83.718 Y142.613 E6.67069
G1 X83.276 Y141.785 E6.70191
G1 X82.907 Y140.923 E6.7331
G1 X82.612 Y140.033 E6.76428
G1 X82.394 Y139.121 E6.79547
G1 X82.254 Y138.193 E6.82668
G1 X82.196 Y137.321 E6.85575
G1 X82.187 Y136.989 E6.8668
G1 X82.183 Y136.691 E6.87671
G1 X82.184 Y98.546 E8.14542
G1 X82.193 Y97.857 E8.16834
G1 X82.245 Y96.921 E8.19952
G1 X82.377 Y95.992 E8.23072
G1 X82.587 Y95.078 E8.26192
G1 X82.875 Y94.186 E8.29309
G1 X83.237 Y93.321 E8.32428
G1 X83.672 Y92.49 E8.35548
G1 X84.176 Y91.699 E8.38667
G1 X84.746 Y90.954 E8.41787
G1 X85.377 Y90.26 E8.44907
G0 F6000 X85.769 Y90.434
G1 F1200 X86.454 Y89.819 E8.47969
G1 X87.189 Y89.265 E8.5103
G1 X87.97 Y88.777 E8.54093
G1 X88.79 Y88.358 E8.57156
G1 X89.643 Y88.013 E8.60216
G1 X90.523 Y87.742 E8.63279
G1 X91.423 Y87.55 E8.66339
G1 X92.337 Y87.436 E8.69403
G1 X92.895 Y87.405 E8.71262
G1 X93.216 Y87.396 E8.7233
G1 X93.513 Y87.392 E8.73318
G1 X97.556 Y87.392 E8.86765
G1 X100.181 Y87.355 E8.95496
G1 X102.689 Y87.248 E9.03846
G1 X105.209 Y87.07 E9.12248
G1 X107.724 Y86.821 E9.20654
G1 X110.213 Y86.502 E9.29
G1 X112.765 Y86.101 E9.37592
G1 X115.196 Y85.649 E9.45816
G1 X117.688 Y85.113 E9.54294
G1 X120.121 Y84.517 E9.62626
G1 X122.796 Y83.779 E9.71855
G1 X124.016 Y83.423 E9.76082
G1 X124.91 Y83.203 E9.79144
G1 X125.82 Y83.062 E9.82207
G1 X126.664 Y83.003 E9.85021
G1 X126.993 Y82.993 E9.86116
G1 X127.315 Y82.988 E9.87187
G1 X141.267 Y82.989 E10.33592
G1 X141.965 Y82.999 E10.35913
G1 X142.884 Y83.052 E10.38975
G1 X143.795 Y83.185 E10.42037
G1 X144.691 Y83.396 E10.45099
G1 X145.565 Y83.684 E10.4816
G1 X146.412 Y84.047 E10.51224
G1 X147.223 Y84.482 E10.54285
G1 X147.993 Y84.986 E10.57346
G1 X148.717 Y85.555 E10.60409
G1 X149.389 Y86.185 E10.63473
G1 X150.004 Y86.87 E10.66535
G1 X150.557 Y87.606 E10.69596
G1 X151.044 Y88.387 E10.72658
G1 X151.461 Y89.208 E10.7572
G1 X151.806 Y90.062 E10.78784
G1 X152.075 Y90.942 E10.81844
G1 X152.267 Y91.843 E10.84908
G1 X152.38 Y92.756 E10.87968
G1 X152.409 Y93.3 E10.8978
G1 X152.418 Y93.62 E10.90845
G1 X152.422 Y93.918 E10.91836
G1 X152.421 Y140.807 E12.4779
G1 X152.412 Y141.534 E12.50208
G1 X152.361 Y142.453 E12.53269
G1 X152.23 Y143.365 E12.56334
G1 X152.02 Y144.261 E12.59394
G1 X151.734 Y145.136 E12.62456
G1 X151.373 Y145.983 E12.65519
G1 X150.939 Y146.795 E12.68581
G1 X150.437 Y147.567 E12.71644
G1 X149.869 Y148.292 E12.74707
G1 X149.241 Y148.965 E12.77768
G1 X148.557 Y149.581 E12.8083
G1 X147.822 Y150.135 E12.83891
G1 X147.042 Y150.624 E12.86953
G1 X146.222 Y151.043 E12.90016
G1 X145.369 Y151.389 E12.93078
G1 X144.489 Y151.66 E12.9614
G1 X143.589 Y151.853 E12.99202
G1 X142.675 Y151.968 E13.02266
G1 X142.11 Y151.999 E13.04148
G1 X141.789 Y152.008 E13.05216
G1 X141.492 Y152.012 E13.06204
G1 X127.541 Y152.011 E13.52605
G1 X126.841 Y152.001 E13.54933
G1 X125.921 Y151.948 E13.57998
G1 X125.01 Y151.815 E13.6106
G1 X124.276 Y151.648 E13.63564
G1 X123.95 Y151.559 E13.64688
G1 X121.485 Y150.842 E13.73226
G1 X119.035 Y150.204 E13.81647
G1 X116.591 Y149.641 E13.89989
G1 X114.096 Y149.14 E13.98453
G1 X111.608 Y148.715 E14.06848
G1 X109.112 Y148.359 E14.15233
G1 X106.606 Y148.074 E14.23622
G1 X104.069 Y147.858 E14.32091
G1 X101.565 Y147.716 E14.40432
G1 X98.985 Y147.642 E14.49017
G1 X97.676 Y147.633 E14.53371
G1 X93.89 Y147.633 E14.65963
G1 X93.04 Y147.622 E14.68791
G1 X92.121 Y147.569 E14.71852
G1 X91.21 Y147.436 E14.74914
G1 X90.314 Y147.225 E14.77976
G1 X89.44 Y146.937 E14.81037
G1 X88.593 Y146.574 E14.84102
G1 X87.782 Y146.139 E14.87163
G1 X87.012 Y145.635 E14.90223
G1 X86.288 Y145.066 E14.93286
G1 X85.616 Y144.436 E14.9635
G1 X85.001 Y143.751 E14.99412
G1 X84.448 Y143.015 E15.02474
G1 X83.961 Y142.234 E15.05535
G1 X83.544 Y141.413 E15.08598
G1 X83.199 Y140.559 E15.11661
G1 X82.93 Y139.679 E15.14722
G1 X82.738 Y138.778 E15.17786
G1 X82.625 Y137.865 E15.20845
G1 X82.596 Y137.31 E15.22694
G1 X82.587 Y136.978 E15.23799
G1 X82.583 Y136.691 E15.24753
G1 X82.584 Y98.552 E16.51604
G1 X82.593 Y97.863 E16.53896
G1 X82.645 Y96.943 E16.56961
G1 X82.776 Y96.032 E16.60022
G1 X82.987 Y95.136 E16.63083
G1 X83.274 Y94.261 E16.66146
G1 X83.636 Y93.415 E16.69207
G1 X84.07 Y92.603 E16.72269
G1 X84.572 Y91.831 E16.75332
G1 X85.14 Y91.107 E16.78393
G1 X85.769 Y90.434 E16.81456
G0 F6000 X86.16 Y90.612
G1 F1200 X86.842 Y90.019 E16.84462
G1 X87.573 Y89.489 E16.87465
G1 X88.347 Y89.025 E16.90467
G1 X89.16 Y88.632 E16.9347
G1 X90.005 Y88.312 E16.96476
G1 X90.875 Y88.068 E16.99481
G1 X91.762 Y87.902 E17.02482
G1 X92.906 Y87.805 E17.06301
G1 X93.227 Y87.796 E17.07369
G1 X93.513 Y87.792 E17.0832
G1 X97.562 Y87.792 E17.21787
G1 X100.168 Y87.755 E17.30456
G1 X102.733 Y87.646 E17.38995
G1 X105.24 Y87.468 E17.47354
G1 X107.781 Y87.217 E17.55847
G1 X110.289 Y86.896 E17.64256
G1 X112.794 Y86.502 E17.7269
G1 X115.281 Y86.04 E17.81104
G1 X117.795 Y85.499 E17.89657
G1 X120.217 Y84.906 E17.9795
G1 X122.824 Y84.187 E18.06945
G1 X124.128 Y83.806 E18.11463
G1 X125.006 Y83.592 E18.14469
G1 X125.898 Y83.456 E18.1747
G1 X126.676 Y83.403 E18.20064
G1 X127.005 Y83.393 E18.21159
G1 X127.315 Y83.388 E18.2219
G1 X141.261 Y83.389 E18.68574
G1 X141.959 Y83.399 E18.70896
G1 X142.861 Y83.452 E18.73901
G1 X143.754 Y83.584 E18.76904
G1 X144.632 Y83.795 E18.79907
G1 X145.488 Y84.083 E18.82911
G1 X146.315 Y84.445 E18.85914
G1 X147.107 Y84.88 E18.88919
G1 X147.858 Y85.382 E18.91923
G1 X148.561 Y85.949 E18.94927
G1 X149.211 Y86.576 E18.97931
G1 X149.803 Y87.258 E19.00935
G1 X150.333 Y87.989 E19.03938
G1 X150.795 Y88.765 E19.06942
G1 X151.188 Y89.578 E19.09945
G1 X151.506 Y90.423 E19.12948
G1 X151.749 Y91.293 E19.15952
G1 X151.914 Y92.181 E19.18957
G1 X152.009 Y93.311 E19.22728
G1 X152.018 Y93.631 E19.23793
G1 X152.022 Y93.918 E19.24748
G1 X152.021 Y140.802 E20.80684
G1 X152.012 Y141.529 E20.83103
G1 X151.961 Y142.431 E20.86107
G1 X151.83 Y143.325 E20.89113
G1 X151.621 Y144.203 E20.92115
G1 X151.335 Y145.06 E20.95119
G1 X150.974 Y145.888 E20.98124
G1 X150.542 Y146.68 E21.01124
G1 X150.041 Y147.432 E21.0413
G1 X149.475 Y148.136 E21.07134
G1 X148.85 Y148.787 E21.10136
G1 X148.169 Y149.381 E21.13141
G1 X147.438 Y149.912 E21.16146
G1 X146.664 Y150.376 E21.19148
G1 X145.851 Y150.77 E21.22153
G1 X145.007 Y151.09 E21.25155
G1 X144.137 Y151.335 E21.28161
G1 X143.25 Y151.501 E21.31162
G1 X142.099 Y151.599 E21.35005
G1 X141.778 Y151.608 E21.36073
G1 X141.492 Y151.612 E21.37024
G1 X127.546 Y151.611 E21.83409
G1 X126.846 Y151.601 E21.85737
G1 X125.945 Y151.548 E21.88739
G1 X125.051 Y151.416 E21.91745
G1 X124.379 Y151.262 E21.94038
G1 X124.062 Y151.174 E21.95132
G1 X121.626 Y150.466 E22.03569
G1 X119.154 Y149.822 E22.12066
G1 X116.654 Y149.246 E22.20598
G1 X114.171 Y148.747 E22.29022
G1 X111.666 Y148.319 E22.37474
G1 X109.142 Y147.96 E22.45954
G1 X106.649 Y147.676 E22.54299
G1 X104.125 Y147.461 E22.62724
G1 X101.565 Y147.316 E22.71253
G1 X98.998 Y147.242 E22.79794
G1 X97.679 Y147.233 E22.84181
G1 X93.89 Y147.233 E22.96784
G1 X93.046 Y147.222 E22.99591
G1 X92.144 Y147.169 E23.02596
G1 X91.251 Y147.037 E23.05599
G1 X90.373 Y146.826 E23.08602
G1 X89.517 Y146.538 E23.11606
G1 X88.69 Y146.176 E23.14608
G1 X87.898 Y145.741 E23.17614
G1 X87.147 Y145.239 E23.20618
G1 X86.444 Y144.672 E23.23622
G1 X85.794 Y144.045 E23.26626
G1 X85.202 Y143.363 E23.2963
G1 X84.672 Y142.632 E23.32633
G1 X84.21 Y141.856 E23.35637
G1 X83.817 Y141.043 E23.3864
G1 X83.499 Y140.198 E23.41643
G1 X83.256 Y139.328 E23.44647
G1 X83.091 Y138.44 E23.47651
G1 X82.996 Y137.299 E23.51459
G1 X82.987 Y136.967 E23.52564
G1 X82.983 Y136.691 E23.53482
G1 X82.984 Y98.557 E24.80316
G1 X82.993 Y97.868 E24.82608
G1 X83.045 Y96.966 E24.85613
G1 X83.176 Y96.073 E24.88615
G1 X83.386 Y95.194 E24.91621
G1 X83.672 Y94.338 E24.94623
G1 X84.034 Y93.51 E24.97628
G1 X84.467 Y92.718 E25.00631
G1 X84.968 Y91.967 E25.03633
G1 X85.534 Y91.263 E25.06638
G1 X86.16 Y90.612 E25.09642
G1 F2700 E20.09642
;MESH:waterlevelsensor.stl
G0 F6000 X106.658 Y97.339
G0 X106.663 Y103.96
G0 X131.941 Y120.419
G0 X130.506 Y120.419
G0 X130.676 Y122.346
;TYPE:WALL-INNER
G1 F2700 E25.09642
G1 F1200 X138.97 Y122.346 E25.37228
G1 X138.97 Y112.398 E25.70315
G1 X130.676 Y112.398 E25.97901
G1 X130.676 Y122.346 E26.30988
G0 F6000 X131.076 Y121.946
;TYPE:WALL-OUTER
G1 F1200 X138.57 Y121.946 E26.55913
G1 X138.57 Y112.798 E26.86339
G1 X131.076 Y112.798 E27.11265
G1 X131.076 Y121.946 E27.41691
G1 F2700 E22.41691
G0 F6000 X130.776 Y121.946
G0 X130.48 Y122.542
G0 X127.795 Y122.542
G0 X127.585 Y140.812
;TYPE:WALL-INNER
G1 F2700 E27.41691
G1 F1200 X127.585 Y94.188 E28.96763
G1 X141.222 Y94.188 E29.4212
G1 X141.222 Y140.812 E30.97192
G1 X127.585 Y140.812 E31.42549
G0 F6000 X127.185 Y141.212
;TYPE:WALL-OUTER
G1 F1200 X127.185 Y93.788 E33.00282
G1 X141.622 Y93.788 E33.48299
G1 X141.622 Y141.212 E35.06032
G1 X127.185 Y141.212 E35.5405
G0 F6000 X127.455 Y140.942
G0 X127.695 Y140.422
G0 X127.975 Y140.422
;TYPE:SKIN
G1 F1200 X127.975 Y94.578 E37.06527
G1 X140.832 Y94.578 E37.4929
G1 X140.832 Y140.422 E39.01768
G1 X127.975 Y140.422 E39.4453
G1 F2700 E34.4453
G0 F6000 X127.695 Y140.422
G0 X127.795 Y122.486
G0 X130.486 Y122.486
G1 F2700 E39.4453
G0 F6000 X130.286 Y122.736
G1 F1200 X139.36 Y122.736 E39.74711
G1 X139.36 Y112.008 E40.10392
G1 X130.286 Y112.008 E40.40572
G1 X130.286 Y122.736 E40.76254
G1 F2700 E35.76254
G0 F6000 X130.566 Y122.486
G0 X132.769 Y122.516
G0 X132.769 Y121.081
G0 X130.48 Y142.077
G0 X130.48 Y140.602
G0 X128.382 Y140.702
G1 F2700 E40.76254
G0 F6000 X128.382 Y140.261
G1 F1200 X128.134 Y140.014 E40.77418
G0 F6000 X128.134 Y139.448
G1 F1200 X128.947 Y140.261 E40.81242
G0 F6000 X129.513 Y140.261
G1 F1200 X128.134 Y138.882 E40.87728
G0 F6000 X128.134 Y138.317
G1 F1200 X130.079 Y140.261 E40.96875
G0 F6000 X130.645 Y140.261
G1 F1200 X128.134 Y137.751 E41.08683
G0 F6000 X128.134 Y137.185
G1 F1200 X131.21 Y140.261 E41.23152
G0 F6000 X131.776 Y140.261
G1 F1200 X128.134 Y136.62 E41.4028
G0 F6000 X128.134 Y136.054
G1 F1200 X132.342 Y140.261 E41.60071
G0 F6000 X132.907 Y140.261
G1 F1200 X128.134 Y135.488 E41.82522
G0 F6000 X128.134 Y134.923
G1 F1200 X133.473 Y140.261 E42.07633
G0 F6000 X134.039 Y140.261
G1 F1200 X128.134 Y134.357 E42.35406
G0 F6000 X128.134 Y133.791
G1 F1200 X134.604 Y140.261 E42.65839
G0 F6000 X135.17 Y140.261
G1 F1200 X128.134 Y133.225 E42.98934
G0 F6000 X128.134 Y132.66
G1 F1200 X135.736 Y140.261 E43.34689
G0 F6000 X136.301 Y140.261
G1 F1200 X128.134 Y132.094 E43.73104
G0 F6000 X128.134 Y131.528
G1 F1200 X136.867 Y140.261 E44.14181
G0 F6000 X137.433 Y140.261
G1 F1200 X128.134 Y130.963 E44.57919
G0 F6000 X128.134 Y130.397
G1 F1200 X137.998 Y140.261 E45.04316
G0 F6000 X138.564 Y140.261
G1 F1200 X128.134 Y129.831 E45.53375
G0 F6000 X128.134 Y129.266
G1 F1200 X139.13 Y140.261 E46.05095
G0 F6000 X139.696 Y140.261
G1 F1200 X128.134 Y128.7 E46.59477
G0 F6000 X128.134 Y128.134
G1 F1200 X140.261 Y140.261 E47.16518
G0 F6000 X140.671 Y140.106
G1 F1200 X128.134 Y127.569 E47.75488
G0 F6000 X128.134 Y127.003
G1 F1200 X140.671 Y139.54 E48.34459
G0 F6000 X140.671 Y138.974
G1 F1200 X128.134 Y126.437 E48.93429
G0 F6000 X128.134 Y125.872
G1 F1200 X140.671 Y138.409 E49.52399
G0 F6000 X140.671 Y137.843
G1 F1200 X128.134 Y125.306 E50.11369
G0 F6000 X128.134 Y124.74
G1 F1200 X140.671 Y137.277 E50.70339
G0 F6000 X140.671 Y136.712
G1 F1200 X128.134 Y124.175 E51.2931
G0 F6000 X128.134 Y123.609
G1 F1200 X140.671 Y136.146 E51.8828
G0 F6000 X140.671 Y135.58
G1 F1200 X128.134 Y123.043 E52.4725
G0 F6000 X128.134 Y122.477
G1 F1200 X140.671 Y135.014 E53.0622
G0 F6000 X140.671 Y134.449
G1 F1200 X128.134 Y121.912 E53.6519
G0 F6000 X128.134 Y121.346
G1 F1200 X140.671 Y133.883 E54.24161
G0 F6000 X140.671 Y133.317
G1 F1200 X130.25 Y122.896 E54.73178
G1 X130.125 Y122.771
G1 X128.134 Y120.78 E54.82543
G0 F6000 X128.134 Y120.215
G1 F1200 X130.125 Y122.205 E54.91906
G0 F6000 X130.125 Y121.64
G1 F1200 X128.134 Y119.649 E55.01271
G0 F6000 X128.134 Y119.083
G1 F1200 X130.125 Y121.074 E55.10636
G0 F6000 X130.125 Y120.508
G1 F1200 X128.134 Y118.518 E55.19998
G0 F6000 X128.134 Y117.952
G1 F1200 X130.125 Y119.942 E55.29361
G0 F6000 X130.125 Y119.377
G1 F1200 X128.134 Y117.386 E55.38726
G0 F6000 X128.134 Y116.821
G1 F1200 X130.125 Y118.811 E55.48089
G0 F6000 X130.125 Y118.245
G1 F1200 X128.134 Y116.255 E55.57452
G0 F6000 X128.134 Y115.689
