;FLAVOR:Marlin
;TIME:6869
;Filament used: 3.13851m
;Layer height: 0.2
;MINX:74.683
;MINY:75.088
;MINZ:0.2
;MAXX:145.322
;MAXY:144.912
;MAXZ:39.4
;Generated with Cura_SteamEngine master
M140 S60
M105
M190 S60
M104 S208
M105
M109 S208
M82 ;absolute extrusion mode
; Ender 3 Custom Start G-code
G92 E0 ; Reset Extruder
G28 ; Home all axes
G1 Z2.0 F3000 ; Move Z Axis up little to prevent scratching of Heat Bed
G1 X0.1 Y20 Z0.3 F5000.0 ; Move to start position
G1 X0.1 Y200.0 Z0.3 F1500.0 E15 ; Draw the first line
G1 X0.4 Y200.0 Z0.3 F5000.0 ; Move to side a little
G1 X0.4 Y20 Z0.3 F1500.0 E30 ; Draw the second line
G92 E0 ; Reset Extruder
G1 Z2.0 F3000 ; Move Z Axis up little to prevent scratching of Heat Bed
G1 X5 Y20 Z0.3 F5000.0 ; Move over to prevent blob squish
G92 E0
G92 E0
G1 F1500 E-6.5
;LAYER_COUNT:197
;LAYER:0
M107
G0 F6000 X77.877 Y82.76 Z0.2
;TYPE:SKIRT
G1 F1500 E0
G1 F1200 X78.565 Y82.122 E0.03121
G1 X79.304 Y81.546 E0.06237
G1 X80.09 Y81.034 E0.09357
G1 X80.917 Y80.591 E0.12477
G1 X81.779 Y80.221 E0.15597
G1 X82.669 Y79.925 E0.18717
G1 X83.581 Y79.706 E0.21837
G1 X84.508 Y79.565 E0.24955
G1 X85.384 Y79.505 E0.27876
G1 X85.705 Y79.496 E0.28944
G1 X86.013 Y79.492 E0.29968
G1 X90.05 Y79.492 E0.43395
G1 X92.658 Y79.455 E0.5207
G1 X95.179 Y79.348 E0.60463
G1 X97.674 Y79.171 E0.68782
G1 X100.174 Y78.923 E0.77138
G1 X102.667 Y78.604 E0.85497
G1 X105.16 Y78.213 E0.9389
G1 X107.65 Y77.75 E1.02314
G1 X110.114 Y77.22 E1.10697
G1 X112.525 Y76.629 E1.18953
G1 X115.143 Y75.907 E1.27986
G1 X116.404 Y75.539 E1.32355
G1 X117.315 Y75.314 E1.35476
G1 X118.241 Y75.169 E1.38593
G1 X119.152 Y75.103 E1.41631
G1 X119.481 Y75.093 E1.42726
G1 X119.815 Y75.088 E1.43837
G1 X133.773 Y75.089 E1.90262
G1 X134.471 Y75.099 E1.92583
G1 X135.407 Y75.153 E1.95702
G1 X136.335 Y75.285 E1.98819
G1 X137.249 Y75.497 E2.0194
G1 X138.141 Y75.786 E2.05059
G1 X139.006 Y76.149 E2.08179
G1 X139.836 Y76.585 E2.11297
G1 X140.627 Y77.09 E2.14418
G1 X141.371 Y77.661 E2.17538
G1 X142.064 Y78.293 E2.20657
G1 X142.701 Y78.981 E2.23776
G1 X143.276 Y79.722 E2.26895
G1 X143.787 Y80.508 E2.30013
G1 X144.229 Y81.336 E2.33135
G1 X144.598 Y82.198 E2.36254
G1 X144.893 Y83.088 E2.39372
G1 X145.111 Y84 E2.42491
G1 X145.251 Y84.928 E2.45613
G1 X145.309 Y85.789 E2.48483
G1 X145.318 Y86.109 E2.49548
G1 X145.322 Y86.418 E2.50575
G1 X145.321 Y133.312 E4.06545
G1 X145.312 Y134.039 E4.08964
G1 X145.261 Y134.976 E4.12085
G1 X145.129 Y135.904 E4.15202
G1 X144.92 Y136.818 E4.18321
G1 X144.633 Y137.711 E4.21441
G1 X144.271 Y138.577 E4.24562
G1 X143.837 Y139.408 E4.27681
G1 X143.333 Y140.199 E4.308
G1 X142.764 Y140.944 E4.33918
G1 X142.133 Y141.639 E4.3704
G1 X141.446 Y142.277 E4.40159
G1 X140.707 Y142.854 E4.43277
G1 X139.921 Y143.366 E4.46397
G1 X139.095 Y143.809 E4.49514
G1 X138.233 Y144.181 E4.52637
G1 X137.344 Y144.477 E4.55753
G1 X136.432 Y144.697 E4.58874
G1 X135.505 Y144.838 E4.61992
G1 X134.621 Y144.899 E4.6494
G1 X134.3 Y144.908 E4.66008
G1 X133.992 Y144.912 E4.67032
G1 X120.035 Y144.911 E5.13453
G1 X119.335 Y144.901 E5.15782
G1 X118.399 Y144.848 E5.189
G1 X117.47 Y144.715 E5.22021
G1 X116.674 Y144.535 E5.24736
G1 X116.338 Y144.443 E5.25894
G1 X113.878 Y143.728 E5.34415
G1 X111.449 Y143.095 E5.42764
G1 X108.994 Y142.53 E5.51142
G1 X106.515 Y142.031 E5.59553
G1 X104.062 Y141.613 E5.67829
G1 X101.546 Y141.254 E5.76282
G1 X99.056 Y140.971 E5.84617
G1 X96.55 Y140.757 E5.92983
G1 X94.033 Y140.615 E6.01368
G1 X91.516 Y140.542 E6.09743
G1 X90.173 Y140.533 E6.1421
G1 X86.39 Y140.533 E6.26792
G1 X85.534 Y140.522 E6.29639
G1 X84.598 Y140.468 E6.32758
G1 X83.67 Y140.336 E6.35875
G1 X82.756 Y140.124 E6.38996
G1 X81.864 Y139.835 E6.42115
G1 X80.999 Y139.472 E6.45235
G1 X80.169 Y139.036 E6.48353
G1 X79.378 Y138.531 E6.51474
G1 X78.634 Y137.96 E6.54594
G1 X77.941 Y137.328 E6.57713
G1 X77.304 Y136.64 E6.60832
G1 X76.729 Y135.899 E6.63951
G1 X76.218 Y135.113 E6.67069
G1 X75.776 Y134.285 E6.70191
G1 X75.407 Y133.423 E6.7331
G1 X75.112 Y132.533 E6.76428
G1 X74.894 Y131.621 E6.79547
G1 X74.754 Y130.693 E6.82668
G1 X74.696 Y129.821 E6.85575
G1 X74.687 Y129.489 E6.8668
G1 X74.683 Y129.191 E6.87671
G1 X74.684 Y91.046 E8.14542
G1 X74.693 Y90.357 E8.16834
G1 X74.745 Y89.421 E8.19952
G1 X74.877 Y88.492 E8.23072
G1 X75.087 Y87.578 E8.26192
G1 X75.375 Y86.686 E8.29309
G1 X75.737 Y85.821 E8.32428
G1 X76.172 Y84.99 E8.35548
G1 X76.676 Y84.199 E8.38667
G1 X77.246 Y83.454 E8.41787
G1 X77.877 Y82.76 E8.44907
G0 F6000 X78.269 Y82.934
G1 F1200 X78.954 Y82.319 E8.47969
G1 X79.689 Y81.765 E8.5103
G1 X80.47 Y81.277 E8.54093
G1 X81.29 Y80.858 E8.57156
G1 X82.143 Y80.513 E8.60216
G1 X83.023 Y80.242 E8.63279
G1 X83.923 Y80.05 E8.66339
G1 X84.837 Y79.936 E8.69403
G1 X85.395 Y79.905 E8.71262
G1 X85.716 Y79.896 E8.7233
G1 X86.013 Y79.892 E8.73318
G1 X90.056 Y79.892 E8.86765
G1 X92.681 Y79.855 E8.95496
G1 X95.189 Y79.748 E9.03846
G1 X97.709 Y79.57 E9.12248
G1 X100.224 Y79.321 E9.20654
G1 X102.713 Y79.002 E9.29
G1 X105.265 Y78.601 E9.37592
G1 X107.696 Y78.149 E9.45816
G1 X110.188 Y77.613 E9.54294
G1 X112.621 Y77.017 E9.62626
G1 X115.296 Y76.279 E9.71855
G1 X116.516 Y75.923 E9.76082
G1 X117.41 Y75.703 E9.79144
G1 X118.32 Y75.562 E9.82207
G1 X119.164 Y75.503 E9.85021
G1 X119.493 Y75.493 E9.86116
G1 X119.815 Y75.488 E9.87187
G1 X133.767 Y75.489 E10.33592
G1 X134.465 Y75.499 E10.35913
G1 X135.384 Y75.552 E10.38975
G1 X136.295 Y75.685 E10.42037
G1 X137.191 Y75.896 E10.45099
G1 X138.065 Y76.184 E10.4816
G1 X138.912 Y76.547 E10.51224
G1 X139.723 Y76.982 E10.54285
G1 X140.493 Y77.486 E10.57346
G1 X141.217 Y78.055 E10.60409
G1 X141.889 Y78.685 E10.63473
G1 X142.504 Y79.37 E10.66535
G1 X143.057 Y80.106 E10.69596
G1 X143.544 Y80.887 E10.72658
G1 X143.961 Y81.708 E10.7572
G1 X144.306 Y82.562 E10.78784
G1 X144.575 Y83.442 E10.81844
G1 X144.767 Y84.343 E10.84908
G1 X144.88 Y85.256 E10.87968
G1 X144.909 Y85.8 E10.8978
G1 X144.918 Y86.12 E10.90845
G1 X144.922 Y86.418 E10.91836
G1 X144.921 Y133.307 E12.4779
G1 X144.912 Y134.034 E12.50208
G1 X144.861 Y134.953 E12.53269
G1 X144.73 Y135.865 E12.56334
G1 X144.52 Y136.761 E12.59394
G1 X144.234 Y137.636 E12.62456
G1 X143.873 Y138.483 E12.65519
G1 X143.439 Y139.295 E12.68581
G1 X142.937 Y140.067 E12.71644
G1 X142.369 Y140.792 E12.74707
G1 X141.741 Y141.465 E12.77768
G1 X141.057 Y142.081 E12.8083
G1 X140.322 Y142.635 E12.83891
G1 X139.542 Y143.124 E12.86953
G1 X138.722 Y143.543 E12.90016
G1 X137.869 Y143.889 E12.93078
G1 X136.989 Y144.16 E12.9614
G1 X136.089 Y144.353 E12.99202
G1 X135.175 Y144.468 E13.02266
G1 X134.61 Y144.499 E13.04148
G1 X134.289 Y144.508 E13.05216
G1 X133.992 Y144.512 E13.06204
G1 X120.041 Y144.511 E13.52605
G1 X119.341 Y144.501 E13.54933
G1 X118.421 Y144.448 E13.57998
G1 X117.51 Y144.315 E13.6106
G1 X116.776 Y144.148 E13.63564
G1 X116.45 Y144.059 E13.64688
G1 X113.985 Y143.342 E13.73226
G1 X111.535 Y142.704 E13.81647
G1 X109.091 Y142.141 E13.89989
G1 X106.596 Y141.64 E13.98453
G1 X104.108 Y141.215 E14.06848
G1 X101.612 Y140.859 E14.15233
G1 X99.106 Y140.574 E14.23622
G1 X96.569 Y140.358 E14.32091
G1 X94.065 Y140.216 E14.40432
G1 X91.485 Y140.142 E14.49017
G1 X90.176 Y140.133 E14.53371
G1 X86.39 Y140.133 E14.65963
G1 X85.54 Y140.122 E14.68791
G1 X84.621 Y140.069 E14.71852
G1 X83.71 Y139.936 E14.74914
G1 X82.814 Y139.725 E14.77976
G1 X81.94 Y139.437 E14.81037
G1 X81.093 Y139.074 E14.84102
G1 X80.282 Y138.639 E14.87163
G1 X79.512 Y138.135 E14.90223
G1 X78.788 Y137.566 E14.93286
G1 X78.116 Y136.936 E14.9635
G1 X77.501 Y136.251 E14.99412
G1 X76.948 Y135.515 E15.02474
G1 X76.461 Y134.734 E15.05535
G1 X76.044 Y133.913 E15.08598
G1 X75.699 Y133.059 E15.11661
G1 X75.43 Y132.179 E15.14722
G1 X75.238 Y131.278 E15.17786
G1 X75.125 Y130.365 E15.20845
G1 X75.096 Y129.81 E15.22694
G1 X75.087 Y129.478 E15.23799
G1 X75.083 Y129.191 E15.24753
G1 X75.084 Y91.052 E16.51604
G1 X75.093 Y90.363 E16.53896
G1 X75.145 Y89.443 E16.56961
G1 X75.276 Y88.532 E16.60022
G1 X75.487 Y87.636 E16.63083
G1 X75.774 Y86.761 E16.66146
G1 X76.136 Y85.915 E16.69207
G1 X76.57 Y85.103 E16.72269
G1 X77.072 Y84.331 E16.75332
G1 X77.64 Y83.607 E16.78393
G1 X78.269 Y82.934 E16.81456
G0 F6000 X78.66 Y83.112
G1 F1200 X79.342 Y82.519 E16.84462
G1 X80.073 Y81.989 E16.87465
G1 X80.847 Y81.525 E16.90467
G1 X81.66 Y81.132 E16.9347
G1 X82.505 Y80.812 E16.96476
G1 X83.375 Y80.568 E16.99481
G1 X84.262 Y80.402 E17.02482
G1 X85.406 Y80.305 E17.06301
G1 X85.727 Y80.296 E17.07369
G1 X86.013 Y80.292 E17.0832
G1 X90.062 Y80.292 E17.21787
G1 X92.668 Y80.255 E17.30456
G1 X95.233 Y80.146 E17.38995
G1 X97.74 Y79.968 E17.47354
G1 X100.281 Y79.717 E17.55847
G1 X102.789 Y79.396 E17.64256
G1 X105.294 Y79.002 E17.7269
G1 X107.781 Y78.54 E17.81104
G1 X110.295 Y77.999 E17.89657
G1 X112.717 Y77.406 E17.9795
G1 X115.324 Y76.687 E18.06945
G1 X116.628 Y76.306 E18.11463
G1 X117.506 Y76.092 E18.14469
G1 X118.398 Y75.956 E18.1747
G1 X119.176 Y75.903 E18.20064
G1 X119.505 Y75.893 E18.21159
G1 X119.815 Y75.888 E18.2219
G1 X133.761 Y75.889 E18.68574
G1 X134.459 Y75.899 E18.70896
G1 X135.361 Y75.952 E18.73901
G1 X136.254 Y76.084 E18.76904
G1 X137.132 Y76.295 E18.79907
G1 X137.988 Y76.583 E18.82911
G1 X138.815 Y76.945 E18.85914
G1 X139.607 Y77.38 E18.88919
G1 X140.358 Y77.882 E18.91923
G1 X141.061 Y78.449 E18.94927
G1 X141.711 Y79.076 E18.97931
G1 X142.303 Y79.758 E19.00935
G1 X142.833 Y80.489 E19.03938
G1 X143.295 Y81.265 E19.06942
G1 X143.688 Y82.078 E19.09945
G1 X144.006 Y82.923 E19.12948
G1 X144.249 Y83.793 E19.15952
G1 X144.414 Y84.681 E19.18957
G1 X144.509 Y85.811 E19.22728
G1 X144.518 Y86.131 E19.23793
G1 X144.522 Y86.418 E19.24748
G1 X144.521 Y133.302 E20.80684
G1 X144.512 Y134.029 E20.83103
G1 X144.461 Y134.931 E20.86107
G1 X144.33 Y135.825 E20.89113
G1 X144.121 Y136.703 E20.92115
G1 X143.835 Y137.56 E20.95119
G1 X143.474 Y138.388 E20.98124
G1 X143.042 Y139.18 E21.01124
G1 X142.541 Y139.932 E21.0413
G1 X141.975 Y140.636 E21.07134
G1 X141.35 Y141.287 E21.10136
G1 X140.669 Y141.881 E21.13141
G1 X139.938 Y142.412 E21.16146
G1 X139.164 Y142.876 E21.19148
G1 X138.351 Y143.27 E21.22153
G1 X137.507 Y143.59 E21.25155
G1 X136.637 Y143.835 E21.28161
G1 X135.75 Y144.001 E21.31162
G1 X134.599 Y144.099 E21.35005
G1 X134.278 Y144.108 E21.36073
G1 X133.992 Y144.112 E21.37024
G1 X120.046 Y144.111 E21.83409
G1 X119.346 Y144.101 E21.85737
G1 X118.445 Y144.048 E21.88739
G1 X117.551 Y143.916 E21.91745
G1 X116.879 Y143.762 E21.94038
G1 X116.562 Y143.674 E21.95132
G1 X114.126 Y142.966 E22.03569
G1 X111.654 Y142.322 E22.12066
G1 X109.154 Y141.746 E22.20598
G1 X106.671 Y141.247 E22.29022
G1 X104.166 Y140.819 E22.37474
G1 X101.642 Y140.46 E22.45954
G1 X99.149 Y140.176 E22.54299
G1 X96.625 Y139.961 E22.62724
G1 X94.065 Y139.816 E22.71253
G1 X91.498 Y139.742 E22.79794
G1 X90.179 Y139.733 E22.84181
G1 X86.39 Y139.733 E22.96784
G1 X85.546 Y139.722 E22.99591
G1 X84.644 Y139.669 E23.02596
G1 X83.751 Y139.537 E23.05599
G1 X82.873 Y139.326 E23.08602
G1 X82.017 Y139.038 E23.11606
G1 X81.19 Y138.676 E23.14608
G1 X80.398 Y138.241 E23.17614
G1 X79.647 Y137.739 E23.20618
G1 X78.944 Y137.172 E23.23622
G1 X78.294 Y136.545 E23.26626
G1 X77.702 Y135.863 E23.2963
G1 X77.172 Y135.132 E23.32633
G1 X76.71 Y134.356 E23.35637
G1 X76.317 Y133.543 E23.3864
G1 X75.999 Y132.698 E23.41643
G1 X75.756 Y131.828 E23.44647
G1 X75.591 Y130.94 E23.47651
G1 X75.496 Y129.799 E23.51459
G1 X75.487 Y129.467 E23.52564
G1 X75.483 Y129.191 E23.53482
G1 X75.484 Y91.057 E24.80316
G1 X75.493 Y90.368 E24.82608
G1 X75.545 Y89.466 E24.85613
G1 X75.676 Y88.573 E24.88615
G1 X75.886 Y87.694 E24.91621
G1 X76.172 Y86.838 E24.94623
G1 X76.534 Y86.01 E24.97628
G1 X76.967 Y85.218 E25.00631
G1 X77.468 Y84.467 E25.03633
G1 X78.034 Y83.763 E25.06638
G1 X78.66 Y83.112 E25.09642
G1 F1500 E18.59642
;MESH:waterlevelsensor.stl
G0 F6000 X99.158 Y89.839
G0 X99.163 Y96.46
G0 X124.441 Y112.919
G0 X123.006 Y112.919
G0 X123.176 Y114.846
;TYPE:WALL-INNER
G1 F1500 E25.09642
G1 F1200 X131.47 Y114.846 E25.37228
G1 X131.47 Y104.898 E25.70315
G1 X123.176 Y104.898 E25.97901
G1 X123.176 Y114.846 E26.30988
G0 F6000 X123.576 Y114.446
;TYPE:WALL-OUTER
G1 F1200 X131.07 Y114.446 E26.55913
G1 X131.07 Y105.298 E26.86339
G1 X123.576 Y105.298 E27.11265
G1 X123.576 Y114.446 E27.41691
G1 F1500 E20.91691
G0 F6000 X123.276 Y114.446
G0 X122.98 Y115.042
G0 X120.295 Y115.042
G0 X120.085 Y133.312
;TYPE:WALL-INNER
G1 F1500 E27.41691
G1 F1200 X120.085 Y86.688 E28.96763
G1 X133.722 Y86.688 E29.4212
G1 X133.722 Y133.312 E30.97192
G1 X120.085 Y133.312 E31.42549
G0 F6000 X119.685 Y133.712
;TYPE:WALL-OUTER
G1 F1200 X119.685 Y86.288 E33.00282
G1 X134.122 Y86.288 E33.48299
G1 X134.122 Y133.712 E35.06032
G1 X119.685 Y133.712 E35.5405
G0 F6000 X119.955 Y133.442
G0 X120.195 Y132.922
G0 X120.475 Y132.922
;TYPE:SKIN
G1 F1200 X120.475 Y87.078 E37.06527
G1 X133.332 Y87.078 E37.4929
G1 X133.332 Y132.922 E39.01768
G1 X120.475 Y132.922 E39.4453
G1 F1500 E32.9453
G0 F6000 X120.195 Y132.922
G0 X120.295 Y114.986
G0 X122.986 Y114.986
G1 F1500 E39.4453
G0 F6000 X122.786 Y115.236
G1 F1200 X131.86 Y115.236 E39.74711
G1 X131.86 Y104.508 E40.10392
G1 X122.786 Y104.508 E40.40572
G1 X122.786 Y115.236 E40.76254
G1 F1500 E34.26254
G0 F6000 X123.066 Y114.986
G0 X125.269 Y115.016
G0 X125.269 Y113.581
G0 X122.98 Y134.577
G0 X122.98 Y133.102
G0 X120.882 Y133.202
G1 F1500 E40.76254
G0 F6000 X120.882 Y132.761
G1 F1200 X120.634 Y132.513 E40.7742
G0 F6000 X120.634 Y131.948
G1 F1200 X121.447 Y132.761 E40.81244
G0 F6000 X122.013 Y132.761
G1 F1200 X120.634 Y131.382 E40.87731
G0 F6000 X120.634 Y130.816
G1 F1200 X122.579 Y132.761 E40.9688
G0 F6000 X123.144 Y132.761
G1 F1200 X120.634 Y130.251 E41.08686
G0 F6000 X120.634 Y129.685
G1 F1200 X123.71 Y132.761 E41.23154
G0 F6000 X124.276 Y132.761
G1 F1200 X120.634 Y129.119 E41.40285
G0 F6000 X120.634 Y128.554
G1 F1200 X124.841 Y132.761 E41.60074
G0 F6000 X125.407 Y132.761
G1 F1200 X120.634 Y127.988 E41.82524
G0 F6000 X120.634 Y127.422
G1 F1200 X125.973 Y132.761 E42.07637
G0 F6000 X126.538 Y132.761
G1 F1200 X120.634 Y126.857 E42.35408
G0 F6000 X120.634 Y126.291
G1 F1200 X127.104 Y132.761 E42.65841
G0 F6000 X127.67 Y132.761
G1 F1200 X120.634 Y125.725 E42.98936
G0 F6000 X120.634 Y125.16
G1 F1200 X128.235 Y132.761 E43.34689
G0 F6000 X128.801 Y132.761
G1 F1200 X120.634 Y124.594 E43.73104
G0 F6000 X120.634 Y124.028
G1 F1200 X129.367 Y132.761 E44.14181
G0 F6000 X129.932 Y132.761
G1 F1200 X120.634 Y123.462 E44.57919
G0 F6000 X120.634 Y122.897
G1 F1200 X130.498 Y132.761 E45.04316
G0 F6000 X131.064 Y132.761
G1 F1200 X120.634 Y122.331 E45.53375
G0 F6000 X120.634 Y121.765
G1 F1200 X131.63 Y132.761 E46.05097
G0 F6000 X132.195 Y132.761
G1 F1200 X120.634 Y121.2 E46.59477
G0 F6000 X120.634 Y120.634
G1 F1200 X132.761 Y132.761 E47.16518
G0 F6000 X133.171 Y132.605
G1 F1200 X120.634 Y120.068 E47.75488
G0 F6000 X120.634 Y119.503
G1 F1200 X133.171 Y132.04 E48.34459
G0 F6000 X133.171 Y131.474
G1 F1200 X120.634 Y118.937 E48.93429
G0 F6000 X120.634 Y118.371
G1 F1200 X133.171 Y130.908 E49.52399
G0 F6000 X133.171 Y130.343
G1 F1200 X120.634 Y117.806 E50.11369
G0 F6000 X120.634 Y117.24
G1 F1200 X133.171 Y129.777 E50.70339
G0 F6000 X133.171 Y129.211
G1 F1200 X120.634 Y116.674 E51.2931
G0 F6000 X120.634 Y116.109
G1 F1200 X133.171 Y128.646 E51.8828
G0 F6000 X133.171 Y128.08
G1 F1200 X120.634 Y115.543 E52.4725
G0 F6000 X120.634 Y114.977
G1 F1200 X133.171 Y127.514 E53.0622
G0 F6000 X133.171 Y126.949
G1 F1200 X120.634 Y114.411 E53.65193
G0 F6000 X120.634 Y113.846
G1 F1200 X133.171 Y126.383 E54.24163
G0 F6000 X133.171 Y125.817
G1 F1200 X122.75 Y115.396 E54.7318
G1 X122.625 Y115.271
G1 X120.634 Y113.28 E54.82545
G0 F6000 X120.634 Y112.714
G1 F1200 X122.625 Y114.705 E54.9191
G0 F6000 X122.625 Y114.139
G1 F1200 X120.634 Y112.149 E55.01273
G0 F6000 X120.634 Y111.583
G1 F1200 X122.625 Y113.574 E55.10638
G0 F6000 X122.625 Y113.008
G1 F1200 X120.634 Y111.017 E55.20003
G0 F6000 X120.634 Y110.452
G1 F1200 X122.625 Y112.442 E55.29366
G0 F6000 X122.625 Y111.877
G1 F1200 X120.634 Y109.886 E55.38731
G0 F6000 X120.634 Y109.32
G1 F1200 X122.625 Y111.311 E55.48096
G0 F6000 X122.625 Y110.745
G1 F1200 X120.634 Y108.755 E55.57459
G0 F6000 X120.634 Y108.189
G1 F1200 X122.625 Y110.179 E55.66821
