;FLAVOR:Marlin
;TIME:279
;Filament used: 0.102019m
;Layer height: 0.2
;MINX:101.514
;MINY:97.047
;MINZ:0.2
;MAXX:133.482
;MAXY:137.959
;MAXZ:10
;Generated with Cura_SteamEngine 4.6.1
M140 S57
M105
M190 S57
M104 S208
M105
M109 S208
M82 ;absolute extrusion mode
; Ender 3 Custom Start G-code
G92 E0 ; Reset Extruder
G28 ; Home all axes
G1 Z2.0 F3000 ; Move Z Axis up little to prevent scratching of Heat Bed
G1 X0.1 Y20 Z0.3 F5000.0 ; Move to start position
G1 X0.1 Y200.0 Z0.3 F1500.0 E15 ; Draw the first line
G1 X0.4 Y200.0 Z0.3 F5000.0 ; Move to side a little
G1 X0.4 Y20 Z0.3 F1500.0 E30 ; Draw the second line
G92 E0 ; Reset Extruder
G1 Z2.0 F3000 ; Move Z Axis up little to prevent scratching of Heat Bed
G1 X5 Y20 Z0.3 F5000.0 ; Move over to prevent blob squish
G92 E0
G92 E0
G1 F2700 E-5
;LAYER_COUNT:50
;LAYER:0
M107
G0 F6000 X121.247 Y97.858 Z0.2
;TYPE:SKIRT
G1 F2700 E0
G1 F1200 X122.147 Y97.929 E0.03003
G1 X123.038 Y98.08 E0.06008
G1 X123.498 Y98.19 E0.07582
G1 X123.782 Y98.265 E0.08559
G1 X124.644 Y98.534 E0.11562
G1 X125.479 Y98.878 E0.14566
G1 X126.281 Y99.295 E0.17572
G1 X127.337 Y99.996 E0.21788
G1 X127.708 Y100.277 E0.23336
G1 X128.403 Y100.854 E0.2634
G1 X129.044 Y101.489 E0.29341
G1 X129.627 Y102.18 E0.32348
G1 X130.176 Y102.965 E0.35534
G1 X130.323 Y103.198 E0.3645
G1 X130.77 Y103.983 E0.39455
G1 X131.147 Y104.804 E0.4246
G1 X131.47 Y105.723 E0.457
G1 X131.553 Y106.001 E0.46665
G1 X131.791 Y106.969 E0.4998
G1 X132.015 Y108.122 E0.53887
G1 X132.467 Y110.539 E0.62065
G1 X132.617 Y111.718 E0.66018
G1 X132.659 Y112.332 E0.68065
G1 X132.682 Y113.154 E0.708
G1 X132.679 Y113.396 E0.71605
G1 X132.646 Y114.097 E0.73939
G1 X132.57 Y115.007 E0.76976
G1 X132.327 Y117.385 E0.84927
G1 X132.143 Y119.884 E0.93261
G1 X132.025 Y122.479 E1.01901
G1 X131.985 Y124.357 E1.08149
G1 X131.956 Y124.932 E1.10063
G1 X131.925 Y125.329 E1.11388
G1 X131.844 Y126.04 E1.13768
G1 X131.767 Y126.556 E1.15503
G1 X131.595 Y127.443 E1.18508
G1 X131.44 Y128.01 E1.20463
G1 X131.286 Y128.518 E1.22229
G1 X130.833 Y129.731 E1.26536
G1 X130.599 Y130.253 E1.28438
G1 X130.193 Y131.06 E1.31443
G1 X129.907 Y131.54 E1.33301
G1 X129.632 Y131.974 E1.3501
G1 X129.191 Y132.614 E1.37595
G1 X128.953 Y132.933 E1.38919
G1 X128.382 Y133.633 E1.41923
G1 X127.751 Y134.279 E1.44927
G1 X127.065 Y134.866 E1.4793
G1 X126.289 Y135.417 E1.51095
G1 X126.113 Y135.53 E1.51791
G1 X125.332 Y135.984 E1.54796
G1 X124.514 Y136.367 E1.578
G1 X123.666 Y136.676 E1.60802
G1 X122.793 Y136.909 E1.63807
G1 X121.903 Y137.064 E1.66812
G1 X120.749 Y137.146 E1.7066
G1 X120.057 Y137.156 E1.72961
G1 X119.695 Y137.155 E1.74165
G1 X118.131 Y137.122 E1.79368
G1 X115.578 Y137.14 E1.8786
G1 X114.701 Y137.159 E1.90778
G1 X113.798 Y137.138 E1.93782
G1 X112.901 Y137.037 E1.96784
G1 X112.016 Y136.857 E1.99788
G1 X111.275 Y136.642 E2.02354
G1 X111.073 Y136.575 E2.03062
G1 X110.229 Y136.253 E2.06066
G1 X109.417 Y135.858 E2.0907
G1 X108.643 Y135.392 E2.12075
G1 X107.914 Y134.86 E2.15076
G1 X107.234 Y134.265 E2.18082
G1 X106.534 Y133.526 E2.21467
G1 X106.35 Y133.311 E2.22408
G1 X105.766 Y132.559 E2.25575
G1 X105.5 Y132.182 E2.2711
G1 X104.956 Y131.324 E2.30489
G1 X104.831 Y131.103 E2.31333
G1 X104.372 Y130.188 E2.34738
G1 X104.127 Y129.631 E2.36762
G1 X103.667 Y128.363 E2.41248
G1 X103.514 Y127.835 E2.43077
G1 X103.301 Y126.957 E2.46081
G1 X103.216 Y126.459 E2.47762
G1 X103.145 Y125.969 E2.49409
G1 X103.057 Y125.087 E2.52357
G1 X103.034 Y124.684 E2.53699
G1 X103.019 Y124.29 E2.55011
G1 X103.009 Y123.723 E2.56897
G1 X102.922 Y121.028 E2.65865
G1 X102.769 Y118.521 E2.74219
G1 X102.539 Y115.936 E2.82851
G1 X102.389 Y114.591 E2.87352
G1 X102.336 Y113.919 E2.89594
G1 X102.322 Y113.609 E2.90626
G1 X102.313 Y112.98 E2.92718
G1 X102.317 Y112.739 E2.9352
G1 X102.351 Y112.059 E2.95784
G1 X102.389 Y111.604 E2.97303
G1 X102.464 Y110.958 E2.99466
G1 X102.52 Y110.58 E3.00737
G1 X102.646 Y109.863 E3.03158
G1 X103.225 Y106.904 E3.13187
G1 X103.437 Y106.027 E3.16188
G1 X103.573 Y105.594 E3.17697
G1 X103.664 Y105.325 E3.18642
G1 X103.991 Y104.484 E3.21643
G1 X104.391 Y103.674 E3.24647
G1 X104.935 Y102.794 E3.28088
G1 X105.085 Y102.577 E3.28966
G1 X105.631 Y101.858 E3.31969
G1 X106.239 Y101.189 E3.34975
G1 X106.756 Y100.703 E3.37335
G1 X106.941 Y100.541 E3.38153
G1 X107.646 Y99.977 E3.41156
G1 X108.399 Y99.477 E3.44162
G1 X108.96 Y99.163 E3.46301
G1 X109.141 Y99.069 E3.46979
G1 X109.96 Y98.689 E3.49982
G1 X110.859 Y98.367 E3.53158
G1 X111.065 Y98.304 E3.53875
G1 X111.939 Y98.078 E3.56877
G1 X112.83 Y97.931 E3.59881
G1 X114.167 Y97.859 E3.64334
G1 X116.933 Y97.891 E3.73534
G1 X119.693 Y97.864 E3.82715
G1 X120.421 Y97.847 E3.85137
G1 X121.016 Y97.85 E3.87116
G1 X121.247 Y97.858 E3.87884
G0 F6000 X121.261 Y97.458
G1 F1200 X122.179 Y97.53 E3.90947
G1 X123.087 Y97.681 E3.94009
G1 X123.601 Y97.803 E3.95766
G1 X123.885 Y97.878 E3.96743
G1 X124.764 Y98.152 E3.99805
G1 X125.616 Y98.501 E4.02867
G1 X126.434 Y98.922 E4.05927
G1 X127.578 Y99.677 E4.10486
G1 X127.949 Y99.958 E4.12034
G1 X128.658 Y100.545 E4.15095
G1 X129.314 Y101.192 E4.1816
G1 X129.91 Y101.893 E4.2122
G1 X130.514 Y102.752 E4.24713
G1 X130.661 Y102.985 E4.25629
G1 X131.118 Y103.784 E4.28691
G1 X131.504 Y104.62 E4.31753
G1 X131.853 Y105.609 E4.35241
G1 X131.936 Y105.887 E4.36206
G1 X132.183 Y106.892 E4.39649
G1 X132.408 Y108.048 E4.43566
G1 X132.86 Y110.465 E4.51744
G1 X133.016 Y111.691 E4.55854
G1 X133.058 Y112.305 E4.57901
G1 X133.082 Y113.159 E4.60743
G1 X133.079 Y113.401 E4.61548
G1 X133.045 Y114.129 E4.63972
G1 X132.968 Y115.048 E4.67039
G1 X132.725 Y117.422 E4.74976
G1 X132.541 Y119.93 E4.8334
G1 X132.426 Y122.464 E4.91777
G1 X132.385 Y124.365 E4.98101
G1 X132.355 Y124.963 E5.00093
G1 X132.324 Y125.36 E5.01417
G1 X132.24 Y126.099 E5.03891
G1 X132.163 Y126.615 E5.05626
G1 X131.988 Y127.519 E5.08689
G1 X131.823 Y128.126 E5.10781
G1 X131.669 Y128.634 E5.12547
G1 X131.198 Y129.895 E5.17024
G1 X130.964 Y130.417 E5.18926
G1 X130.551 Y131.24 E5.21989
G1 X130.245 Y131.755 E5.23981
G1 X129.97 Y132.189 E5.2569
G1 X129.512 Y132.854 E5.28376
G1 X129.274 Y133.173 E5.297
G1 X128.692 Y133.886 E5.32761
G1 X128.05 Y134.546 E5.35823
G1 X127.354 Y135.148 E5.38884
G1 X126.505 Y135.754 E5.42353
G1 X126.329 Y135.867 E5.43049
G1 X125.533 Y136.33 E5.46112
G1 X124.701 Y136.723 E5.49172
G1 X123.837 Y137.041 E5.52234
G1 X122.949 Y137.284 E5.55296
G1 X122.043 Y137.449 E5.58359
G1 X120.755 Y137.546 E5.62655
G1 X120.063 Y137.556 E5.64957
G1 X119.687 Y137.555 E5.66208
G1 X118.126 Y137.522 E5.71401
G1 X115.59 Y137.54 E5.79836
G1 X114.71 Y137.559 E5.82763
G1 X113.789 Y137.538 E5.85827
G1 X112.874 Y137.438 E5.88889
G1 X111.971 Y137.258 E5.91951
G1 X111.149 Y137.022 E5.94796
G1 X110.947 Y136.955 E5.95504
G1 X110.087 Y136.628 E5.98564
G1 X109.258 Y136.227 E6.01627
G1 X108.467 Y135.755 E6.0469
G1 X107.72 Y135.217 E6.07752
G1 X107.022 Y134.616 E6.10816
G1 X106.231 Y133.786 E6.14629
G1 X106.047 Y133.571 E6.1557
G1 X105.439 Y132.79 E6.18862
G1 X105.173 Y132.413 E6.20397
G1 X104.608 Y131.521 E6.23909
G1 X104.483 Y131.3 E6.24753
G1 X104.006 Y130.349 E6.28292
G1 X103.761 Y129.792 E6.30316
G1 X103.427 Y128.934 E6.33378
G1 X103.283 Y128.474 E6.34981
G1 X103.13 Y127.946 E6.3681
G1 X102.912 Y127.052 E6.3987
G1 X102.821 Y126.516 E6.41679
G1 X102.75 Y126.026 E6.43325
G1 X102.657 Y125.11 E6.46388
G1 X102.634 Y124.707 E6.4773
G1 X102.619 Y124.298 E6.49091
G1 X102.609 Y123.736 E6.50961
G1 X102.522 Y121.032 E6.59959
G1 X102.37 Y118.542 E6.68256
G1 X102.142 Y115.976 E6.76824
G1 X101.992 Y114.636 E6.81309
G1 X101.937 Y113.937 E6.83641
G1 X101.923 Y113.627 E6.84673
G1 X101.913 Y112.973 E6.86849
G1 X101.917 Y112.732 E6.87651
G1 X101.953 Y112.026 E6.90002
G1 X101.991 Y111.571 E6.9152
G1 X102.068 Y110.9 E6.93767
G1 X102.124 Y110.522 E6.95038
G1 X102.253 Y109.786 E6.97523
G1 X102.832 Y106.827 E7.07551
G1 X103.048 Y105.932 E7.10614
G1 X103.194 Y105.466 E7.12238
G1 X103.285 Y105.197 E7.13182
G1 X103.618 Y104.339 E7.16243
G1 X104.023 Y103.512 E7.19306
G1 X104.606 Y102.567 E7.22999
G1 X104.756 Y102.35 E7.23877
G1 X105.312 Y101.616 E7.26939
G1 X105.93 Y100.933 E7.30003
G1 X106.493 Y100.402 E7.32577
G1 X106.678 Y100.24 E7.33395
G1 X107.396 Y99.664 E7.36456
G1 X108.162 Y99.153 E7.39519
G1 X108.776 Y98.808 E7.41861
G1 X108.957 Y98.714 E7.4254
G1 X109.791 Y98.326 E7.45599
G1 X110.742 Y97.984 E7.4896
G1 X110.948 Y97.921 E7.49677
G1 X111.839 Y97.691 E7.52738
G1 X112.747 Y97.538 E7.558
G1 X113.665 Y97.465 E7.58863
G1 X114.172 Y97.459 E7.60549
G1 X116.98 Y97.492 E7.6989
G1 X119.608 Y97.466 E7.78631
G1 X120.412 Y97.447 E7.81306
G1 X121.03 Y97.45 E7.83361
G1 X121.261 Y97.458 E7.8413
G0 F6000 X121.275 Y97.059
G1 F1200 X122.21 Y97.131 E7.87249
G1 X123.135 Y97.283 E7.90367
G1 X123.703 Y97.417 E7.92308
G1 X123.987 Y97.492 E7.93285
G1 X124.882 Y97.77 E7.96402
G1 X125.751 Y98.123 E7.99521
G1 X126.587 Y98.549 E8.02642
G1 X127.383 Y99.044 E8.0576
G1 X127.82 Y99.358 E8.0755
G1 X128.191 Y99.639 E8.09098
G1 X128.913 Y100.237 E8.12216
G1 X129.583 Y100.894 E8.15337
G1 X130.193 Y101.606 E8.18455
G1 X130.852 Y102.539 E8.22254
G1 X130.999 Y102.772 E8.23171
G1 X131.465 Y103.585 E8.26287
G1 X131.861 Y104.436 E8.29409
G1 X132.236 Y105.494 E8.33143
G1 X132.319 Y105.772 E8.34108
G1 X132.576 Y106.816 E8.37684
G1 X132.802 Y107.975 E8.41611
G1 X133.254 Y110.392 E8.49789
G1 X133.415 Y111.663 E8.54051
G1 X133.457 Y112.277 E8.56098
G1 X133.482 Y113.164 E8.59049
G1 X133.479 Y113.406 E8.59854
G1 X133.444 Y114.161 E8.62368
G1 X133.366 Y115.089 E8.65465
G1 X133.124 Y117.457 E8.73382
G1 X132.941 Y119.944 E8.81676
G1 X132.824 Y122.532 E8.90293
G1 X132.784 Y124.374 E8.96421
G1 X132.754 Y124.994 E8.98485
G1 X132.723 Y125.391 E8.9981
G1 X132.636 Y126.158 E9.02377
G1 X132.559 Y126.674 E9.04112
G1 X132.381 Y127.595 E9.07232
G1 X132.206 Y128.242 E9.09462
G1 X132.052 Y128.75 E9.11227
G1 X131.563 Y130.059 E9.15875
G1 X131.329 Y130.581 E9.17777
G1 X130.909 Y131.419 E9.20895
G1 X130.583 Y131.969 E9.23022
G1 X130.308 Y132.403 E9.2473
G1 X129.833 Y133.093 E9.27517
G1 X129.595 Y133.412 E9.2884
G1 X129.002 Y134.139 E9.31961
G1 X128.35 Y134.813 E9.3508
G1 X127.643 Y135.429 E9.38199
G1 X126.721 Y136.09 E9.41972
G1 X126.545 Y136.203 E9.42667
G1 X125.735 Y136.676 E9.45787
G1 X124.888 Y137.078 E9.48906
G1 X124.009 Y137.406 E9.52026
G1 X123.106 Y137.658 E9.55144
G1 X122.184 Y137.833 E9.58266
G1 X121.251 Y137.928 E9.61385
G1 X120.761 Y137.946 E9.63016
G1 X120.069 Y137.956 E9.65317
G1 X119.678 Y137.955 E9.66618
G1 X118.12 Y137.922 E9.71801
G1 X115.602 Y137.94 E9.80176
G1 X114.718 Y137.959 E9.83117
G1 X113.78 Y137.938 E9.86238
G1 X112.848 Y137.838 E9.89355
G1 X111.927 Y137.659 E9.92476
G1 X111.023 Y137.402 E9.95602
G1 X110.821 Y137.335 E9.96309
G1 X109.944 Y137.002 E9.9943
G1 X109.099 Y136.595 E10.02549
G1 X108.291 Y136.118 E10.0567
G1 X107.527 Y135.574 E10.08789
G1 X106.813 Y134.967 E10.11906
G1 X105.927 Y134.046 E10.16157
G1 X105.743 Y133.831 E10.17098
G1 X105.112 Y133.021 E10.20513
G1 X104.846 Y132.644 E10.22048
G1 X104.259 Y131.717 E10.25697
G1 X104.134 Y131.496 E10.26542
G1 X103.64 Y130.51 E10.3021
G1 X103.395 Y129.953 E10.32233
G1 X103.054 Y129.079 E10.35354
G1 X102.899 Y128.586 E10.37073
G1 X102.746 Y128.058 E10.38901
G1 X102.523 Y127.146 E10.42024
G1 X102.425 Y126.573 E10.43957
G1 X102.354 Y126.083 E10.45604
G1 X102.258 Y125.133 E10.4878
G1 X102.235 Y124.73 E10.50122
G1 X102.219 Y124.305 E10.51537
G1 X102.207 Y123.662 E10.53676
G1 X102.125 Y121.103 E10.62192
G1 X101.97 Y118.568 E10.70639
G1 X101.742 Y116.008 E10.79187
G1 X101.594 Y114.68 E10.83631
G1 X101.537 Y113.955 E10.8605
G1 X101.523 Y113.645 E10.87082
G1 X101.514 Y112.966 E10.89341
G1 X101.518 Y112.725 E10.90143
G1 X101.554 Y111.993 E10.9258
G1 X101.592 Y111.538 E10.94099
G1 X101.673 Y110.841 E10.96433
G1 X101.729 Y110.463 E10.97703
G1 X101.861 Y109.71 E11.00246
G1 X102.44 Y106.751 E11.10274
G1 X102.659 Y105.839 E11.13394
G1 X102.815 Y105.338 E11.15139
G1 X102.906 Y105.069 E11.16084
G1 X103.244 Y104.194 E11.19204
G1 X103.656 Y103.351 E11.22324
G1 X104.277 Y102.339 E11.26274
G1 X104.427 Y102.122 E11.27151
G1 X104.993 Y101.374 E11.30271
G1 X105.62 Y100.677 E11.33389
G1 X106.229 Y100.101 E11.36177
G1 X106.414 Y99.939 E11.36995
G1 X107.146 Y99.352 E11.40116
G1 X107.924 Y98.829 E11.43234
G1 X108.591 Y98.453 E11.4578
G1 X108.772 Y98.359 E11.46459
G1 X109.622 Y97.963 E11.49577
G1 X110.625 Y97.602 E11.53123
G1 X110.831 Y97.539 E11.53839
G1 X111.739 Y97.303 E11.5696
G1 X112.663 Y97.146 E11.60077
G1 X113.598 Y97.067 E11.63198
G1 X114.176 Y97.059 E11.65121
G1 X116.98 Y97.092 E11.74447
G1 X119.594 Y97.066 E11.83142
G1 X120.402 Y97.047 E11.8583
G1 X121.044 Y97.051 E11.87966
G1 X121.275 Y97.059 E11.88734
G1 F2700 E6.88734
;MESH:Ender-3_Extruder_PTFE_Cable_Clip_0.8mm_Leo_N.stl
G0 F6000 X115.835 Y114.241
G0 X115.116 Y115.084
G0 X114.072 Y113.624
G0 X114.494 Y111.158
G0 X114.47 Y108.954
G0 X114.284 Y108.807
G0 X114.034 Y108.896
G0 X113.282 Y112.776
G0 X113.356 Y113.918
G0 X113.597 Y114.698
G0 X113.8 Y122.199
;TYPE:WALL-INNER
G1 F2700 E11.88734
G1 F1200 X113.8 Y122.093 E11.89087
G1 X113.8 Y121.81 E11.90028
G1 X113.8 Y121.532 E11.90953
G1 X113.8 Y115.47 E12.11115
G1 X113.594 Y115.096 E12.12535
G1 X113.437 Y114.758 E12.13775
G1 X113.342 Y114.511 E12.14655
G1 X113.259 Y114.244 E12.15585
G1 X113.189 Y113.951 E12.16587
G1 X113.139 Y113.651 E12.17598
G1 X113.111 Y113.37 E12.18538
G1 X113.101 Y113.038 E12.19642
G1 X113.111 Y112.77 E12.20534
G1 X113.139 Y112.491 E12.21467
G1 X113.19 Y112.184 E12.22502
G1 X113.258 Y111.903 E12.23464
G1 X113.346 Y111.621 E12.24446
G1 X113.442 Y111.371 E12.25337
G1 X113.559 Y111.119 E12.26261
G1 X113.8 Y110.675 E12.27941
G1 X113.8 Y109.093 E12.33203
G1 X113.806 Y109.01 E12.3348
G1 X113.818 Y108.95 E12.33683
G1 X113.836 Y108.898 E12.33866
G1 X113.871 Y108.831 E12.34118
G1 X113.899 Y108.791 E12.3428
G1 X113.948 Y108.74 E12.34515
G1 X113.992 Y108.706 E12.347
G1 X114.043 Y108.678 E12.34894
G1 X114.107 Y108.652 E12.35124
G1 X114.166 Y108.639 E12.35325
G1 X114.223 Y108.633 E12.35515
G1 X114.3 Y108.637 E12.35772
G1 X114.347 Y108.646 E12.35931
G1 X114.403 Y108.666 E12.36129
G1 X114.465 Y108.698 E12.36361
G1 X114.511 Y108.731 E12.36549
G1 X114.553 Y108.771 E12.36742
G1 X114.592 Y108.822 E12.36955
G1 X114.625 Y108.88 E12.37177
G1 X114.647 Y108.936 E12.37377
G1 X114.66 Y108.995 E12.37578
G1 X114.67 Y109.092 E12.37903
G1 X114.665 Y111.17 E12.44814
G1 X114.655 Y111.259 E12.45112
G1 X114.633 Y111.364 E12.45469
G1 X114.594 Y111.488 E12.45901
G1 X114.438 Y111.846 E12.472
G1 X114.342 Y112.121 E12.48169
G1 X114.269 Y112.409 E12.49157
G1 X114.221 Y112.707 E12.50161
G1 X114.203 Y113.002 E12.51144
G1 X114.207 Y113.297 E12.52125
G1 X114.241 Y113.597 E12.53129
G1 X114.302 Y113.888 E12.54118
G1 X114.388 Y114.173 E12.55108
G1 X114.5 Y114.451 E12.56105
G1 X114.638 Y114.715 E12.57096
G1 X114.797 Y114.965 E12.58082
G1 X114.978 Y115.201 E12.59071
G1 X115.181 Y115.421 E12.60066
G1 X115.403 Y115.621 E12.6106
G1 X115.641 Y115.798 E12.62047
G1 X115.894 Y115.955 E12.63037
G1 X116.162 Y116.088 E12.64032
G1 X116.439 Y116.196 E12.65021
G1 X116.725 Y116.279 E12.66011
G1 X117.017 Y116.336 E12.67001
G1 X117.313 Y116.366 E12.67991
G1 X117.608 Y116.37 E12.68972
G1 X117.908 Y116.348 E12.69972
G1 X118.202 Y116.297 E12.70965
G1 X118.488 Y116.221 E12.71949
G1 X118.769 Y116.12 E12.72942
G1 X119.039 Y115.992 E12.73936
G1 X119.295 Y115.842 E12.74923
G1 X119.537 Y115.668 E12.75914
G1 X119.763 Y115.474 E12.76905
G1 X119.972 Y115.259 E12.77902
G1 X120.157 Y115.027 E12.78889
G1 X120.322 Y114.781 E12.79874
G1 X120.466 Y114.519 E12.80869
G1 X120.584 Y114.244 E12.81864
G1 X120.677 Y113.962 E12.82852
G1 X120.744 Y113.671 E12.83845
G1 X120.784 Y113.376 E12.84835
G1 X120.798 Y113.084 E12.85807
G1 X120.789 Y112.784 E12.86805
G1 X120.747 Y112.484 E12.87813
G1 X120.681 Y112.197 E12.88792
G1 X120.589 Y111.911 E12.89792
G1 X120.411 Y111.503 E12.91272
G1 X120.382 Y111.41 E12.91596
G1 X120.351 Y111.277 E12.9205
G1 X120.337 Y111.168 E12.92416
G1 X120.332 Y111.036 E12.92855
G1 X120.33 Y109.093 E12.99318
G1 X120.346 Y108.953 E12.99786
G1 X120.365 Y108.9 E12.99974
G1 X120.398 Y108.836 E13.00213
G1 X120.433 Y108.788 E13.00411
G1 X120.472 Y108.747 E13.00599
