;FLAVOR:Marlin
;TIME:143
;Filament used: 0.0452806m
;Layer height: 0.2
;MINX:102.518
;MINY:102.518
;MINZ:0.2
;MAXX:132.482
;MAXY:132.482
;MAXZ:2.4
;Generated with Cura_SteamEngine 4.6.1
M140 S57
M105
M190 S57
M104 S208
M105
M109 S208
M82 ;absolute extrusion mode
; Ender 3 Custom Start G-code
G92 E0 ; Reset Extruder
G28 ; Home all axes
G1 Z2.0 F3000 ; Move Z Axis up little to prevent scratching of Heat Bed
G1 X0.1 Y20 Z0.3 F5000.0 ; Move to start position
G1 X0.1 Y200.0 Z0.3 F1500.0 E15 ; Draw the first line
G1 X0.4 Y200.0 Z0.3 F5000.0 ; Move to side a little
G1 X0.4 Y20 Z0.3 F1500.0 E30 ; Draw the second line
G92 E0 ; Reset Extruder
G1 Z2.0 F3000 ; Move Z Axis up little to prevent scratching of Heat Bed
G1 X5 Y20 Z0.3 F5000.0 ; Move over to prevent blob squish
G92 E0
G92 E0
G1 F2700 E-5
;LAYER_COUNT:12
;LAYER:0
M107
G0 F6000 X118.945 Y103.386 Z0.2
;TYPE:SKIRT
G1 F2700 E0
G1 F1200 X119.253 Y103.421 E0.01031
G1 X119.968 Y103.528 E0.03436
G1 X120.258 Y103.582 E0.04417
G1 X121.049 Y103.762 E0.07115
G1 X121.338 Y103.84 E0.0811
G1 X122.115 Y104.084 E0.10819
G1 X122.403 Y104.187 E0.11837
G1 X122.99 Y104.418 E0.13935
G1 X123.244 Y104.527 E0.14854
G1 X123.978 Y104.877 E0.17559
G1 X124.236 Y105.013 E0.18529
G1 X124.897 Y105.393 E0.21064
G1 X125.173 Y105.566 E0.22148
G1 X125.838 Y106.021 E0.24828
G1 X126.079 Y106.2 E0.25826
G1 X126.654 Y106.66 E0.28275
G1 X126.856 Y106.834 E0.29162
G1 X127.38 Y107.318 E0.31535
G1 X127.608 Y107.544 E0.32603
G1 X128.158 Y108.135 E0.35288
G1 X128.337 Y108.343 E0.362
G1 X128.79 Y108.908 E0.38609
G1 X128.973 Y109.154 E0.39629
G1 X129.39 Y109.759 E0.42073
G1 X129.543 Y109.999 E0.43019
G1 X129.94 Y110.679 E0.45638
G1 X130.09 Y110.96 E0.46698
G1 X130.453 Y111.711 E0.49472
G1 X130.569 Y111.979 E0.50443
G1 X130.815 Y112.605 E0.5268
G1 X130.917 Y112.891 E0.5369
G1 X131.158 Y113.661 E0.56374
G1 X131.24 Y113.965 E0.57421
G1 X131.415 Y114.73 E0.60031
G1 X131.468 Y115.011 E0.60982
G1 X131.578 Y115.733 E0.63411
G1 X131.611 Y116.019 E0.64369
G1 X131.67 Y116.796 E0.66961
G1 X131.682 Y117.108 E0.67999
G1 X131.683 Y117.883 E0.70577
G1 X131.672 Y118.176 E0.71552
G1 X131.615 Y118.93 E0.74067
G1 X131.581 Y119.233 E0.75081
G1 X131.471 Y119.972 E0.77566
G1 X131.416 Y120.266 E0.78561
G1 X131.238 Y121.048 E0.81228
G1 X131.16 Y121.337 E0.82224
G1 X130.925 Y122.088 E0.84841
G1 X130.825 Y122.37 E0.85837
G1 X130.591 Y122.97 E0.87979
G1 X130.485 Y123.218 E0.88876
G1 X130.13 Y123.964 E0.91623
G1 X129.983 Y124.243 E0.92672
G1 X129.603 Y124.903 E0.95205
G1 X129.437 Y125.168 E0.96245
G1 X128.985 Y125.83 E0.98911
G1 X128.804 Y126.074 E0.99922
G1 X128.34 Y126.654 E1.02392
G1 X128.166 Y126.856 E1.03279
G1 X127.682 Y127.38 E1.05652
G1 X127.456 Y127.608 E1.06719
G1 X126.865 Y128.158 E1.09405
G1 X126.657 Y128.337 E1.10317
G1 X126.087 Y128.794 E1.12747
G1 X125.838 Y128.979 E1.13779
G1 X125.236 Y129.393 E1.16209
G1 X124.999 Y129.544 E1.17144
G1 X124.315 Y129.944 E1.19779
G1 X124.026 Y130.098 E1.20868
G1 X123.287 Y130.454 E1.23596
G1 X123.031 Y130.565 E1.24525
G1 X122.387 Y130.819 E1.26827
G1 X122.097 Y130.922 E1.27851
G1 X121.339 Y131.158 E1.30491
G1 X121.035 Y131.24 E1.31538
G1 X120.27 Y131.415 E1.34148
G1 X119.989 Y131.468 E1.351
G1 X119.267 Y131.578 E1.37529
G1 X118.981 Y131.611 E1.38486
G1 X118.204 Y131.67 E1.41078
G1 X117.892 Y131.682 E1.42116
G1 X117.117 Y131.683 E1.44694
G1 X116.824 Y131.672 E1.45669
G1 X116.055 Y131.614 E1.48234
G1 X115.747 Y131.579 E1.49265
G1 X115.032 Y131.472 E1.5167
G1 X114.742 Y131.418 E1.52651
G1 X113.951 Y131.238 E1.55349
G1 X113.662 Y131.16 E1.56345
G1 X112.885 Y130.916 E1.59053
G1 X112.597 Y130.813 E1.60071
G1 X112.005 Y130.581 E1.62186
G1 X111.742 Y130.468 E1.63138
G1 X110.971 Y130.097 E1.65983
G1 X110.714 Y129.96 E1.66952
G1 X110.094 Y129.601 E1.69335
G1 X109.826 Y129.433 E1.70387
G1 X109.162 Y128.979 E1.73062
G1 X108.921 Y128.8 E1.74061
G1 X108.347 Y128.341 E1.76505
G1 X108.138 Y128.161 E1.77423
G1 X107.598 Y127.661 E1.7987
G1 X107.377 Y127.441 E1.80908
G1 X106.829 Y126.85 E1.83588
G1 X106.637 Y126.626 E1.8457
G1 X106.167 Y126.035 E1.87081
G1 X105.994 Y125.8 E1.88052
G1 X105.612 Y125.243 E1.90298
G1 X105.46 Y125.005 E1.91237
G1 X105.055 Y124.313 E1.93904
G1 X104.902 Y124.026 E1.94986
G1 X104.535 Y123.263 E1.97802
G1 X104.42 Y122.996 E1.98769
G1 X104.164 Y122.34 E2.01111
G1 X104.065 Y122.058 E2.02105
G1 X103.842 Y121.338 E2.04612
G1 X103.761 Y121.038 E2.05645
G1 X103.582 Y120.257 E2.0831
G1 X103.529 Y119.974 E2.09268
G1 X103.422 Y119.261 E2.11666
G1 X103.389 Y118.974 E2.12627
G1 X103.33 Y118.205 E2.15192
G1 X103.318 Y117.896 E2.16221
G1 X103.318 Y117.104 E2.18855
G1 X103.33 Y116.795 E2.19883
G1 X103.39 Y116.011 E2.22499
G1 X103.424 Y115.719 E2.23476
G1 X103.528 Y115.032 E2.25787
G1 X103.582 Y114.742 E2.26768
G1 X103.762 Y113.951 E2.29467
G1 X103.84 Y113.662 E2.30462
G1 X104.084 Y112.885 E2.33171
G1 X104.187 Y112.597 E2.34188
G1 X104.416 Y112.014 E2.36272
G1 X104.527 Y111.755 E2.37209
G1 X104.899 Y110.978 E2.40074
G1 X105.038 Y110.717 E2.41058
G1 X105.399 Y110.094 E2.43452
G1 X105.567 Y109.826 E2.44504
G1 X106.021 Y109.162 E2.4718
G1 X106.2 Y108.921 E2.48178
G1 X106.66 Y108.346 E2.50627
G1 X106.834 Y108.144 E2.51514
G1 X107.318 Y107.62 E2.53887
G1 X107.549 Y107.387 E2.54978
G1 X108.155 Y106.824 E2.57729
G1 X108.358 Y106.65 E2.58618
G1 X108.913 Y106.206 E2.60982
G1 X109.162 Y106.021 E2.62014
G1 X109.771 Y105.602 E2.64473
G1 X110.01 Y105.45 E2.65415
G1 X110.692 Y105.053 E2.68039
G1 X110.987 Y104.896 E2.69151
G1 X111.761 Y104.525 E2.72006
G1 X112.013 Y104.417 E2.72918
G1 X112.605 Y104.185 E2.75032
G1 X112.891 Y104.083 E2.76042
G1 X113.661 Y103.842 E2.78726
G1 X113.965 Y103.76 E2.79773
G1 X114.73 Y103.585 E2.82383
G1 X115.011 Y103.532 E2.83334
G1 X115.733 Y103.422 E2.85763
G1 X116.019 Y103.389 E2.86721
G1 X116.796 Y103.33 E2.89313
G1 X117.108 Y103.318 E2.90351
G1 X117.883 Y103.317 E2.92929
G1 X118.176 Y103.328 E2.93904
G1 X118.945 Y103.386 E2.96469
G0 F6000 X118.99 Y102.989
G1 F1200 X119.298 Y103.024 E2.975
G1 X120.041 Y103.135 E2.99999
G1 X120.331 Y103.189 E3.0098
G1 X121.153 Y103.376 E3.03784
G1 X121.442 Y103.454 E3.04779
G1 X122.25 Y103.707 E3.07595
G1 X122.538 Y103.81 E3.08613
G1 X123.148 Y104.05 E3.10793
G1 X123.402 Y104.159 E3.11712
G1 X124.165 Y104.523 E3.14524
G1 X124.423 Y104.659 E3.15494
G1 X125.11 Y105.055 E3.18131
G1 X125.386 Y105.228 E3.19215
G1 X126.076 Y105.699 E3.21993
G1 X126.317 Y105.878 E3.22992
G1 X126.915 Y106.357 E3.2554
G1 X127.117 Y106.531 E3.26427
G1 X127.661 Y107.034 E3.28891
G1 X127.889 Y107.26 E3.29959
G1 X128.461 Y107.874 E3.3275
G1 X128.64 Y108.082 E3.33663
G1 X129.111 Y108.669 E3.36166
G1 X129.294 Y108.915 E3.37186
G1 X129.727 Y109.544 E3.39726
G1 X129.88 Y109.784 E3.40672
G1 X130.293 Y110.49 E3.43393
G1 X130.443 Y110.771 E3.44452
G1 X130.82 Y111.552 E3.47336
G1 X130.936 Y111.82 E3.48308
G1 X131.192 Y112.47 E3.50631
G1 X131.294 Y112.756 E3.51641
G1 X131.544 Y113.556 E3.54429
G1 X131.626 Y113.86 E3.55476
G1 X131.808 Y114.656 E3.58192
G1 X131.861 Y114.937 E3.59143
G1 X131.975 Y115.687 E3.61666
G1 X132.008 Y115.973 E3.62624
G1 X132.07 Y116.781 E3.65319
G1 X132.082 Y117.093 E3.66358
G1 X132.083 Y117.898 E3.69035
G1 X132.072 Y118.191 E3.7001
G1 X132.013 Y118.975 E3.72625
G1 X131.979 Y119.278 E3.73639
G1 X131.864 Y120.045 E3.76219
G1 X131.809 Y120.339 E3.77214
G1 X131.624 Y121.152 E3.79987
G1 X131.546 Y121.441 E3.80982
G1 X131.302 Y122.222 E3.83704
G1 X131.202 Y122.504 E3.84699
G1 X130.959 Y123.127 E3.86923
G1 X130.853 Y123.375 E3.8782
G1 X130.484 Y124.15 E3.90675
G1 X130.337 Y124.429 E3.91724
G1 X129.942 Y125.115 E3.94357
G1 X129.776 Y125.38 E3.95397
G1 X129.306 Y126.068 E3.98168
G1 X129.125 Y126.312 E3.99179
G1 X128.643 Y126.915 E4.01746
G1 X128.469 Y127.117 E4.02633
G1 X127.966 Y127.661 E4.05097
G1 X127.74 Y127.889 E4.06165
G1 X127.126 Y128.461 E4.08956
G1 X126.918 Y128.64 E4.09869
G1 X126.326 Y129.115 E4.12393
G1 X126.077 Y129.3 E4.13425
G1 X125.451 Y129.731 E4.15953
G1 X125.214 Y129.882 E4.16888
G1 X124.503 Y130.297 E4.19626
G1 X124.214 Y130.451 E4.20715
G1 X123.446 Y130.821 E4.2355
G1 X123.19 Y130.932 E4.24478
G1 X122.521 Y131.196 E4.2687
G1 X122.231 Y131.299 E4.27894
G1 X121.444 Y131.544 E4.30635
G1 X121.14 Y131.626 E4.31683
G1 X120.344 Y131.808 E4.34398
G1 X120.063 Y131.861 E4.3535
G1 X119.313 Y131.975 E4.37873
G1 X119.027 Y132.008 E4.3883
G1 X118.219 Y132.07 E4.41526
G1 X117.907 Y132.082 E4.42564
G1 X117.102 Y132.083 E4.45242
G1 X116.809 Y132.072 E4.46217
G1 X116.01 Y132.011 E4.48882
G1 X115.702 Y131.976 E4.49913
G1 X114.959 Y131.865 E4.52412
G1 X114.669 Y131.811 E4.53393
G1 X113.847 Y131.624 E4.56197
G1 X113.558 Y131.546 E4.57192
G1 X112.75 Y131.293 E4.60008
G1 X112.462 Y131.19 E4.61026
G1 X111.848 Y130.948 E4.63221
G1 X111.585 Y130.835 E4.64173
G1 X110.783 Y130.45 E4.67132
G1 X110.526 Y130.313 E4.681
G1 X109.882 Y129.94 E4.70576
G1 X109.614 Y129.772 E4.71628
G1 X108.924 Y129.301 E4.74406
G1 X108.683 Y129.122 E4.75405
G1 X108.086 Y128.644 E4.77948
G1 X107.877 Y128.464 E4.78866
G1 X107.316 Y127.944 E4.8141
G1 X107.095 Y127.724 E4.82447
G1 X106.525 Y127.11 E4.85234
G1 X106.333 Y126.886 E4.86215
G1 X105.845 Y126.272 E4.88824
G1 X105.672 Y126.037 E4.89794
G1 X105.274 Y125.458 E4.92131
G1 X105.122 Y125.22 E4.9307
G1 X104.702 Y124.502 E4.95837
G1 X104.549 Y124.215 E4.96919
G1 X104.168 Y123.421 E4.99848
G1 X104.053 Y123.154 E5.00815
G1 X103.786 Y122.472 E5.03251
G1 X103.687 Y122.19 E5.04245
G1 X103.455 Y121.442 E5.06849
G1 X103.374 Y121.142 E5.07883
G1 X103.189 Y120.33 E5.10653
G1 X103.136 Y120.047 E5.11611
G1 X103.024 Y119.307 E5.141
G1 X102.991 Y119.02 E5.15061
G1 X102.93 Y118.22 E5.17729
G1 X102.918 Y117.911 E5.18758
G1 X102.918 Y117.089 E5.21492
G1 X102.93 Y116.78 E5.2252
G1 X102.993 Y115.965 E5.25239
G1 X103.027 Y115.673 E5.26217
G1 X103.135 Y114.959 E5.28619
G1 X103.189 Y114.669 E5.296
G1 X103.376 Y113.847 E5.32404
G1 X103.454 Y113.558 E5.33399
G1 X103.707 Y112.75 E5.36215
G1 X103.81 Y112.462 E5.37233
G1 X104.048 Y111.856 E5.39398
G1 X104.159 Y111.597 E5.40335
G1 X104.546 Y110.79 E5.43312
G1 X104.685 Y110.529 E5.44295
G1 X105.06 Y109.882 E5.46783
G1 X105.228 Y109.614 E5.47835
G1 X105.699 Y108.924 E5.50613
G1 X105.878 Y108.683 E5.51612
G1 X106.357 Y108.085 E5.5416
G1 X106.531 Y107.883 E5.55047
G1 X107.034 Y107.338 E5.57514
G1 X107.265 Y107.105 E5.58605
G1 X107.895 Y106.52 E5.61464
G1 X108.098 Y106.346 E5.62354
G1 X108.674 Y105.885 E5.64807
G1 X108.923 Y105.7 E5.65839
G1 X109.557 Y105.265 E5.68397
G1 X109.796 Y105.113 E5.69339
G1 X110.504 Y104.7 E5.72065
G1 X110.799 Y104.543 E5.73176
G1 X111.603 Y104.157 E5.76143
G1 X111.855 Y104.049 E5.77054
G1 X112.47 Y103.808 E5.79251
G1 X112.756 Y103.706 E5.80261
G1 X113.556 Y103.456 E5.83049
G1 X113.86 Y103.374 E5.84096
G1 X114.656 Y103.192 E5.86812
G1 X114.937 Y103.139 E5.87763
G1 X115.687 Y103.025 E5.90286
G1 X115.973 Y102.992 E5.91244
G1 X116.781 Y102.93 E5.93939
G1 X117.093 Y102.918 E5.94978
G1 X117.898 Y102.917 E5.97655
G1 X118.191 Y102.928 E5.9863
G1 X118.99 Y102.989 E6.01296
G0 F6000 X119.035 Y102.591
G1 F1200 X119.343 Y102.626 E6.02327
G1 X120.115 Y102.742 E6.04923
G1 X120.405 Y102.796 E6.05904
G1 X121.257 Y102.99 E6.08811
G1 X121.546 Y103.068 E6.09806
G1 X122.384 Y103.33 E6.12726
G1 X122.672 Y103.433 E6.13744
G1 X123.306 Y103.682 E6.16009
G1 X123.56 Y103.791 E6.16929
G1 X124.351 Y104.169 E6.19844
G1 X124.609 Y104.305 E6.20814
G1 X125.322 Y104.716 E6.23552
G1 X125.598 Y104.889 E6.24635
G1 X126.315 Y105.378 E6.27522
G1 X126.556 Y105.557 E6.2852
G1 X127.176 Y106.054 E6.31163
G1 X127.378 Y106.228 E6.3205
G1 X127.943 Y106.75 E6.34608
G1 X128.171 Y106.976 E6.35676
G1 X128.765 Y107.613 E6.38573
G1 X128.944 Y107.821 E6.39486
G1 X129.432 Y108.43 E6.42081
G1 X129.615 Y108.676 E6.43101
G1 X130.064 Y109.329 E6.45737
G1 X130.217 Y109.569 E6.46683
G1 X130.646 Y110.302 E6.49508
G1 X130.796 Y110.583 E6.50568
G1 X131.187 Y111.394 E6.53562
G1 X131.303 Y111.662 E6.54533
G1 X131.569 Y112.336 E6.56943
G1 X131.671 Y112.622 E6.57953
G1 X131.93 Y113.452 E6.60845
G1 X132.012 Y113.756 E6.61892
G1 X132.201 Y114.582 E6.64711
G1 X132.254 Y114.863 E6.65662
G1 X132.372 Y115.641 E6.68279
G1 X132.405 Y115.927 E6.69237
G1 X132.47 Y116.765 E6.72032
G1 X132.482 Y117.077 E6.73071
G1 X132.482 Y117.913 E6.75851
G1 X132.471 Y118.206 E6.76826
G1 X132.41 Y119.02 E6.79541
G1 X132.376 Y119.323 E6.80555
G1 X132.257 Y120.119 E6.83232
G1 X132.202 Y120.413 E6.84227
G1 X132.01 Y121.256 E6.87103
G1 X131.932 Y121.545 E6.88098
G1 X131.679 Y122.355 E6.90921
G1 X131.579 Y122.637 E6.91916
G1 X131.327 Y123.284 E6.94225
G1 X131.221 Y123.532 E6.95122
G1 X130.838 Y124.337 E6.98088
G1 X130.691 Y124.616 E6.99136
G1 X130.281 Y125.327 E7.01866
G1 X130.115 Y125.592 E7.02906
G1 X129.628 Y126.307 E7.05784
G1 X129.447 Y126.551 E7.06794
G1 X128.946 Y127.176 E7.09458
G1 X128.772 Y127.378 E7.10345
G1 X128.25 Y127.943 E7.12903
G1 X128.024 Y128.171 E7.13971
G1 X127.387 Y128.765 E7.16868
G1 X127.179 Y128.944 E7.17781
G1 X126.564 Y129.436 E7.204
G1 X126.315 Y129.621 E7.21432
G1 X125.666 Y130.068 E7.24053
G1 X125.429 Y130.219 E7.24988
G1 X124.691 Y130.65 E7.2783
G1 X124.402 Y130.804 E7.28919
G1 X123.605 Y131.188 E7.31862
G1 X123.349 Y131.299 E7.3279
G1 X122.655 Y131.573 E7.35272
G1 X122.365 Y131.676 E7.36295
G1 X121.548 Y131.93 E7.39141
G1 X121.244 Y132.012 E7.40188
G1 X120.418 Y132.201 E7.43006
G1 X120.137 Y132.254 E7.43957
G1 X119.359 Y132.372 E7.46575
G1 X119.073 Y132.405 E7.47532
G1 X118.235 Y132.47 E7.50328
G1 X117.923 Y132.482 E7.51366
G1 X117.087 Y132.482 E7.54147
G1 X116.794 Y132.471 E7.55122
G1 X115.965 Y132.409 E7.57887
G1 X115.657 Y132.374 E7.58918
G1 X114.885 Y132.258 E7.61515
G1 X114.595 Y132.204 E7.62496
G1 X113.743 Y132.01 E7.65402
G1 X113.454 Y131.932 E7.66398
G1 X112.616 Y131.67 E7.69318
G1 X112.328 Y131.567 E7.70335
G1 X111.69 Y131.316 E7.72615
G1 X111.427 Y131.203 E7.73567
G1 X110.594 Y130.803 E7.76641
G1 X110.337 Y130.666 E7.7761
G1 X109.67 Y130.279 E7.80174
G1 X109.402 Y130.111 E7.81226
G1 X108.685 Y129.622 E7.84113
G1 X108.444 Y129.443 E7.85111
G1 X107.825 Y128.947 E7.8775
G1 X107.616 Y128.767 E7.88667
G1 X107.033 Y128.228 E7.91308
G1 X106.812 Y128.008 E7.92345
G1 X106.221 Y127.371 E7.95235
G1 X106.029 Y127.147 E7.96216
G1 X105.523 Y126.509 E7.98925
G1 X105.35 Y126.274 E7.99895
G1 X104.937 Y125.674 E8.02318
G1 X104.785 Y125.436 E8.03257
G1 X104.349 Y124.69 E8.06131
G1 X104.196 Y124.403 E8.07213
G1 X103.8 Y123.579 E8.10254
G1 X103.685 Y123.312 E8.11221
G1 X103.409 Y122.605 E8.13745
G1 X103.31 Y122.323 E8.14739
G1 X103.069 Y121.546 E8.17445
G1 X102.988 Y121.246 E8.18478
G1 X102.796 Y120.404 E8.21351
G1 X102.743 Y120.121 E8.22308
G1 X102.627 Y119.353 E8.24892
G1 X102.594 Y119.066 E8.25852
G1 X102.53 Y118.236 E8.28621
G1 X102.518 Y117.927 E8.2965
G1 X102.518 Y117.073 E8.3249
G1 X102.53 Y116.764 E8.33519
G1 X102.596 Y115.919 E8.36338
G1 X102.63 Y115.627 E8.37315
G1 X102.742 Y114.885 E8.39811
G1 X102.796 Y114.595 E8.40792
G1 X102.99 Y113.743 E8.43699
G1 X103.068 Y113.454 E8.44694
G1 X103.33 Y112.616 E8.47615
G1 X103.433 Y112.328 E8.48632
G1 X103.68 Y111.699 E8.5088
G1 X103.791 Y111.44 E8.51817
G1 X104.193 Y110.602 E8.54908
G1 X104.332 Y110.341 E8.55892
G1 X104.721 Y109.67 E8.58471
G1 X104.889 Y109.402 E8.59523
G1 X105.378 Y108.685 E8.6241
G1 X105.557 Y108.444 E8.63408
G1 X106.054 Y107.824 E8.66051
G1 X106.228 Y107.622 E8.66938
G1 X106.75 Y107.056 E8.69499
G1 X106.981 Y106.823 E8.7059
G1 X107.634 Y106.216 E8.73555
G1 X107.837 Y106.042 E8.74445
G1 X108.436 Y105.564 E8.76994
G1 X108.685 Y105.379 E8.78025
G1 X109.342 Y104.927 E8.80678
G1 X109.581 Y104.775 E8.8162
G1 X110.316 Y104.347 E8.84449
G1 X110.611 Y104.19 E8.8556
G1 X111.446 Y103.789 E8.88641
G1 X111.698 Y103.681 E8.89553
G1 X112.336 Y103.431 E8.91832
G1 X112.622 Y103.329 E8.92842
G1 X113.452 Y103.07 E8.95734
G1 X113.756 Y102.988 E8.96781
G1 X114.582 Y102.799 E8.99599
G1 X114.863 Y102.746 E9.0055
G1 X115.641 Y102.628 E9.03168
G1 X115.927 Y102.595 E9.04125
G1 X116.765 Y102.53 E9.06921
G1 X117.077 Y102.518 E9.07959
G1 X117.913 Y102.518 E9.1074
G1 X118.206 Y102.529 E9.11715
G1 X119.035 Y102.591 E9.1448
G1 F2700 E4.1448
;MESH:Extruder_Insert_Leo_N.stl
G0 F6000 X117.528 Y117.167
G0 X117.633 Y115.712
