;FLAVOR:Marlin
;TIME:333
;Filament used: 0.132568m
;Layer height: 0.2
;MINX:101.512
;MINY:97.042
;MINZ:0.2
;MAXX:133.482
;MAXY:137.959
;MAXZ:10
;Generated with Cura_SteamEngine 4.6.1
M140 S57
M105
M190 S57
M104 S208
M105
M109 S208
M82 ;absolute extrusion mode
; Ender 3 Custom Start G-code
G92 E0 ; Reset Extruder
G28 ; Home all axes
G1 Z2.0 F3000 ; Move Z Axis up little to prevent scratching of Heat Bed
G1 X0.1 Y20 Z0.3 F5000.0 ; Move to start position
G1 X0.1 Y200.0 Z0.3 F1500.0 E15 ; Draw the first line
G1 X0.4 Y200.0 Z0.3 F5000.0 ; Move to side a little
G1 X0.4 Y20 Z0.3 F1500.0 E30 ; Draw the second line
G92 E0 ; Reset Extruder
G1 Z2.0 F3000 ; Move Z Axis up little to prevent scratching of Heat Bed
G1 X5 Y20 Z0.3 F5000.0 ; Move over to prevent blob squish
G92 E0
G92 E0
G1 F2700 E-5
;LAYER_COUNT:50
;LAYER:0
M107
G0 F6000 X122.323 Y97.96 Z0.2
;TYPE:SKIRT
G1 F2700 E0
G1 F1200 X123.213 Y98.112 E0.03003
G1 X124.087 Y98.342 E0.06009
G1 X125.206 Y98.765 E0.09988
G1 X125.457 Y98.877 E0.10902
G1 X126.265 Y99.281 E0.13907
G1 X127.034 Y99.755 E0.16911
G1 X127.985 Y100.487 E0.20903
G1 X128.234 Y100.703 E0.21999
G1 X128.889 Y101.324 E0.25001
G1 X129.487 Y102.001 E0.28005
G1 X130.227 Y103.046 E0.32264
G1 X130.379 Y103.292 E0.33226
G1 X130.819 Y104.081 E0.36231
G1 X131.188 Y104.905 E0.39234
G1 X131.504 Y105.832 E0.42491
G1 X131.58 Y106.096 E0.43405
G1 X131.804 Y107.043 E0.46641
G1 X132.01 Y108.11 E0.50256
G1 X132.465 Y110.526 E0.58433
G1 X132.617 Y111.718 E0.62429
G1 X132.659 Y112.332 E0.64476
G1 X132.682 Y113.154 E0.67211
G1 X132.679 Y113.396 E0.68016
G1 X132.646 Y114.099 E0.70357
G1 X132.57 Y115.005 E0.73381
G1 X132.327 Y117.385 E0.81338
G1 X132.139 Y119.942 E0.89866
G1 X132.024 Y122.5 E0.98382
G1 X131.982 Y124.505 E1.05052
G1 X131.897 Y125.617 E1.08762
G1 X131.804 Y126.325 E1.11137
G1 X131.647 Y127.215 E1.14143
G1 X131.472 Y127.891 E1.16465
G1 X131.306 Y128.452 E1.18411
G1 X131.011 Y129.306 E1.21416
G1 X130.836 Y129.724 E1.22923
G1 X130.602 Y130.247 E1.24829
G1 X130.197 Y131.054 E1.27832
G1 X129.907 Y131.54 E1.29714
G1 X129.632 Y131.974 E1.31423
G1 X129.191 Y132.614 E1.34008
G1 X128.953 Y132.933 E1.35332
G1 X128.382 Y133.633 E1.38337
G1 X127.751 Y134.279 E1.4134
G1 X127.065 Y134.866 E1.44343
G1 X126.289 Y135.417 E1.47509
G1 X126.113 Y135.53 E1.48204
G1 X125.332 Y135.984 E1.51209
G1 X124.514 Y136.367 E1.54213
G1 X123.666 Y136.676 E1.57215
G1 X122.793 Y136.909 E1.6022
G1 X121.903 Y137.064 E1.63225
G1 X120.749 Y137.146 E1.67073
G1 X120.057 Y137.156 E1.69375
G1 X119.695 Y137.155 E1.70579
G1 X118.131 Y137.122 E1.75782
G1 X115.578 Y137.14 E1.84273
G1 X114.702 Y137.159 E1.87187
G1 X113.8 Y137.138 E1.90188
G1 X112.902 Y137.037 E1.93194
G1 X112.017 Y136.857 E1.96198
G1 X111.29 Y136.647 E1.98715
G1 X111.087 Y136.58 E1.99426
G1 X110.243 Y136.259 E2.02429
G1 X109.43 Y135.865 E2.05434
G1 X108.656 Y135.401 E2.08435
G1 X107.925 Y134.87 E2.1144
G1 X107.245 Y134.276 E2.14443
G1 X106.534 Y133.526 E2.17881
G1 X106.35 Y133.311 E2.18822
G1 X105.766 Y132.559 E2.21989
G1 X105.5 Y132.182 E2.23523
G1 X104.956 Y131.324 E2.26902
G1 X104.831 Y131.103 E2.27747
G1 X104.372 Y130.188 E2.31152
G1 X104.127 Y129.631 E2.33175
G1 X103.667 Y128.363 E2.37662
G1 X103.514 Y127.835 E2.3949
G1 X103.301 Y126.957 E2.42495
G1 X103.21 Y126.413 E2.4433
G1 X103.117 Y125.75 E2.46556
G1 X103.021 Y124.565 E2.50511
G1 X103.011 Y124.126 E2.51971
G1 X102.939 Y121.479 E2.60778
G1 X102.799 Y118.951 E2.69199
G1 X102.589 Y116.441 E2.77577
G1 X102.392 Y114.641 E2.83599
G1 X102.343 Y114.054 E2.85558
G1 X102.316 Y113.456 E2.87549
G1 X102.312 Y113.191 E2.88431
G1 X102.318 Y112.666 E2.90177
G1 X102.329 Y112.364 E2.91182
G1 X102.411 Y111.387 E2.94443
G1 X102.499 Y110.727 E2.96658
G1 X102.611 Y110.062 E2.98901
G1 X102.944 Y108.408 E3.04512
G1 X103.129 Y107.369 E3.08023
G1 X103.205 Y106.976 E3.09354
G1 X103.514 Y105.774 E3.13482
G1 X103.612 Y105.471 E3.14541
G1 X103.928 Y104.625 E3.17545
G1 X104.317 Y103.81 E3.20548
G1 X104.87 Y102.893 E3.2411
G1 X105.025 Y102.664 E3.2503
G1 X105.564 Y101.939 E3.28034
G1 X106.165 Y101.265 E3.31038
G1 X106.793 Y100.672 E3.33911
G1 X106.995 Y100.497 E3.348
G1 X107.703 Y99.936 E3.37804
G1 X108.458 Y99.44 E3.40809
G1 X109.187 Y99.046 E3.43565
G1 X109.383 Y98.95 E3.44291
G1 X110.211 Y98.589 E3.47295
G1 X111.488 Y98.192 E3.51743
G1 X111.742 Y98.131 E3.52612
G1 X112.629 Y97.959 E3.55617
G1 X113.527 Y97.866 E3.58619
G1 X114.237 Y97.85 E3.60981
G1 X115.915 Y97.869 E3.66563
G1 X116.355 Y97.88 E3.68027
G1 X118.923 Y97.878 E3.76568
G1 X120.086 Y97.848 E3.80437
G1 X120.627 Y97.842 E3.82237
G1 X121.529 Y97.872 E3.85239
G1 X122.323 Y97.96 E3.87896
G0 F6000 X122.373 Y97.563
G1 F1200 X123.281 Y97.717 E3.90959
G1 X124.171 Y97.95 E3.94019
G1 X125.369 Y98.4 E3.98275
G1 X125.62 Y98.512 E3.99189
G1 X126.444 Y98.923 E4.02252
G1 X127.229 Y99.405 E4.05316
G1 X128.247 Y100.185 E4.09581
G1 X128.496 Y100.401 E4.10678
G1 X129.165 Y101.034 E4.13741
G1 X129.776 Y101.722 E4.16801
G1 X130.567 Y102.836 E4.21346
G1 X130.719 Y103.082 E4.22307
G1 X131.169 Y103.886 E4.25372
G1 X131.547 Y104.725 E4.28432
G1 X131.888 Y105.722 E4.31937
G1 X131.964 Y105.986 E4.32851
G1 X132.197 Y106.969 E4.36211
G1 X132.403 Y108.036 E4.39825
G1 X132.858 Y110.452 E4.48002
G1 X133.016 Y111.691 E4.52156
G1 X133.058 Y112.305 E4.54203
G1 X133.082 Y113.159 E4.57045
G1 X133.079 Y113.401 E4.5785
G1 X133.045 Y114.132 E4.60284
G1 X132.968 Y115.045 E4.63331
G1 X132.726 Y117.418 E4.71265
G1 X132.537 Y119.988 E4.79836
G1 X132.425 Y122.485 E4.88149
G1 X132.382 Y124.513 E4.94896
G1 X132.294 Y125.67 E4.98755
G1 X132.201 Y126.378 E5.0113
G1 X132.041 Y127.284 E5.0419
G1 X131.855 Y128.005 E5.06667
G1 X131.689 Y128.566 E5.08613
G1 X131.39 Y129.436 E5.11672
G1 X131.201 Y129.887 E5.13299
G1 X130.967 Y130.41 E5.15204
G1 X130.555 Y131.233 E5.18266
G1 X130.245 Y131.755 E5.20285
G1 X129.97 Y132.189 E5.21994
G1 X129.512 Y132.854 E5.24679
G1 X129.274 Y133.173 E5.26003
G1 X128.692 Y133.886 E5.29064
G1 X128.05 Y134.546 E5.32127
G1 X127.354 Y135.148 E5.35187
G1 X126.505 Y135.754 E5.38657
G1 X126.329 Y135.867 E5.39352
G1 X125.533 Y136.33 E5.42415
G1 X124.701 Y136.723 E5.45476
G1 X123.837 Y137.041 E5.48538
G1 X122.949 Y137.284 E5.516
G1 X122.043 Y137.449 E5.54663
G1 X120.755 Y137.546 E5.58959
G1 X120.063 Y137.556 E5.61261
G1 X119.687 Y137.555 E5.62511
G1 X118.126 Y137.522 E5.67704
G1 X115.59 Y137.54 E5.76139
G1 X114.711 Y137.559 E5.79064
G1 X113.79 Y137.538 E5.82128
G1 X112.875 Y137.438 E5.85189
G1 X111.972 Y137.258 E5.88252
G1 X111.165 Y137.027 E5.91043
G1 X110.962 Y136.96 E5.91754
G1 X110.101 Y136.634 E5.94816
G1 X109.271 Y136.234 E5.97881
G1 X108.48 Y135.764 E6.00941
G1 X107.732 Y135.227 E6.04004
G1 X107.034 Y134.627 E6.07065
G1 X106.231 Y133.786 E6.10933
G1 X106.047 Y133.571 E6.11874
G1 X105.439 Y132.79 E6.15166
G1 X105.173 Y132.413 E6.167
G1 X104.608 Y131.521 E6.20212
G1 X104.483 Y131.3 E6.21057
G1 X104.006 Y130.349 E6.24595
G1 X103.761 Y129.792 E6.26619
G1 X103.427 Y128.934 E6.29682
G1 X103.283 Y128.474 E6.31285
G1 X103.13 Y127.946 E6.33113
G1 X102.912 Y127.052 E6.36174
G1 X102.814 Y126.468 E6.38143
G1 X102.721 Y125.805 E6.4037
G1 X102.621 Y124.574 E6.44478
G1 X102.611 Y124.135 E6.45938
G1 X102.539 Y121.511 E6.54669
G1 X102.399 Y118.973 E6.63123
G1 X102.186 Y116.435 E6.71594
G1 X101.995 Y114.684 E6.77453
G1 X101.944 Y114.083 E6.79459
G1 X101.916 Y113.462 E6.81527
G1 X101.912 Y113.197 E6.82408
G1 X101.918 Y112.651 E6.84224
G1 X101.929 Y112.349 E6.85229
G1 X102.015 Y111.334 E6.88617
G1 X102.103 Y110.674 E6.90832
G1 X102.219 Y109.983 E6.93162
G1 X102.549 Y108.346 E6.98716
G1 X102.736 Y107.293 E7.02274
G1 X102.812 Y106.9 E7.03605
G1 X103.133 Y105.651 E7.07894
G1 X103.231 Y105.348 E7.08953
G1 X103.552 Y104.485 E7.12016
G1 X103.947 Y103.653 E7.15079
G1 X104.539 Y102.668 E7.18901
G1 X104.694 Y102.439 E7.19821
G1 X105.242 Y101.7 E7.22881
G1 X105.853 Y101.011 E7.25944
G1 X106.531 Y100.369 E7.2905
G1 X106.733 Y100.194 E7.29938
G1 X107.455 Y99.622 E7.33002
G1 X108.223 Y99.115 E7.36063
G1 X109.011 Y98.687 E7.39045
G1 X109.207 Y98.591 E7.39771
G1 X110.051 Y98.222 E7.42835
G1 X110.923 Y97.928 E7.45896
G1 X111.395 Y97.803 E7.4752
G1 X111.649 Y97.742 E7.48389
G1 X112.552 Y97.566 E7.51448
G1 X113.468 Y97.469 E7.54512
G1 X114.241 Y97.45 E7.57084
G1 X115.925 Y97.469 E7.62685
G1 X116.365 Y97.48 E7.64149
G1 X118.912 Y97.478 E7.72621
G1 X120.081 Y97.448 E7.7651
G1 X120.622 Y97.442 E7.78309
G1 X121.543 Y97.471 E7.81374
G1 X122.373 Y97.563 E7.84152
G0 F6000 X122.113 Y97.127
G1 F1200 X122.423 Y97.166 E7.85191
G1 X123.348 Y97.323 E7.88311
G1 X124.256 Y97.557 E7.9143
G1 X125.532 Y98.035 E7.95962
G1 X125.783 Y98.147 E7.96876
G1 X126.623 Y98.565 E7.99997
G1 X127.423 Y99.053 E8.03114
G1 X128.509 Y99.883 E8.0766
G1 X128.758 Y100.099 E8.08756
G1 X129.44 Y100.743 E8.11876
G1 X130.064 Y101.443 E8.14995
G1 X130.626 Y102.193 E8.18112
G1 X130.908 Y102.626 E8.19831
G1 X131.06 Y102.872 E8.20793
G1 X131.518 Y103.69 E8.23911
G1 X131.905 Y104.544 E8.27029
G1 X132.273 Y105.611 E8.30783
G1 X132.349 Y105.875 E8.31697
G1 X132.591 Y106.896 E8.35187
G1 X132.796 Y107.962 E8.38797
G1 X133.251 Y110.378 E8.46974
G1 X133.415 Y111.663 E8.51283
G1 X133.457 Y112.277 E8.5333
G1 X133.482 Y113.164 E8.56281
G1 X133.479 Y113.406 E8.57086
G1 X133.444 Y114.164 E8.5961
G1 X133.366 Y115.086 E8.62688
G1 X133.121 Y117.49 E8.70725
G1 X132.939 Y119.964 E8.78975
G1 X132.825 Y122.511 E8.87455
G1 X132.782 Y124.522 E8.94145
G1 X132.69 Y125.722 E8.98148
G1 X132.597 Y126.43 E9.00523
G1 X132.436 Y127.353 E9.0364
G1 X132.239 Y128.118 E9.06267
G1 X132.073 Y128.679 E9.08213
G1 X131.769 Y129.566 E9.11332
G1 X131.566 Y130.05 E9.13077
G1 X131.332 Y130.573 E9.14983
G1 X130.913 Y131.412 E9.18102
G1 X130.583 Y131.969 E9.20255
G1 X130.308 Y132.403 E9.21964
G1 X129.833 Y133.093 E9.2475
G1 X129.595 Y133.412 E9.26074
G1 X129.002 Y134.139 E9.29195
G1 X128.35 Y134.813 E9.32314
G1 X127.643 Y135.429 E9.35432
G1 X126.721 Y136.09 E9.39206
G1 X126.545 Y136.203 E9.39901
G1 X125.735 Y136.676 E9.43021
G1 X124.888 Y137.078 E9.46139
G1 X124.009 Y137.406 E9.4926
G1 X123.106 Y137.658 E9.52378
G1 X122.184 Y137.833 E9.55499
G1 X121.251 Y137.928 E9.58619
G1 X120.761 Y137.946 E9.60249
G1 X120.069 Y137.956 E9.62551
G1 X119.678 Y137.955 E9.63852
G1 X118.12 Y137.922 E9.69035
G1 X115.602 Y137.94 E9.7741
G1 X114.719 Y137.959 E9.80347
G1 X113.782 Y137.938 E9.83465
G1 X112.849 Y137.838 E9.86586
G1 X111.928 Y137.659 E9.89706
G1 X111.039 Y137.407 E9.9278
G1 X110.836 Y137.34 E9.93491
G1 X109.959 Y137.008 E9.9661
G1 X109.113 Y136.603 E9.99729
G1 X108.305 Y136.127 E10.02848
G1 X107.54 Y135.584 E10.05968
G1 X106.824 Y134.978 E10.09088
G1 X105.927 Y134.046 E10.13391
G1 X105.743 Y133.831 E10.14332
G1 X105.112 Y133.021 E10.17747
G1 X104.846 Y132.644 E10.19282
G1 X104.259 Y131.717 E10.22931
G1 X104.134 Y131.496 E10.23775
G1 X103.64 Y130.51 E10.27443
G1 X103.395 Y129.953 E10.29467
G1 X103.054 Y129.079 E10.32588
G1 X102.899 Y128.586 E10.34306
G1 X102.746 Y128.058 E10.36135
G1 X102.523 Y127.146 E10.39258
G1 X102.418 Y126.524 E10.41356
G1 X102.325 Y125.861 E10.43582
G1 X102.221 Y124.584 E10.47844
G1 X102.211 Y124.145 E10.49304
G1 X102.139 Y121.509 E10.58075
G1 X102.002 Y119.027 E10.66343
G1 X101.788 Y116.476 E10.74857
G1 X101.597 Y114.728 E10.80706
G1 X101.545 Y114.113 E10.82758
G1 X101.516 Y113.468 E10.84906
G1 X101.512 Y113.203 E10.85787
G1 X101.518 Y112.637 E10.8767
G1 X101.529 Y112.335 E10.88675
G1 X101.618 Y111.281 E10.92193
G1 X101.706 Y110.621 E10.94408
G1 X101.826 Y109.904 E10.96826
G1 X102.162 Y108.236 E11.02485
G1 X102.343 Y107.217 E11.05927
G1 X102.419 Y106.824 E11.07258
G1 X102.753 Y105.528 E11.1171
G1 X102.851 Y105.225 E11.12769
G1 X103.177 Y104.346 E11.15887
G1 X103.577 Y103.497 E11.19009
G1 X104.208 Y102.444 E11.23092
G1 X104.363 Y102.215 E11.24011
G1 X104.921 Y101.462 E11.27129
G1 X105.541 Y100.758 E11.30249
G1 X106.269 Y100.067 E11.33587
G1 X106.471 Y99.892 E11.34476
G1 X107.206 Y99.309 E11.37596
G1 X107.987 Y98.79 E11.40715
G1 X108.835 Y98.327 E11.43929
G1 X109.031 Y98.231 E11.44654
G1 X109.891 Y97.855 E11.47776
G1 X110.779 Y97.553 E11.50896
G1 X111.301 Y97.414 E11.52693
G1 X111.555 Y97.353 E11.53561
G1 X112.476 Y97.173 E11.56683
G1 X113.408 Y97.072 E11.59801
G1 X114.246 Y97.05 E11.62589
G1 X115.934 Y97.069 E11.68203
G1 X116.374 Y97.08 E11.69667
G1 X118.901 Y97.078 E11.78072
G1 X120.077 Y97.048 E11.81985
G1 X120.618 Y97.042 E11.83784
G1 X121.555 Y97.071 E11.86902
G1 X122.113 Y97.127 E11.88768
G1 F2700 E6.88768
;MESH:Ender-3_Extruder_PTFE_Cable_Clip_1.8mm_Leo_N.stl
G0 F6000 X115.84 Y114.247
G0 X115.129 Y115.099
G0 X114.075 Y113.645
G0 X114.494 Y111.152
G0 X114.474 Y108.959
G0 X114.282 Y108.806
G0 X114.033 Y108.898
G0 X113.282 Y112.769
G0 X113.354 Y113.907
G0 X113.582 Y114.642
G0 X113.8 Y122.199
;TYPE:WALL-INNER
G1 F2700 E11.88768
G1 F1200 X113.8 Y122.093 E11.8912
G1 X113.8 Y121.81 E11.90061
G1 X113.8 Y121.532 E11.90986
G1 X113.8 Y115.471 E12.11145
G1 X113.586 Y115.079 E12.1263
G1 X113.454 Y114.799 E12.1366
G1 X113.344 Y114.52 E12.14657
G1 X113.26 Y114.246 E12.15611
G1 X113.187 Y113.942 E12.16651
G1 X113.139 Y113.651 E12.17631
G1 X113.111 Y113.37 E12.18571
G1 X113.102 Y113.096 E12.19483
G1 X113.111 Y112.763 E12.2059
G1 X113.139 Y112.491 E12.215
G1 X113.19 Y112.184 E12.22535
G1 X113.258 Y111.903 E12.23497
G1 X113.346 Y111.621 E12.24479
G1 X113.449 Y111.355 E12.25428
G1 X113.558 Y111.119 E12.26293
G1 X113.789 Y110.692 E12.27907
G1 X113.805 Y109.01 E12.33502
G1 X113.82 Y108.939 E12.33743
G1 X113.84 Y108.885 E12.33935
G1 X113.867 Y108.836 E12.34121
G1 X113.905 Y108.785 E12.34332
G1 X113.95 Y108.739 E12.34546
G1 X113.995 Y108.704 E12.34736
G1 X114.052 Y108.673 E12.34952
G1 X114.109 Y108.651 E12.35155
G1 X114.169 Y108.638 E12.35359
G1 X114.232 Y108.632 E12.3557
G1 X114.303 Y108.636 E12.35806
G1 X114.348 Y108.645 E12.35959
G1 X114.409 Y108.668 E12.36176
G1 X114.467 Y108.699 E12.36394
G1 X114.517 Y108.736 E12.36601
G1 X114.554 Y108.771 E12.36771
G1 X114.594 Y108.824 E12.36992
G1 X114.627 Y108.883 E12.37216
G1 X114.648 Y108.936 E12.37406
G1 X114.663 Y109.005 E12.37641
G1 X114.67 Y109.08 E12.37891
G1 X114.665 Y111.165 E12.44826
G1 X114.653 Y111.271 E12.45181
G1 X114.631 Y111.372 E12.45525
G1 X114.59 Y111.502 E12.45978
G1 X114.431 Y111.862 E12.47287
G1 X114.335 Y112.142 E12.48272
G1 X114.264 Y112.431 E12.49261
G1 X114.219 Y112.727 E12.50257
G1 X114.202 Y113.023 E12.51243
G1 X114.209 Y113.318 E12.52225
G1 X114.243 Y113.617 E12.53226
G1 X114.307 Y113.91 E12.54223
G1 X114.395 Y114.193 E12.55209
G1 X114.509 Y114.469 E12.56202
G1 X114.647 Y114.733 E12.57193
G1 X114.81 Y114.983 E12.58185
G1 X114.991 Y115.217 E12.59169
G1 X115.196 Y115.435 E12.60165
G1 X115.418 Y115.633 E12.61154
G1 X115.657 Y115.81 E12.62143
G1 X115.911 Y115.966 E12.63135
G1 X116.181 Y116.097 E12.64133
G1 X116.458 Y116.203 E12.65119
G1 X116.744 Y116.284 E12.66108
G1 X117.036 Y116.339 E12.67096
G1 X117.333 Y116.368 E12.68089
G1 X117.628 Y116.37 E12.6907
G1 X117.929 Y116.346 E12.70074
G1 X118.222 Y116.293 E12.71065
G1 X118.508 Y116.216 E12.7205
G1 X118.787 Y116.112 E12.7304
G1 X119.058 Y115.983 E12.74038
G1 X119.312 Y115.83 E12.75025
G1 X119.553 Y115.657 E12.76011
G1 X119.778 Y115.461 E12.77004
G1 X119.986 Y115.245 E12.78001
G1 X120.17 Y115.011 E12.78991
G1 X120.335 Y114.764 E12.79979
G1 X120.476 Y114.5 E12.80975
G1 X120.593 Y114.224 E12.81972
G1 X120.682 Y113.942 E12.82955
G1 X120.748 Y113.651 E12.83948
G1 X120.786 Y113.355 E12.8494
G1 X120.799 Y113.062 E12.85916
G1 X120.787 Y112.763 E12.86911
G1 X120.745 Y112.465 E12.87912
G1 X120.676 Y112.174 E12.88907
G1 X120.582 Y111.892 E12.89895
G1 X120.411 Y111.503 E12.91309
G1 X120.376 Y111.394 E12.91689
G1 X120.35 Y111.277 E12.92088
G1 X120.336 Y111.171 E12.92444
G1 X120.331 Y111.025 E12.9293
G1 X120.33 Y109.08 E12.99399
G1 X120.335 Y109.007 E12.99642
G1 X120.348 Y108.945 E12.99853
G1 X120.366 Y108.896 E13.00026
G1 X120.401 Y108.83 E13.00275
G1 X120.434 Y108.785 E13.0046
G1 X120.474 Y108.744 E13.00651
G1 X120.526 Y108.704 E13.00869
G1 X120.582 Y108.673 E13.01082
G1 X120.637 Y108.652 E13.01278
G1 X120.698 Y108.638 E13.01486
G1 X120.767 Y108.632 E13.01716
G1 X120.829 Y108.635 E13.01923
G1 X120.949 Y108.671 E13.02339
