;FLAVOR:Marlin
;TIME:8783
;Filament used: 5.49208m
;Layer height: 0.2
;MINX:87.7
;MINY:87.7
;MINZ:0.2
;MAXX:147.3
;MAXY:147.3
;MAXZ:45
;Generated with Cura_SteamEngine 4.11.0
M140 S57
M105
M190 S57
M104 S208
M105
M109 S208
M82 ;absolute extrusion mode
; Ender 3 Custom Start G-code
G92 E0 ; Reset Extruder
G28 ; Home all axes
G1 Z2.0 F3000 ; Move Z Axis up little to prevent scratching of Heat Bed
G1 X0.1 Y20 Z0.3 F5000.0 ; Move to start position
G1 X0.1 Y200.0 Z0.3 F1500.0 E15 ; Draw the first line
G1 X0.4 Y200.0 Z0.3 F5000.0 ; Move to side a little
G1 X0.4 Y20 Z0.3 F1500.0 E30 ; Draw the second line
G92 E0 ; Reset Extruder
G1 Z2.0 F3000 ; Move Z Axis up little to prevent scratching of Heat Bed
G1 X5 Y20 Z0.3 F5000.0 ; Move over to prevent blob squish
G92 E0
G92 E0
G1 F2700 E-5
;LAYER_COUNT:225
;LAYER:0
M107
G0 F6000 X89.985 Y90.102 Z0.2
;TYPE:SKIRT
G1 F2700 E0
G1 F1200 X90.102 Y89.985 E0.0055
G1 X90.688 Y89.455 E0.03178
G1 X91.324 Y88.988 E0.05803
G1 X92.004 Y88.587 E0.08428
G1 X92.722 Y88.257 E0.11057
G1 X93.469 Y88.002 E0.13682
G1 X94.238 Y87.823 E0.16308
G1 X95.022 Y87.723 E0.18937
G1 X95.617 Y87.7 E0.20917
G1 X139.383 Y87.7 E1.66483
G1 X140.172 Y87.74 E1.69111
G1 X140.952 Y87.859 E1.71735
G1 X141.717 Y88.057 E1.74364
G1 X142.457 Y88.331 E1.76988
G1 X143.166 Y88.679 E1.79615
G1 X143.837 Y89.097 E1.82244
G1 X144.461 Y89.58 E1.84869
G1 X144.898 Y89.985 E1.86851
G1 X145.015 Y90.102 E1.87401
G1 X145.545 Y90.688 E1.90029
G1 X146.012 Y91.324 E1.92653
G1 X146.413 Y92.004 E1.95279
G1 X146.743 Y92.722 E1.97907
G1 X146.998 Y93.469 E2.00532
G1 X147.177 Y94.238 E2.03159
G1 X147.277 Y95.022 E2.05787
G1 X147.3 Y95.617 E2.07768
G1 X147.3 Y98.868 E2.18581
G1 X147.26 Y99.657 E2.21208
G1 X147.198 Y100.064 E2.22577
G1 X147.277 Y100.685 E2.2466
G1 X147.3 Y101.28 E2.2664
G1 X147.3 Y107.581 E2.47597
G1 X147.26 Y108.37 E2.50225
G1 X147.198 Y108.777 E2.51594
G1 X147.277 Y109.398 E2.53676
G1 X147.3 Y109.993 E2.55657
G1 X147.3 Y116.294 E2.76614
G1 X147.26 Y117.083 E2.79241
G1 X147.198 Y117.49 E2.80611
G1 X147.277 Y118.111 E2.82693
G1 X147.3 Y118.706 E2.84673
G1 X147.3 Y125.007 E3.05631
G1 X147.26 Y125.796 E3.08258
G1 X147.198 Y126.203 E3.09627
G1 X147.277 Y126.824 E3.1171
G1 X147.3 Y127.419 E3.1369
G1 X147.3 Y133.72 E3.34647
G1 X147.26 Y134.509 E3.37275
G1 X147.198 Y134.916 E3.38644
G1 X147.277 Y135.537 E3.40726
G1 X147.3 Y136.132 E3.42707
G1 X147.3 Y139.383 E3.5352
G1 X147.26 Y140.172 E3.56147
G1 X147.141 Y140.952 E3.58771
G1 X146.943 Y141.717 E3.614
G1 X146.669 Y142.457 E3.64024
G1 X146.321 Y143.166 E3.66651
G1 X145.903 Y143.837 E3.69281
G1 X145.42 Y144.461 E3.71905
G1 X145.015 Y144.898 E3.73887
G1 X144.898 Y145.015 E3.74437
G1 X144.312 Y145.545 E3.77065
G1 X143.676 Y146.012 E3.79689
G1 X142.996 Y146.413 E3.82315
G1 X142.278 Y146.743 E3.84943
G1 X141.531 Y146.998 E3.87569
G1 X140.762 Y147.177 E3.90195
G1 X139.978 Y147.277 E3.92823
G1 X139.383 Y147.3 E3.94804
G1 X95.617 Y147.3 E5.4037
G1 X94.828 Y147.26 E5.42998
G1 X94.048 Y147.141 E5.45622
G1 X93.283 Y146.943 E5.4825
G1 X92.543 Y146.669 E5.50875
G1 X91.834 Y146.321 E5.53502
G1 X91.163 Y145.903 E5.56131
G1 X90.539 Y145.42 E5.58756
G1 X90.102 Y145.015 E5.60737
G1 X89.985 Y144.898 E5.61288
G1 X89.455 Y144.312 E5.63916
G1 X88.988 Y143.676 E5.6654
G1 X88.587 Y142.996 E5.69166
G1 X88.257 Y142.278 E5.71794
G1 X88.002 Y141.531 E5.74419
G1 X87.823 Y140.762 E5.77045
G1 X87.723 Y139.978 E5.79674
G1 X87.7 Y139.383 E5.81654
G1 X87.7 Y136.132 E5.92467
G1 X87.74 Y135.343 E5.95095
G1 X87.802 Y134.936 E5.96464
G1 X87.723 Y134.315 E5.98546
G1 X87.7 Y133.72 E6.00527
G1 X87.7 Y127.419 E6.21484
G1 X87.74 Y126.63 E6.24112
G1 X87.802 Y126.223 E6.25481
G1 X87.723 Y125.602 E6.27563
G1 X87.7 Y125.007 E6.29543
G1 X87.7 Y118.706 E6.50501
G1 X87.74 Y117.917 E6.53128
G1 X87.802 Y117.51 E6.54498
G1 X87.723 Y116.889 E6.5658
G1 X87.7 Y116.294 E6.5856
G1 X87.7 Y109.993 E6.79517
G1 X87.74 Y109.204 E6.82145
G1 X87.802 Y108.797 E6.83514
G1 X87.723 Y108.176 E6.85596
G1 X87.7 Y107.581 E6.87577
G1 X87.7 Y101.28 E7.08534
G1 X87.74 Y100.491 E7.11162
G1 X87.802 Y100.084 E7.12531
G1 X87.723 Y99.463 E7.14613
G1 X87.7 Y98.868 E7.16593
G1 X87.7 Y95.617 E7.27406
G1 X87.74 Y94.828 E7.30034
G1 X87.859 Y94.048 E7.32658
G1 X88.057 Y93.283 E7.35286
G1 X88.331 Y92.543 E7.37911
G1 X88.679 Y91.834 E7.40538
G1 X89.097 Y91.163 E7.43167
G1 X89.58 Y90.539 E7.45792
G1 X89.985 Y90.102 E7.47773
G0 F6000 X90.267 Y90.384
G1 F1200 X90.384 Y90.267 E7.48324
G1 X90.956 Y89.753 E7.50882
G1 X91.578 Y89.3 E7.53441
G1 X92.243 Y88.914 E7.55998
G1 X92.945 Y88.599 E7.58557
G1 X93.676 Y88.359 E7.61116
G1 X94.427 Y88.196 E7.63672
G1 X95.192 Y88.112 E7.66232
G1 X95.617 Y88.1 E7.67646
G1 X139.383 Y88.1 E9.13212
G1 X140.151 Y88.14 E9.1577
G1 X140.911 Y88.259 E9.18329
G1 X141.654 Y88.457 E9.20886
G1 X142.373 Y88.731 E9.23446
G1 X143.059 Y89.078 E9.26002
G1 X143.706 Y89.494 E9.28561
G1 X144.306 Y89.975 E9.31119
G1 X144.616 Y90.267 E9.32535
G1 X144.733 Y90.384 E9.33085
G1 X145.247 Y90.956 E9.35643
G1 X145.7 Y91.578 E9.38202
G1 X146.086 Y92.243 E9.4076
G1 X146.401 Y92.945 E9.43319
G1 X146.641 Y93.676 E9.45878
G1 X146.804 Y94.427 E9.48434
G1 X146.888 Y95.192 E9.50994
G1 X146.9 Y95.617 E9.52408
G1 X146.9 Y98.868 E9.63221
G1 X146.86 Y99.636 E9.65778
G1 X146.795 Y100.05 E9.67172
G1 X146.804 Y100.09 E9.67309
G1 X146.888 Y100.855 E9.69868
G1 X146.9 Y101.28 E9.71282
G1 X146.9 Y107.581 E9.9224
G1 X146.86 Y108.349 E9.94797
G1 X146.795 Y108.763 E9.96191
G1 X146.804 Y108.803 E9.96328
G1 X146.888 Y109.568 E9.98887
G1 X146.9 Y109.993 E10.00301
G1 X146.9 Y116.294 E10.21259
G1 X146.86 Y117.062 E10.23817
G1 X146.795 Y117.476 E10.2521
G1 X146.804 Y117.516 E10.25347
G1 X146.888 Y118.281 E10.27906
G1 X146.9 Y118.706 E10.29321
G1 X146.9 Y125.007 E10.50278
G1 X146.86 Y125.775 E10.52836
G1 X146.795 Y126.189 E10.54229
G1 X146.804 Y126.229 E10.54366
G1 X146.888 Y126.994 E10.56926
G1 X146.9 Y127.419 E10.5834
G1 X146.9 Y133.72 E10.79297
G1 X146.86 Y134.488 E10.81855
G1 X146.795 Y134.902 E10.83249
G1 X146.804 Y134.942 E10.83385
G1 X146.888 Y135.707 E10.85945
G1 X146.9 Y136.132 E10.87359
G1 X146.9 Y139.383 E10.98172
G1 X146.86 Y140.151 E11.00729
G1 X146.741 Y140.911 E11.03288
G1 X146.543 Y141.654 E11.05845
G1 X146.269 Y142.373 E11.08405
G1 X145.922 Y143.059 E11.10962
G1 X145.506 Y143.706 E11.1352
G1 X145.025 Y144.306 E11.16078
G1 X144.733 Y144.616 E11.17494
G1 X144.616 Y144.733 E11.18044
G1 X144.044 Y145.247 E11.20602
G1 X143.422 Y145.7 E11.23161
G1 X142.757 Y146.086 E11.25719
G1 X142.055 Y146.401 E11.28278
G1 X141.324 Y146.641 E11.30837
G1 X140.573 Y146.804 E11.33393
G1 X139.808 Y146.888 E11.35953
G1 X139.383 Y146.9 E11.37367
G1 X95.617 Y146.9 E12.82933
G1 X94.849 Y146.86 E12.85491
G1 X94.089 Y146.741 E12.88049
G1 X93.346 Y146.543 E12.90607
G1 X92.627 Y146.269 E12.93166
G1 X91.941 Y145.922 E12.95723
G1 X91.294 Y145.506 E12.98281
G1 X90.694 Y145.025 E13.00839
G1 X90.384 Y144.733 E13.02256
G1 X90.267 Y144.616 E13.02806
G1 X89.753 Y144.044 E13.05364
G1 X89.3 Y143.422 E13.07923
G1 X88.914 Y142.757 E13.1048
G1 X88.599 Y142.055 E13.13039
G1 X88.359 Y141.324 E13.15598
G1 X88.196 Y140.573 E13.18154
G1 X88.112 Y139.808 E13.20714
G1 X88.1 Y139.383 E13.22128
G1 X88.1 Y136.132 E13.32941
G1 X88.14 Y135.364 E13.35499
G1 X88.205 Y134.95 E13.36893
G1 X88.196 Y134.91 E13.37029
G1 X88.112 Y134.145 E13.39589
G1 X88.1 Y133.72 E13.41003
G1 X88.1 Y127.419 E13.6196
G1 X88.14 Y126.651 E13.64518
G1 X88.205 Y126.237 E13.65912
G1 X88.196 Y126.197 E13.66048
G1 X88.112 Y125.432 E13.68608
G1 X88.1 Y125.007 E13.70022
G1 X88.1 Y118.706 E13.90979
G1 X88.14 Y117.938 E13.93537
G1 X88.205 Y117.524 E13.94931
G1 X88.196 Y117.484 E13.95067
G1 X88.112 Y116.719 E13.97627
G1 X88.1 Y116.294 E13.99041
G1 X88.1 Y109.993 E14.19998
G1 X88.14 Y109.225 E14.22556
G1 X88.205 Y108.811 E14.2395
G1 X88.196 Y108.771 E14.24086
G1 X88.112 Y108.006 E14.26646
G1 X88.1 Y107.581 E14.2806
G1 X88.1 Y101.28 E14.49017
G1 X88.14 Y100.512 E14.51575
G1 X88.205 Y100.098 E14.52969
G1 X88.196 Y100.058 E14.53105
G1 X88.112 Y99.293 E14.55665
G1 X88.1 Y98.868 E14.57079
G1 X88.1 Y95.617 E14.67892
G1 X88.14 Y94.849 E14.7045
G1 X88.259 Y94.089 E14.73009
G1 X88.457 Y93.346 E14.75566
G1 X88.731 Y92.627 E14.78125
G1 X89.078 Y91.941 E14.80682
G1 X89.494 Y91.294 E14.83241
G1 X89.975 Y90.694 E14.85798
G1 X90.267 Y90.384 E14.87215
G0 F6000 X90.55 Y90.667
G1 F1200 X90.667 Y90.55 E14.87765
G1 X91.224 Y90.05 E14.90255
G1 X91.83 Y89.613 E14.92739
G1 X92.48 Y89.242 E14.95229
G1 X93.166 Y88.943 E14.97718
G1 X93.88 Y88.719 E15.00207
G1 X94.613 Y88.572 E15.02693
G1 X95.617 Y88.5 E15.06041
G1 X139.383 Y88.5 E16.51607
G1 X140.13 Y88.54 E16.54095
G1 X140.868 Y88.659 E16.56582
G1 X141.59 Y88.857 E16.59072
G1 X142.286 Y89.13 E16.61558
G1 X142.949 Y89.477 E16.64047
G1 X143.572 Y89.892 E16.66537
G1 X144.333 Y90.55 E16.69883
G1 X144.45 Y90.667 E16.70433
G1 X144.95 Y91.224 E16.72923
G1 X145.387 Y91.83 E16.75408
G1 X145.758 Y92.48 E16.77897
G1 X146.057 Y93.166 E16.80386
G1 X146.281 Y93.88 E16.82875
G1 X146.428 Y94.613 E16.85362
G1 X146.5 Y95.617 E16.88709
G1 X146.5 Y98.868 E16.99522
G1 X146.46 Y99.615 E17.0201
G1 X146.387 Y100.07 E17.03543
G1 X146.428 Y100.276 E17.04242
G1 X146.5 Y101.28 E17.0759
G1 X146.5 Y107.581 E17.28547
G1 X146.46 Y108.328 E17.31035
G1 X146.387 Y108.783 E17.32568
G1 X146.428 Y108.989 E17.33266
G1 X146.5 Y109.993 E17.36614
G1 X146.5 Y116.294 E17.57571
G1 X146.46 Y117.041 E17.60059
G1 X146.387 Y117.496 E17.61592
G1 X146.428 Y117.702 E17.62291
G1 X146.5 Y118.706 E17.65639
G1 X146.5 Y125.007 E17.86596
G1 X146.46 Y125.754 E17.89084
G1 X146.387 Y126.209 E17.90617
G1 X146.428 Y126.415 E17.91315
G1 X146.5 Y127.419 E17.94663
G1 X146.5 Y133.72 E18.1562
G1 X146.46 Y134.467 E18.18108
G1 X146.387 Y134.922 E18.19641
G1 X146.428 Y135.128 E18.2034
G1 X146.5 Y136.132 E18.23687
G1 X146.5 Y139.383 E18.345
G1 X146.46 Y140.13 E18.36988
G1 X146.341 Y140.868 E18.39475
G1 X146.143 Y141.59 E18.41965
G1 X145.87 Y142.286 E18.44451
G1 X145.523 Y142.949 E18.4694
G1 X145.108 Y143.572 E18.4943
G1 X144.45 Y144.333 E18.52776
G1 X144.333 Y144.45 E18.53326
G1 X143.776 Y144.95 E18.55816
G1 X143.17 Y145.387 E18.58301
G1 X142.52 Y145.758 E18.6079
G1 X141.834 Y146.057 E18.63279
G1 X141.12 Y146.281 E18.65768
G1 X140.387 Y146.428 E18.68255
G1 X139.383 Y146.5 E18.71602
G1 X95.617 Y146.5 E20.17169
G1 X94.87 Y146.46 E20.19657
G1 X94.132 Y146.341 E20.22143
G1 X93.41 Y146.143 E20.24633
G1 X92.714 Y145.87 E20.2712
G1 X92.051 Y145.523 E20.29609
G1 X91.428 Y145.108 E20.32098
G1 X90.667 Y144.45 E20.35445
G1 X90.55 Y144.333 E20.35995
G1 X90.05 Y143.776 E20.38484
G1 X89.613 Y143.17 E20.40969
G1 X89.242 Y142.52 E20.43459
G1 X88.943 Y141.834 E20.45948
G1 X88.719 Y141.12 E20.48436
G1 X88.572 Y140.387 E20.50923
G1 X88.5 Y139.383 E20.54271
G1 X88.5 Y136.132 E20.65084
G1 X88.54 Y135.385 E20.67572
G1 X88.613 Y134.93 E20.69105
G1 X88.572 Y134.724 E20.69803
G1 X88.5 Y133.72 E20.73151
G1 X88.5 Y127.419 E20.94108
G1 X88.54 Y126.672 E20.96596
G1 X88.613 Y126.217 E20.98129
G1 X88.572 Y126.011 E20.98828
G1 X88.5 Y125.007 E21.02176
G1 X88.5 Y118.706 E21.23133
G1 X88.54 Y117.959 E21.25621
G1 X88.613 Y117.504 E21.27154
G1 X88.572 Y117.298 E21.27852
G1 X88.5 Y116.294 E21.312
G1 X88.5 Y109.993 E21.52157
G1 X88.54 Y109.246 E21.54645
G1 X88.613 Y108.791 E21.56178
G1 X88.572 Y108.585 E21.56877
G1 X88.5 Y107.581 E21.60224
G1 X88.5 Y101.28 E21.81182
G1 X88.54 Y100.533 E21.8367
G1 X88.613 Y100.078 E21.85202
G1 X88.572 Y99.872 E21.85901
G1 X88.5 Y98.868 E21.89249
G1 X88.5 Y95.617 E22.00062
G1 X88.54 Y94.87 E22.0255
G1 X88.659 Y94.132 E22.05036
G1 X88.857 Y93.41 E22.07526
G1 X89.13 Y92.714 E22.10013
G1 X89.477 Y92.051 E22.12502
G1 X89.892 Y91.428 E22.14992
G1 X90.55 Y90.667 E22.18338
G0 F6000 X90.833 Y90.95
G1 F1200 X90.95 Y90.833 E22.18888
G1 X91.491 Y90.349 E22.21302
G1 X92.082 Y89.926 E22.2372
G1 X92.716 Y89.572 E22.26135
G1 X93.385 Y89.289 E22.28551
G1 X94.081 Y89.081 E22.30967
G1 X94.796 Y88.951 E22.33384
G1 X95.617 Y88.9 E22.3612
G1 X139.383 Y88.9 E23.81686
G1 X140.108 Y88.94 E23.84101
G1 X140.825 Y89.059 E23.86518
G1 X141.524 Y89.257 E23.88935
G1 X142.197 Y89.53 E23.9135
G1 X142.836 Y89.875 E23.93766
G1 X143.433 Y90.289 E23.96182
G1 X144.05 Y90.833 E23.98918
G1 X144.167 Y90.95 E23.99468
G1 X144.651 Y91.491 E24.01883
G1 X145.074 Y92.082 E24.043
G1 X145.428 Y92.716 E24.06715
G1 X145.711 Y93.385 E24.09131
G1 X145.919 Y94.081 E24.11547
G1 X146.049 Y94.796 E24.13964
G1 X146.1 Y95.617 E24.167
G1 X146.1 Y98.868 E24.27513
G1 X146.06 Y99.593 E24.29928
G1 X145.98 Y100.077 E24.3156
G1 X146.049 Y100.459 E24.32851
G1 X146.1 Y101.28 E24.35587
G1 X146.1 Y107.581 E24.56544
G1 X146.06 Y108.306 E24.58959
G1 X145.98 Y108.79 E24.60591
G1 X146.049 Y109.172 E24.61882
G1 X146.1 Y109.993 E24.64618
G1 X146.1 Y116.294 E24.85575
G1 X146.06 Y117.019 E24.8799
G1 X145.98 Y117.503 E24.89621
G1 X146.049 Y117.885 E24.90913
G1 X146.1 Y118.706 E24.93648
G1 X146.1 Y125.007 E25.14606
G1 X146.06 Y125.732 E25.17021
G1 X145.98 Y126.216 E25.18652
G1 X146.049 Y126.598 E25.19943
G1 X146.1 Y127.419 E25.22679
G1 X146.1 Y133.72 E25.43637
G1 X146.06 Y134.445 E25.46052
G1 X145.98 Y134.929 E25.47683
G1 X146.049 Y135.311 E25.48974
G1 X146.1 Y136.132 E25.5171
G1 X146.1 Y139.383 E25.62523
G1 X146.06 Y140.108 E25.64938
G1 X145.941 Y140.825 E25.67356
G1 X145.743 Y141.524 E25.69772
G1 X145.47 Y142.197 E25.72187
G1 X145.125 Y142.836 E25.74603
G1 X144.711 Y143.433 E25.77019
G1 X144.167 Y144.05 E25.79755
G1 X144.05 Y144.167 E25.80305
G1 X143.509 Y144.651 E25.8272
G1 X142.918 Y145.074 E25.85137
G1 X142.284 Y145.428 E25.87552
G1 X141.615 Y145.711 E25.89968
G1 X140.919 Y145.919 E25.92384
G1 X140.204 Y146.049 E25.94801
G1 X139.383 Y146.1 E25.97537
G1 X95.617 Y146.1 E27.43103
G1 X94.892 Y146.06 E27.45519
G1 X94.175 Y145.941 E27.47936
G1 X93.476 Y145.743 E27.50352
G1 X92.803 Y145.47 E27.52768
G1 X92.164 Y145.125 E27.55183
G1 X91.567 Y144.711 E27.57599
G1 X90.95 Y144.167 E27.60335
G1 X90.833 Y144.05 E27.60886
G1 X90.349 Y143.509 E27.633
G1 X89.926 Y142.918 E27.65717
G1 X89.572 Y142.284 E27.68132
G1 X89.289 Y141.615 E27.70548
G1 X89.081 Y140.919 E27.72965
G1 X88.951 Y140.204 E27.75382
G1 X88.9 Y139.383 E27.78118
G1 X88.9 Y136.132 E27.8893
G1 X88.94 Y135.407 E27.91345
G1 X89.02 Y134.923 E27.92977
G1 X88.951 Y134.541 E27.94268
G1 X88.9 Y133.72 E27.97004
G1 X88.9 Y127.419 E28.17961
G1 X88.94 Y126.694 E28.20376
G1 X89.02 Y126.21 E28.22008
G1 X88.951 Y125.828 E28.23299
G1 X88.9 Y125.007 E28.26035
G1 X88.9 Y118.706 E28.46992
G1 X88.94 Y117.981 E28.49407
G1 X89.02 Y117.497 E28.51039
G1 X88.951 Y117.115 E28.5233
G1 X88.9 Y116.294 E28.55066
G1 X88.9 Y109.993 E28.76023
G1 X88.94 Y109.268 E28.78438
G1 X89.02 Y108.784 E28.8007
G1 X88.951 Y108.402 E28.81361
G1 X88.9 Y107.581 E28.84097
G1 X88.9 Y101.28 E29.05054
G1 X88.94 Y100.555 E29.07469
G1 X89.02 Y100.071 E29.09101
G1 X88.951 Y99.689 E29.10392
G1 X88.9 Y98.868 E29.13128
G1 X88.9 Y95.617 E29.23941
G1 X88.94 Y94.892 E29.26356
G1 X89.059 Y94.175 E29.28773
G1 X89.257 Y93.476 E29.31189
G1 X89.53 Y92.803 E29.33605
G1 X89.875 Y92.164 E29.3602
G1 X90.289 Y91.567 E29.38436
G1 X90.833 Y90.95 E29.41172
G0 F6000 X91.116 Y91.233
G1 F1200 X91.233 Y91.116 E29.41723
G1 X91.758 Y90.647 E29.44064
G1 X92.333 Y90.241 E29.46405
G1 X92.951 Y89.903 E29.48748
G1 X93.602 Y89.636 E29.51088
G1 X94.28 Y89.446 E29.5343
G1 X94.975 Y89.333 E29.55772
G1 X95.617 Y89.3 E29.5791
G1 X139.383 Y89.3 E31.03477
G1 X140.086 Y89.34 E31.05819
G1 X140.78 Y89.459 E31.08161
G1 X141.455 Y89.657 E31.105
G1 X142.104 Y89.929 E31.12841
G1 X142.718 Y90.274 E31.15183
G1 X143.289 Y90.685 E31.17523
G1 X143.767 Y91.116 E31.19664
G1 X143.884 Y91.233 E31.20214
G1 X144.353 Y91.758 E31.22556
G1 X144.759 Y92.333 E31.24897
G1 X145.097 Y92.951 E31.2724
G1 X145.364 Y93.602 E31.2958
G1 X145.554 Y94.28 E31.31922
G1 X145.667 Y94.975 E31.34264
G1 X145.7 Y95.617 E31.36402
G1 X145.7 Y98.868 E31.47215
G1 X145.66 Y99.571 E31.49557
G1 X145.575 Y100.069 E31.51237
G1 X145.667 Y100.638 E31.53154
G1 X145.7 Y101.28 E31.55292
G1 X145.7 Y107.581 E31.76249
G1 X145.66 Y108.284 E31.78591
G1 X145.575 Y108.782 E31.80272
G1 X145.667 Y109.351 E31.82189
G1 X145.7 Y109.993 E31.84327
G1 X145.7 Y116.294 E32.05284
